!!!!SEGMENT: pl-cz--i-52_maader-ludwik--en-quam-tanto.krn
!!!id: 17xx:957
!!!COM: Maader, Ludwik
!!!COM-rism: pe30020328
!!!CDT: <1794->1798
!!!CNT:
!!!OTL: En quam tanto
!!!PDT: 1797
!!!SMS-siglum: PL-CZ
!!!SMS-shelfmark: I-52
!!!NIFC-rismID: 300000754
!!!URL-scan: http://repozytorium.nifc.pl/skany/pl-cz-nut--i-52
!!!ONB-nifc:
!!!SMS-variant:
!!!SMS-altvar:
**kern	**fba	**dynam	**kern	**dynam	**kern	**dynam	**kern	**text	**kern	**text	**kern	**text	**kern	**dynam	**kern	**dynam
*part8	*part8	*part8	*part7	*part7	*part6	*part6	*part5	*part5	*part4	*part4	*part3	*part3	*part2	*part2	*part1	*part1
*staff8	*staff8	*staff8	*staff7	*staff7	*staff6	*staff6	*staff5	*staff5	*staff4	*staff4	*staff3	*staff3	*staff2	*	*staff1	*
*I"Fundamento.	*	*	*I"Violino Secondo.	*	*I"Violino Primo.	*	*I"Baſso Solo.	*	*I"Canto Secondo.	*	*I"Canto Primo.	*	*I"Flauto Secondo.	*	*I"Flauto Primo.	*
*I'b	*	*	*I'vl 2	*	*I'vl 1	*	*I'B solo	*	*I'S 2 solo	*	*I'S 1 solo	*	*I'fl 2	*	*I'fl 1	*
*clefF4	*	*	*clefG2	*	*clefG2	*	*clefF4	*	*clefC1	*	*clefC1	*	*clefG2	*	*clefG2	*
*k[e-b-]	*	*	*k[b-e-]	*	*k[b-e-]	*	*k[e-b-]	*	*k[b-e-]	*	*k[b-e-]	*	*k[b-e-]	*	*k[b-e-]	*
*M2/4	*	*	*M2/4	*	*M2/4	*	*M2/4	*	*M2/4	*	*M2/4	*	*M2/4	*	*M2/4	*
*	*	*	*	*	*	*below	*	*	*	*	*	*	*	*	*	*
!LO:TX:t=P:problem:artykulacyjne kreski interpretuję preferencyjnie jako tasto	!	!	!	!	!	!	!	!	!LO:TX:t=P:problem:4, 8, 16, 32:laska w dół po środku:global	!	!	!	!	!	!	!
!LO:TX:t=P:problem:kolejność bemoli:E-, BB-	!	!	!LO:TX:t=P:problem:4, 8, 16, 32:laska w dół po środku:global	!	!LO:TX:t=P:problem:4, 8, 16, 32:laska w dół po środku:global	!	!LO:TX:t=P:problem:8, 16, 32:laska w dół po środku:global	!	!LO:TX:t=P:problem:brak przedtaktu	!	!LO:TX:t=P:problem:4, 8, 16, 32:kauda w dół po środku:global	!	!	!	!	!
!LO:TX:rj:i:a:t=Andantino.	!	!	!LO:TX:i:a:t=Tutti	!	!LO:TX:i:a:t=Tutti	!	!LO:TX:t=P:problem:kolejność bemoli:E-, BB-	!	!LO:TX:t=P:problem:kolejność bemoli:b-, ee-	!	!LO:TX:rj:i:a:t=Andantino.	!	!LO:TX:t=P:problem:4, 8, 16, 32:laska w dół po środku:global	!	!LO:TX:t=P:problem:4, 8, 16, 32:laska w dół po środku:global	!
!LO:TX:t=P:problem:4, 8, 16, 32:laska w dół po środku:global	!	!	!LO:TX:rj:i:a:t=Andantino.	!	!LO:TX:rj:i:a:t=Andantino.	!	!LO:TX:rj:i:a:t=Andantino.	!	!LO:TX:rj:a:t=Andantino	!	!LO:TX:t=P:problem:kolejność bemoli:b-, ee-	!	!LO:TX:rj:i:a:t=Andantino	!	!LO:TX:rj:i:a:t=Andantino	!
!	!	!	!	!	!	!LO:DY:b:t=forte	!	!	!	!	!	!	!	!	!	!
8r	.	.	8dd\	f	8dd\	f	8r	.	8ryy	.	8r	.	8r	.	8r	.
=1	=1	=1	=1	=1	=1	=1	=1	=1	=1	=1	=1	=1	=1	=1	=1	=1
!LO:TX:i:rj:a:t=Tutti	!	!	!	!	!	!	!	!	!LO:TX:i:a:t=20	!	!LO:TX:i:a:t=20.	!	!LO:TX:i:a:t=Tutti	!	!	!
!	!	!	!	!	!	!	!LO:N:vis=00	!	!LO:N:vis=00	!	!LO:N:vis=00	!	!	!	!	!
4GG/	.	f	8gg\L	.	8gg\L	.	0r	.	0r	.	0r	.	4b-\	.	4gg\	f
.	.	.	16.gg\L	.	16.gg\L	.	.	.	.	.	.	.	.	.	.	.
.	.	.	32dd\JJk	.	32dd\JJk	.	.	.	.	.	.	.	.	.	.	.
!	!	!	!	!	!	!	!	!	!	!	!	!	!	!	!LO:TX:i:a:t=T&colon;	!
4r	.	.	8b-/L	.	8b-/L	.	.	.	.	.	.	.	4r	.	4r	.
.	.	.	8g/J	.	8g/J	.	.	.	.	.	.	.	.	.	.	.
=2	=2	=2	=2	=2	=2	=2	=2	=2	=2	=2	=2	=2	=2	=2	=2	=2
8r	.	.	4f#X/	.	4dd\	.	.	.	.	.	.	.	8r	.	8r	.
!LO:TX:a:t=|:problem	!	!	!	!	!	!	!	!	!	!	!	!	!	!	!	!
16.d\LL	.	.	.	.	.	.	.	.	.	.	.	.	16.ddd\LL	.	16.ddd\LL	.
!LO:TX:a:t=|:problem	!	!	!	!	!	!	!	!	!	!	!	!	!	!	!	!
32A\JJk	.	.	.	.	.	.	.	.	.	.	.	.	32aa\JJk	.	32aa\JJk	.
!LO:TX:a:t=|:problem	!	!	!	!	!	!	!	!	!	!	!	!	!	!	!	!
8F#X\L	.	.	8r	.	8r	.	.	.	.	.	.	.	8ff#X\L	.	8ff#X\L	.
!LO:TX:a:t=|:problem	!	!	!	!	!	!	!	!	!	!	!	!	!	!	!	!
8D\J	.	.	8dd\	.	8dd\	.	.	.	.	.	.	.	8dd\J	.	8dd\J	.
=3	=3	=3	=3	=3	=3	=3	=3	=3	=3	=3	=3	=3	=3	=3	=3	=3
!LO:TX:a:t=|:problem	!	!	!	!	!	!	!	!	!	!	!	!	!	!	!	!
4G\	.	.	8gg\L	.	8gg\L	.	.	.	.	.	.	.	4b-\	.	4gg\	.
.	.	.	16.gg\L	.	16.gg\L	.	.	.	.	.	.	.	.	.	.	.
.	.	.	32dd\JJk	.	32dd\JJk	.	.	.	.	.	.	.	.	.	.	.
4r	.	.	8b-/L	.	8b-/L	.	.	.	.	.	.	.	4r	.	4r	.
.	.	.	8g/J	.	8g/J	.	.	.	.	.	.	.	.	.	.	.
=4	=4	=4	=4	=4	=4	=4	=4	=4	=4	=4	=4	=4	=4	=4	=4	=4
8r	.	.	4f#X/	.	4a/	.	.	.	.	.	.	.	8r	.	8r	.
!LO:TX:a:t=|:problem	!	!	!	!	!	!	!	!	!	!	!	!	!	!	!	!
16.d\LL	.	.	.	.	.	.	.	.	.	.	.	.	16.ddd\LL	.	16ddd\LL	.
.	.	.	.	.	.	.	.	.	.	.	.	.	.	.	32ryy	.
!LO:TX:a:t=|:problem	!	!	!	!	!	!	!	!	!	!	!	!	!	!	!	!
32A\JJk	.	.	.	.	.	.	.	.	.	.	.	.	32aa\JJk	.	32aa\JJk	.
!LO:TX:a:t=|:problem	!	!	!	!	!	!	!	!	!	!	!	!	!	!	!LO:TX:a:t=|:problem	!
8F#X\L	.	.	4r	.	8r	.	.	.	.	.	.	.	8ff#X\L	.	8ff#X\L	.
!LO:TX:a:t=|:problem	!	!	!	!	!LO:TX:a:t=|:problem	!	!	!	!	!	!	!	!	!	!LO:TX:a:t=|:problem	!
8D\J	.	.	.	.	8dd\	.	.	.	.	.	.	.	8dd\J	.	8dd\J	.
=5	=5	=5	=5	=5	=5	=5	=5	=5	=5	=5	=5	=5	=5	=5	=5	=5
!	!	!	!LO:TX:a:t=|:problem	!	!LO:TX:a:t=|:problem	!	!	!	!	!	!	!	!	!	!	!
!	!	!	!	!	!	!	!LO:N:vis=00	!	!LO:N:vis=00	!	!LO:N:vis=00	!	!	!	!	!
8G\	3	.	8b-\L	.	8dd\L	.	0r	.	0r	.	0r	.	8b-\	.	8gg\	.
8r	_	.	(16cc\L	.	(16ee-\L	.	.	.	.	.	.	.	8r	.	8r	.
.	.	.	16b-\JJ)	.	16dd\JJ)	.	.	.	.	.	.	.	.	.	.	.
!	!	!	!LO:TX:a:t=|:problem	!	!LO:TX:a:t=|:problem	!	!	!	!	!	!	!	!	!	!	!
8G\	x	.	8b-\L	.	8dd\L	.	.	.	.	.	.	.	8b-\	.	8gg\	.
8r	.	.	(16cc\L	.	(16ee-\L	.	.	.	.	.	.	.	8r	.	8r	.
.	.	.	16b-\JJ)	.	16dd\JJ)	.	.	.	.	.	.	.	.	.	.	.
!	!	!	!	!	!LO:LB:g=original	!	!	!	!	!	!	!	!	!	!LO:LB:g=original	!
=6	=6	=6	=6	=6	=6	=6	=6	=6	=6	=6	=6	=6	=6	=6	=6	=6
8r	.	.	4b-\	.	4dd\	.	.	.	.	.	.	.	8r	.	8r	.
!LO:TX:a:t=|:problem	!	!	!	!	!	!	!	!	!	!	!	!	!	!	!	!
16.G\LL	.	.	.	.	.	.	.	.	.	.	.	.	16.gg\LL	.	16.ggg\LL	.
!LO:TX:a:t=|:problem	!	!	!	!	!	!	!	!	!	!	!	!	!	!	!	!
32D\JJk	.	.	.	.	.	.	.	.	.	.	.	.	32dd\JJk	.	32ddd\JJk	.
!LO:TX:a:t=|:problem	!	!	!	!	!	!	!	!	!	!	!	!	!	!	!	!
8BB-/L	.	.	8r	.	8r	.	.	.	.	.	.	.	8b-/L	.	8bb-\L	.
!LO:TX:a:t=|:problem	!	!	!	!	!LO:TX:a:t=|:problem	!	!	!	!	!	!	!	!	!	!	!
8GG/J	.	.	8b-\	.	8dd\	.	.	.	.	.	.	.	8g/J	.	8gg\J	.
!LO:LB:g=original	!	!	!LO:LB:g=original	!	!	!	!	!	!	!	!	!	!LO:LB:g=original	!	!	!
=7	=7	=7	=7	=7	=7	=7	=7	=7	=7	=7	=7	=7	=7	=7	=7	=7
!	!	!	!LO:TX:b:t=|:problem	!	!LO:TX:a:t=|:problem	!	!	!	!	!	!	!	!	!	!	!
8D\	.	.	8a/L	.	8cc\L	.	.	.	.	.	.	.	8ff#X\	.	8aa\	.
8r	.	.	(16b-/L	.	(16dd\L	.	.	.	.	.	.	.	8r	.	8r	.
.	.	.	16a/JJ)	.	16cc\JJ)	.	.	.	.	.	.	.	.	.	.	.
!	!	!	!LO:TX:b:t=|:problem	!	!LO:TX:a:t=|:problem	!	!	!	!	!	!	!	!	!	!	!
8D\	.	.	8a/L	.	8cc\L	.	.	.	.	.	.	.	8ff#\	.	8aa\	.
8r	.	.	(16b-/L	.	(16dd\L	.	.	.	.	.	.	.	8r	.	8r	.
.	.	.	16a/JJ)	.	16cc\JJ)	.	.	.	.	.	.	.	.	.	.	.
=8	=8	=8	=8	=8	=8	=8	=8	=8	=8	=8	=8	=8	=8	=8	=8	=8
8r	.	.	4a/	.	4cc\	.	.	.	.	.	.	.	8r	.	8r	.
!LO:TX:a:t=|:problem	!	!	!	!	!	!	!	!	!	!	!	!	!	!	!	!
16.d\LL	.	.	.	.	.	.	.	.	.	.	.	.	16.ddd\LL	.	16.ddd\LL	.
!LO:TX:a:t=|:problem	!	!	!	!	!	!	!	!	!	!	!	!	!	!	!	!
32A\JJk	.	.	.	.	.	.	.	.	.	.	.	.	32aa\JJk	.	32aa\JJk	.
!LO:TX:a:t=|:problem	!	!	!	!	!	!	!	!	!	!	!	!	!	!	!	!
8F#X\L	.	.	8r	.	8r	.	.	.	.	.	.	.	8ff#X\L	.	8ff#X\L	.
!LO:TX:a:t=|:problem	!	!	!LO:TX:a:t=|:problem	!	!	!	!	!	!	!	!	!	!	!	!	!
8D\J	.	.	8dd\	.	8aa\	.	.	.	.	.	.	.	8dd\J	.	8dd\J	.
=9	=9	=9	=9	=9	=9	=9	=9	=9	=9	=9	=9	=9	=9	=9	=9	=9
!!pagebreak:original
!	!	!	!LO:TX:a:t=|:problem	!	!LO:TX:a:t=|:problem	!	!	!	!	!	!	!	!	!	!	!
!	!	!	!	!	!	!	!LO:N:vis=00	!	!LO:N:vis=00	!	!LO:N:vis=00	!	!	!	!	!
8G\	.	.	8dd\L	.	8bb-\L	.	0r	.	0r	.	0r	.	8dd\	.	8bb-\	.
8r	.	.	(16ee-\L	.	(16ccc\L	.	.	.	.	.	.	.	8r	.	8r	.
.	.	.	16dd\JJ)	.	16bb-\JJ)	.	.	.	.	.	.	.	.	.	.	.
!	!	!	!LO:TX:a:t=|:problem	!	!LO:TX:a:t=|:problem	!	!	!	!	!	!	!	!	!	!	!
8GG/	.	.	8dd\L	.	8bb-\L	.	.	.	.	.	.	.	8dd\	.	8bb-\	.
8r	.	.	(16ee-\L	.	(16ccc\L	.	.	.	.	.	.	.	8r	.	8r	.
.	.	.	16dd\JJ)	.	16bb-\JJ)	.	.	.	.	.	.	.	.	.	.	.
=10	=10	=10	=10	=10	=10	=10	=10	=10	=10	=10	=10	=10	=10	=10	=10	=10
8r	.	.	4dd\	.	4bb-\	.	.	.	.	.	.	.	8r	.	8r	.
16.G\LL	.	.	.	.	.	.	.	.	.	.	.	.	16.gg\LL	.	16.ggg\LL	.
32D\JJk	.	.	.	.	.	.	.	.	.	.	.	.	32dd\JJk	.	32ddd\JJk	.
8BB-/L	.	.	8r	.	8r	.	.	.	.	.	.	.	8b-/L	.	8bb-\L	.
8GG/J	.	.	8dd\	.	8bb-\	.	.	.	.	.	.	.	8g/J	.	8gg\J	.
=11	=11	=11	=11	=11	=11	=11	=11	=11	=11	=11	=11	=11	=11	=11	=11	=11
!	!	!	!LO:TX:a:t=|:problem	!	!LO:TX:a:t=|:problem	!	!	!	!	!	!	!	!	!	!	!
8D\	#	.	8cc\L	.	8aa\L	.	.	.	.	.	.	.	8ff#X\	.	8aa\	.
8r	.	.	(16dd\L	.	(16bb-\L	.	.	.	.	.	.	.	8r	.	8r	.
.	.	.	16cc\JJ)	.	16aa\JJ)	.	.	.	.	.	.	.	.	.	.	.
!	!	!	!LO:TX:a:t=|:problem	!	!LO:TX:a:t=|:problem	!	!	!	!	!	!	!	!	!	!	!
8DD/	.	.	8cc\L	.	8aa\L	.	.	.	.	.	.	.	8ff#\	.	8aa\	.
8r	.	.	(16dd\L	.	(16bb-\L	.	.	.	.	.	.	.	8r	.	8r	.
.	.	.	16cc\JJ)	.	16aa\JJ)	.	.	.	.	.	.	.	.	.	.	.
!	!	!	!	!	!	!	!	!	!	!	!	!	!	!	!LO:LB:g=original	!
=12	=12	=12	=12	=12	=12	=12	=12	=12	=12	=12	=12	=12	=12	=12	=12	=12
8r	.	.	4cc\	.	4aa\	.	.	.	.	.	.	.	8r	.	8r	.
!LO:TX:a:t=|:problem	!	!	!	!	!	!	!	!	!	!	!	!	!	!	!	!
16.d\LL	.	.	.	.	.	.	.	.	.	.	.	.	16.ddd\LL	.	16.ddd\LL	.
!LO:TX:a:t=|:problem	!	!	!	!	!	!	!	!	!	!	!	!	!	!	!	!
32A\JJk	.	.	.	.	.	.	.	.	.	.	.	.	32aa\JJk	.	32aa\JJk	.
!LO:TX:a:t=|:problem	!	!	!	!	!	!	!	!	!	!	!	!	!	!	!	!
8F#X\L	.	.	8r	.	8r	.	.	.	.	.	.	.	8ff#X\L	.	8ff#X\L	.
!LO:TX:a:t=|:problem	!	!	!	!	!	!	!	!	!	!	!	!	!	!	!	!
8D\J	.	.	8cc\	.	8aa\	.	.	.	.	.	.	.	8dd\J	.	8dd\J	.
!	!	!	!	!	!LO:LB:g=original	!	!	!	!	!	!	!	!LO:LB:g=original	!	!	!
=13	=13	=13	=13	=13	=13	=13	=13	=13	=13	=13	=13	=13	=13	=13	=13	=13
!	!	!	!	!	!	!	!LO:N:vis=00	!	!LO:N:vis=00	!	!LO:N:vis=00	!	!	!	!	!
8G\L	3	.	8b-\L	.	8gg\L	.	0r	.	0r	.	0r	.	(8b-\L	.	(8gg\L	.
8F#X\	5	.	16cc\L	.	16aa\L	.	.	.	.	.	.	.	16cc\L	.	16aa\L	.
.	.	.	16b-\JJ	.	16gg\JJ	.	.	.	.	.	.	.	16b-\JJ)	.	16gg\JJ)	.
8G\	3	.	8b-\L	.	8gg\L	.	.	.	.	.	.	.	(8b-\L	.	(8gg\L	.
8F#\J	5	.	16cc\L	.	16aa\L	.	.	.	.	.	.	.	16cc\L	.	16aa\L	.
.	.	.	16b-\JJ	.	16gg\JJ	.	.	.	.	.	.	.	16b-\JJ)	.	16gg\JJ)	.
!LO:LB:g=original	!	!	!LO:LB:g=original	!	!	!	!	!	!	!	!	!	!	!	!	!
=14	=14	=14	=14	=14	=14	=14	=14	=14	=14	=14	=14	=14	=14	=14	=14	=14
8G\L	3	.	8b-\L	.	8gg\L	.	.	.	.	.	.	.	(8b-\L	.	8gg\L	.
8F#X\	5	.	16cc\L	.	16aa\L	.	.	.	.	.	.	.	16cc\L	.	16aa\L	.
.	.	.	16b-\JJ	.	16gg\JJ	.	.	.	.	.	.	.	16b-\JJ)	.	16gg\JJ	.
8G\	3	.	8b-\L	.	8gg\L	.	.	.	.	.	.	.	(8b-\L	.	8gg\L	.
8F#\J	5	.	16cc\L	.	16aa\L	.	.	.	.	.	.	.	16cc\L	.	16aa\L	.
.	.	.	16b-\JJ	.	16gg\JJ	.	.	.	.	.	.	.	16b-\JJ)	.	16gg\JJ	.
=15	=15	=15	=15	=15	=15	=15	=15	=15	=15	=15	=15	=15	=15	=15	=15	=15
!LO:TX:t=P:problem:mixed beam	!	!	!	!	!	!	!	!	!	!	!	!	!	!	!	!
8G\L	3	.	16.b-\LL	.	16.gg\LL	.	.	.	.	.	.	.	8b-\	.	8gg\	.
.	.	.	32b-\K	.	32dd\K	.	.	.	.	.	.	.	.	.	.	.
8c\	.	.	16.cc\	.	16.ee-\	.	.	.	.	.	.	.	8r	.	8r	.
.	.	.	32a\JJk	.	32cc\JJk	.	.	.	.	.	.	.	.	.	.	.
8d\	6 4	.	8g/L	.	8b-/L	.	.	.	.	.	.	.	8b-\L	.	8gg\L	.
8D/J	5 #	.	8f#X/J	.	8a/J	.	.	.	.	.	.	.	8a\J	.	8ff#X\J	.
=16	=16	=16	=16	=16	=16	=16	=16	=16	=16	=16	=16	=16	=16	=16	=16	=16
!!pagebreak:original
!LO:TX:a:t=|:problem	!	!	!	!	!	!	!	!	!	!	!	!	!	!	!	!
16.G\LL	.	.	16.g/LL	.	16.g/LL	.	.	.	.	.	.	.	16.b-`\LL	.	16.gg\LL	.
!LO:TX:a:t=|:problem	!	!	!	!	!	!	!	!	!	!	!	!	!	!	!	!
32D\K	.	.	32d/K	.	32d/K	.	.	.	.	.	.	.	32dd`\K	.	32ddd\K	.
!LO:TX:a:t=|:problem	!	!	!	!	!	!	!	!	!	!	!	!	!	!	!	!
16.E-X\	.	.	16.e-/	.	16.e-/	.	.	.	.	.	.	.	16.ee-`\	.	16.eee-\	.
!LO:TX:a:t=|:problem	!	!	!	!	!	!	!	!	!	!	!	!	!	!	!	!
32C\JJk	.	.	32c/JJk	.	32c/JJk	.	.	.	.	.	.	.	32cc`\JJk	.	32ccc\JJk	.
!LO:TX:t=P:problem:mixed beam	!	!	!	!	!	!	!	!	!	!	!	!	!	!	!	!
!LO:N:vis=8	!	!	!	!	!	!	!	!	!	!	!	!	!	!	!	!
8.D\L	.	.	8d/L	.	8d/L	.	.	.	.	.	.	.	8dd`\L	.	8ddd\L	.
.	.	.	8d/J	.	8d/J	.	.	.	.	.	.	.	8dd\J	.	8ddd\J	.
16DD/Jk	.	.	.	.	.	.	.	.	.	.	.	.	.	.	.	.
=17	=17	=17	=17	=17	=17	=17	=17	=17	=17	=17	=17	=17	=17	=17	=17	=17
!	!	!	!	!	!	!	!	!	!LO:N:vis=00	!	!LO:N:vis=00	!	!	!	!	!
4GG/	.	.	4G/	.	4G/	.	4r	.	0r	.	0r	.	4g/	.	4gg\	.
!	!	!	!	!	!LO:TX:i:a:t=Solo	!	!	!	!	!	!	!	!	!	!	!
4r	.	.	4r	.	4r	p	8r	.	.	.	.	.	4r	.	4r	.
!	!	!	!	!	!	!	!	!	!	!	!	!	!	!	!	!LO:DY:t=pia
.	.	.	.	.	.	.	8D/	En	.	.	.	.	.	.	.	p
!	!	!	!	!	!	!	!	!	!	!	!	!	!	!	!LO:TX:i:a:t=Solo	!
!	!	!	!	!	!	!	!	!	!	!	!	!	!	!	!LO:LB:g=original	!
=18	=18	=18	=18	=18	=18	=18	=18	=18	=18	=18	=18	=18	=18	=18	=18	=18
!LO:TX:i:a:t=Solo	!	!	!LO:TX:rj:i:a:t=Solo	!	!	!	!	!	!	!	!	!	!LO:N:vis=00	!	!LO:N:vis=00	!
4GG/	.	p	8r	p	8r	.	8G\	quem	.	.	.	.	0r	.	0r	.
.	.	.	16.gg\LL	.	16.gg\LL	.	(16.G\LL	tan-	.	.	.	.	.	.	.	.
.	.	.	32dd\JJk	.	32dd\JJk	.	32D\JJk)	.	.	.	.	.	.	.	.	.
4r	.	.	8b-/L	.	8b-/L	.	8BB-/	-to	.	.	.	.	.	.	.	.
.	.	.	8g/J	.	8g/J	.	8GG/	La-	.	.	.	.	.	.	.	.
!	!	!	!	!	!LO:LB:g=original	!	!	!	!	!	!	!	!	!	!	!
=19	=19	=19	=19	=19	=19	=19	=19	=19	=19	=19	=19	=19	=19	=19	=19	=19
8r	.	.	4f#X/	.	4dd\	.	8D\	-bo-	.	.	.	.	.	.	.	.
16.d\LL	.	.	.	.	.	.	8D\	-re	.	.	.	.	.	.	.	.
32A\JJk	.	.	.	.	.	.	.	.	.	.	.	.	.	.	.	.
!	!	!	!	!	!	!	!LO:LB:g=original	!	!	!	!	!	!	!	!	!
8F#X\L	.	.	4r	.	4r	.	8r	.	.	.	.	.	.	.	.	.
8D\J	.	.	.	.	.	.	8D\	La-	.	.	.	.	.	.	.	.
!	!	!	!LO:LB:g=original	!	!	!	!	!	!	!	!	!	!	!	!	!
=20	=20	=20	=20	=20	=20	=20	=20	=20	=20	=20	=20	=20	=20	=20	=20	=20
4DD/	.	.	8r	.	8r	.	8.d\	-bo-	.	.	.	.	.	.	.	.
.	.	.	16.dd/LL	.	16.dd/LL	.	.	.	.	.	.	.	.	.	.	.
.	.	.	.	.	.	.	16A\	-re	.	.	.	.	.	.	.	.
.	.	.	32a/JJk	.	32a/JJk	.	.	.	.	.	.	.	.	.	.	.
4r	.	.	8f#X/L	.	8f#X/L	.	8F#X\	quae-	.	.	.	.	.	.	.	.
.	.	.	8d/J	.	8d/J	.	8D\	-si-	.	.	.	.	.	.	.	.
=21	=21	=21	=21	=21	=21	=21	=21	=21	=21	=21	=21	=21	=21	=21	=21	=21
8r	.	.	4d/	.	4b-\	.	8G\	-viſ-	4r	.	4r	.	.	.	.	.
16.G\LL	.	.	.	.	.	.	8GG/	-ti	.	.	.	.	.	.	.	.
32D\JJk	.	.	.	.	.	.	.	.	.	.	.	.	.	.	.	.
8BB-/L	.	.	4r	.	4r	.	4r	.	8r	.	8r	.	.	.	.	.
!	!	!	!	!	!	!	!	!	!LO:TX:i:a:t=Solo	!	!LO:TX:i:a:t=Solo	!	!	!	!	!
8GG/J	.	.	.	.	.	.	.	.	16g\LL	Put-	16b-\LL	Put-	.	.	.	.
.	.	.	.	.	.	.	.	.	16a\JJ	.	16cc\JJ	.	.	.	.	.
!LO:LB:g=original	!	!	!	!	!	!	!	!	!	!	!	!	!	!	!	!
=22	=22	=22	=22	=22	=22	=22	=22	=22	=22	=22	=22	=22	=22	=22	=22	=22
!	!	!	!	!	!LO:TX:a:t=|:problem	!	!	!	!	!	!	!	!	!	!	!
!	!	!	!	!	!	!	!LO:N:vis=0	!	!	!	!	!	!	!	!	!
8G\	.	.	8b-\	.	8dd\	.	1r	.	16b-\	-ri-	16dd\	-ri-	2r	.	2r	.
.	.	.	.	.	.	.	.	.	16b-\	-dis	16dd\	-dis	.	.	.	.
8r	.	.	8r	.	8r	.	.	.	16cc\	Se-	16ee-\	Se-	.	.	.	.
.	.	.	.	.	.	.	.	.	16b-\	-nec-	16dd\	-nec-	.	.	.	.
!	!	!	!	!	!LO:TX:a:t=|:problem	!	!	!	!	!	!	!	!	!	!	!
8G\	.	.	8b-\	.	8dd\	.	.	.	8b-\	-tu-	8dd\	-tu-	.	.	.	.
8r	.	.	8r	.	8r	.	.	.	(16cc\LL	-te	(16ee-\LL	-te	.	.	.	.
.	.	.	.	.	.	.	.	.	16b-\JJ)	.	16dd\JJ)	.	.	.	.	.
!	!	!	!	!	!	!	!	!	!LO:LB:g=original	!	!LO:LB:g=original	!	!LO:LB:g=original	!	!	!
=23	=23	=23	=23	=23	=23	=23	=23	=23	=23	=23	=23	=23	=23	=23	=23	=23
!!pagebreak:original
8G\	.	.	8b-\L	.	(8dd\L	.	.	.	(8b-\L	Mem-	8dd\L	Mem-	4r	.	4r	.
8r	.	.	16cc\L	.	16ee-\L	.	.	.	16cc\L	.	16ee-\L	.	.	.	.	.
.	.	.	16b-\JJ	.	16dd\JJ)	.	.	.	16b-\JJ)	.	16dd\JJ	.	.	.	.	.
!	!	!	!	!	!	!	!	!	!	!	!	!	!	!	!LO:TX:i:a:t=Solo	!
8GG/	.	.	8b-\	.	8dd\	.	.	.	8b-\	-bris	8dd\	-bris	8r	.	8r	.
!	!	!	!	!	!	!	!	!	!	!	!	!	!LO:TX:i:a:t=Solo	!	!	!
8r	.	.	8r	.	8r	.	.	.	8r	.	8r	.	16gg\LL	.	16bb-\LL	.
.	.	.	.	.	.	.	.	.	.	.	.	.	16aa\JJ	.	16ccc\JJ	.
=24	=24	=24	=24	=24	=24	=24	=24	=24	=24	=24	=24	=24	=24	=24	=24	=24
!	!	!	!	!	!LO:TX:a:t=|:problem	!	!	!	!	!	!	!	!	!	!	!
8G\	.	.	8b-\	.	8dd\	.	8G\	Mem-	2r	.	2r	.	8bb-\L	.	8ddd\L	.
8r	.	.	8r	.	8r	.	8GG/	-bris	.	.	.	.	16ccc\L	.	16eee-\L	.
.	.	.	.	.	.	.	.	.	.	.	.	.	16bb-\JJ	.	16ddd\JJ	.
!	!	!	!	!	!LO:TX:a:t=|:problem	!	!	!	!	!	!	!	!	!	!	!
*	*	*	*	*	*	*	*	*ij	*	*	*	*	*	*	*	*
8G\	.	.	8b-\	.	8dd\	.	8G\	Mem-	.	.	.	.	8bb-\L	.	8ddd\L	.
8r	.	.	8r	.	8r	.	8GG/	-bris	.	.	.	.	16ccc\L	.	16eee-\L	.
.	.	.	.	.	.	.	.	.	.	.	.	.	16bb-\JJ	.	16ddd\JJ	.
*	*	*	*	*	*	*	*	*Xij	*	*	*	*	*	*	*	*
!	!	!	!	!	!	!	!LO:LB:g=original	!	!	!	!	!	!	!	!	!
=25	=25	=25	=25	=25	=25	=25	=25	=25	=25	=25	=25	=25	=25	=25	=25	=25
8G\L	.	.	8b-\L	.	(8dd\L	.	8G\	Mem-	4r	.	4r	.	8bb-\L	.	8ddd\L	.
8G\	.	.	16cc\L	.	16ee-\L	.	8GG/	-bris	.	.	.	.	16ccc\L	.	16eee-\L	.
.	.	.	16b-\JJ	.	16dd\JJ)	.	.	.	.	.	.	.	16bb-\JJ	.	16ddd\JJ	.
!	!	!	!	!	!LO:TX:a:t=|:problem	!	!	!	!	!	!	!	!	!	!	!
8G\J	.	.	8b-\	.	8dd\	.	4r	.	8r	.	8r	.	8bb-\	.	8ddd\	.
8r	.	.	8r	.	8r	.	.	.	16f#X/	o-	16a\	o-	8r	.	8r	.
.	.	.	.	.	.	.	.	.	16g/	-pe-	16b-\	-pe-	.	.	.	.
!	!	!	!	!	!LO:LB:g=original	!	!	!	!	!	!	!	!	!	!	!
=26	=26	=26	=26	=26	=26	=26	=26	=26	=26	=26	=26	=26	=26	=26	=26	=26
!	!	!	!	!	!LO:TX:a:t=|:problem	!	!	!	!	!	!	!	!	!	!	!
8D\	#	.	8a/	.	8cc\	.	2r	.	8a\	-rit	8cc\	-rit	2r	.	2r	.
8r	.	.	8r	.	8r	.	.	.	16b-\LL	in-	16dd\LL	in-	.	.	.	.
.	.	.	.	.	.	.	.	.	16a\JJ	.	16cc\JJ	.	.	.	.	.
!	!	!	!	!	!LO:TX:a:t=|:problem	!	!	!	!	!	!	!	!	!	!	!
8D\	.	.	8a/	.	8cc\	.	.	.	8a\	-cul-	8cc\	-cul-	.	.	.	.
8r	.	.	8r	.	8r	.	.	.	16b-\	-ta	16dd\	-ta	.	.	.	.
.	.	.	.	.	.	.	.	.	16a\	Ca-	16cc\	Ca-	.	.	.	.
!	!	!	!LO:LB:g=original	!	!	!	!	!	!LO:LB:g=original	!	!	!	!	!	!	!
=27	=27	=27	=27	=27	=27	=27	=27	=27	=27	=27	=27	=27	=27	=27	=27	=27
8D\L	.	.	8a/L	.	(8cc\L	.	4r	.	8a\	-ni-	8cc\	-ni-	4r	.	4r	.
8D\	.	.	16b-/L	.	16dd\L	.	.	.	16b-\LL	-ti-	16dd\LL	-ti-	.	.	.	.
.	.	.	16a/JJ	.	16cc\JJ)	.	.	.	16a\JJ	.	16cc\JJ	.	.	.	.	.
!	!	!	!	!	!	!	!	!	!	!	!LO:LB:g=original	!	!	!	!	!
8D\J	.	.	8a/	.	8cc\	.	8r	.	8a\	-es	8cc\	-es	8r	.	8r	.
8r	.	.	8r	.	8r	.	16r	.	8r	.	8r	.	16ff#X\LL	.	16aa\LL	.
.	.	.	.	.	.	.	16d\	Ca-	.	.	.	.	16gg\JJ	.	16bb-\JJ	.
=28	=28	=28	=28	=28	=28	=28	=28	=28	=28	=28	=28	=28	=28	=28	=28	=28
!	!	!	!	!	!LO:TX:a:t=|:problem	!	!	!	!	!	!	!	!	!	!	!
8D\	.	.	8a/	.	8cc\	.	16.d\	-ni-	2r	.	2r	.	8aa\L	.	8ccc\L	.
.	.	.	.	.	.	.	32D/	-ti-	.	.	.	.	.	.	.	.
8r	.	.	8r	.	8r	.	16D/	-es	.	.	.	.	16bb-\L	.	16ddd\L	.
.	.	.	.	.	.	.	16d\	Ca-	.	.	.	.	16aa\JJ	.	16ccc\JJ	.
!	!	!	!	!	!LO:TX:a:t=|:problem	!	!	!	!	!	!	!	!	!	!	!
8D\	.	.	8a/	.	8cc\	.	16.d\	-ni-	.	.	.	.	8aa\L	.	8ccc\L	.
.	.	.	.	.	.	.	32D/	-ti-	.	.	.	.	.	.	.	.
8r	.	.	8r	.	8r	.	16D/	-es	.	.	.	.	16bb-\L	.	16ddd\L	.
.	.	.	.	.	.	.	16d\	Ca-	.	.	.	.	16aa\JJ	.	16ccc\JJ	.
!	!	!	!	!	!	!	!	!	!	!	!	!	!LO:LB:g=original	!	!LO:LB:g=original	!
=29	=29	=29	=29	=29	=29	=29	=29	=29	=29	=29	=29	=29	=29	=29	=29	=29
!!pagebreak:original
8D\L	.	.	8a/L	.	(8cc\L	.	16.d\	-ni-	4r	.	4r	.	8aa\L	.	8ccc\L	.
.	.	.	.	.	.	.	32D/	-ti-	.	.	.	.	.	.	.	.
8D\	.	.	16b-/L	.	16dd\L	.	8D/	-es	.	.	.	.	16bb-\L	.	16ddd\L	.
.	.	.	16a/JJ	.	16cc\JJ)	.	.	.	.	.	.	.	16aa\JJ	.	16ccc\JJ	.
8D\J	.	.	8a/	.	8cc\	.	4r	.	8r	.	8r	.	8aa\	.	8ccc\	.
8r	.	.	8r	.	8r	.	.	.	16f#X/	o-	16a\	o-	8r	.	8r	.
.	.	.	.	.	.	.	.	.	16f#/	-pe-	16a\	-pe-	.	.	.	.
!LO:LB:g=original	!	!	!	!	!	!	!LO:LB:g=original	!	!	!	!	!	!	!	!	!
=30	=30	=30	=30	=30	=30	=30	=30	=30	=30	=30	=30	=30	=30	=30	=30	=30
!	!	!	!	!	!LO:TX:a:t=|:problem	!	!	!	!	!	!	!	!	!	!	!
!	!	!	!	!	!	!	!LO:N:vis=0	!	!	!	!	!	!LO:N:vis=0	!	!LO:N:vis=0	!
8G\	3	.	8g/	.	8b-\	.	1r	.	8g\	-rit	8b-\	-rit	1r	.	1r	.
8r	.	.	8r	.	8r	.	.	.	16a\LL	in-	16cc\LL	in-	.	.	.	.
.	.	.	.	.	.	.	.	.	16f#X\JJ	.	16a\JJ	.	.	.	.	.
!	!	!	!	!	!LO:TX:a:t=|:problem	!	!	!	!	!	!	!	!	!	!	!
8G\	.	.	8g/	.	8b-\	.	.	.	8g\L	-cul-	8b-\L	-cul-	.	.	.	.
8r	.	.	8r	.	8r	.	.	.	16a\L	.	16cc\L	.	.	.	.	.
.	.	.	.	.	.	.	.	.	16f#\JJ	.	16a\JJ	.	.	.	.	.
=31	=31	=31	=31	=31	=31	=31	=31	=31	=31	=31	=31	=31	=31	=31	=31	=31
!LO:TX:a:t=|:problem	!	!	!	!	!	!	!	!	!	!	!	!	!	!	!	!
8G\L	.	.	8g/L	.	8b-\L	.	.	.	8g\	-ta	8b-\	-ta	.	.	.	.
!LO:TX:a:t=|:problem	!	!	!	!	!	!	!	!	!	!	!	!	!	!	!	!
16G\L	.	.	16g/L	.	16g\L	.	.	.	16g\LL	in-	16g\LL	in-	.	.	.	.
!LO:TX:a:t=|:problem	!	!	!	!	!	!	!	!	!	!	!	!	!	!	!	!
16A\JJ	.	.	16a/JJ	.	16a\JJ	.	.	.	16a\JJ	.	16a\JJ	.	.	.	.	.
!LO:TX:a:t=|:problem	!	!	!	!	!	!	!	!	!	!	!	!	!	!	!	!
8B-\L	.	.	8b-\L	.	8b-\L	.	.	.	8b-\	-cul-	8b-\	-cul-	.	.	.	.
!LO:TX:a:t=|:problem	!	!	!	!	!	!	!	!	!	!	!	!	!	!	!	!
8c\J	.	.	8cc\J	.	8cc\J	.	.	.	16cc\	-ta	16cc\	-ta	.	.	.	.
.	.	.	.	.	.	.	.	.	16cc\	Ca-	16cc\	Ca-	.	.	.	.
!	!	!	!	!	!	!	!	!	!LO:LB:g=original	!	!LO:LB:g=original	!	!	!	!	!
=32	=32	=32	=32	=32	=32	=32	=32	=32	=32	=32	=32	=32	=32	=32	=32	=32
!LO:TX:t=P:problem:mixed beam	!	!	!	!	!	!	!	!	!	!	!	!	!	!	!	!
!LO:TX:a:t=|:problem	!	!	!LO:TX:t=P:problem:mixed beam	!	!	!	!	!	!	!	!	!	!	!	!	!
8d\L	.	.	8dd\L	.	8dd\	.	2r	.	16.dd\	-ni-	16.dd\	-ni-	2r	.	2r	.
.	.	.	.	.	.	.	.	.	32d/	-ti-	32d/	-ti-	.	.	.	.
!LO:TX:a:t=|:problem	!	!	!	!	!	!	!	!	!	!	!	!	!	!	!	!
8D/J	.	.	8d/	.	8r	.	.	.	8d/	-es	8d/	-es	.	.	.	.
8D/L	6	.	8f/	.	(16ffn\LL	f	.	.	4r	.	4r	.	.	.	.	.
.	.	.	.	.	16bb-\)	.	.	.	.	.	.	.	.	.	.	.
8C/J	6	.	8e-/J	.	(16bb-\	.	.	.	.	.	.	.	.	.	.	.
.	.	.	.	.	16aa\JJ)	.	.	.	.	.	.	.	.	.	.	.
!	!	!	!	!	!LO:LB:g=original	!	!	!	!	!	!	!	!	!	!	!
=33	=33	=33	=33	=33	=33	=33	=33	=33	=33	=33	=33	=33	=33	=33	=33	=33
!	!	!	!	!	!LO:TX:a:t=|:problem	!	!	!	!	!	!	!	!	!	!	!LO:DY:t=forte
8BB-/L	.	f	16d/LL	f	16bb-\LL	.	4r	.	2r	.	2r	.	16bb-\LL	f	16bb-`\LL	f
!	!	!	!	!	!LO:TX:a:t=|:problem	!	!	!	!	!	!	!	!	!	!	!
.	.	.	16f/	.	16ff\	.	.	.	.	.	.	.	16ff\	.	16ff`\	.
!	!	!	!	!	!LO:TX:a:t=|:problem	!	!	!	!	!	!	!	!	!	!	!
8BB-/	.	.	16d/	.	16dd\	.	.	.	.	.	.	.	16dd\	.	16dd`\	.
!	!	!	!	!	!LO:TX:a:t=|:problem	!	!	!	!	!	!	!	!	!	!	!
.	.	.	16f/JJ	.	16ff\JJ	.	.	.	.	.	.	.	16ff\JJ	.	16ff`\JJ	.
!	!	!	!	!	!LO:TX:a:t=|:problem	!	!	!	!	!	!	!	!	!	!	!
8BB-/J	.	.	8B-/	.	8b-\	.	8r	.	.	.	.	.	8b-\	.	8bb-`\	.
!	!	!	!LO:TX:i:a:t=Solo	!	!	!	!	!	!	!	!	!	!	!	!	!
8r	.	.	8r	p	8r	.	8F\	En	.	.	.	.	8r	.	8r	.
!	!	!	!LO:LB:g=original	!	!	!	!	!	!	!	!	!	!	!	!	!
=34	=34	=34	=34	=34	=34	=34	=34	=34	=34	=34	=34	=34	=34	=34	=34	=34
!	!	!	!	!	!	!	!	!	!LO:TX:t=P:problem:brak taktu	!	!	!	!LO:TX:i:a:t=12	!	!	!
!	!	!	!	!	!	!	!	!	!	!	!	!	!LO:N:vis=00	!	!LO:N:vis=00	!
4BB-/	.	p	8r	.	8r	.	8.B-\	vi-	2ryy	.	2r	.	0r	.	0r	.
.	.	.	16.b-/LL	p	16.bb-\LL	p	.	.	.	.	.	.	.	.	.	.
.	.	.	.	.	.	.	16F\	-des	.	.	.	.	.	.	.	.
.	.	.	32f/JJk	.	32ff\JJk	.	.	.	.	.	.	.	.	.	.	.
4r	.	.	8d/L	.	8dd\L	.	8D/	vi-	.	.	.	.	.	.	.	.
.	.	.	8B-/J	.	8b-\J	.	8BB-/	-des	.	.	.	.	.	.	.	.
=35	=35	=35	=35	=35	=35	=35	=35	=35	=35	=35	=35	=35	=35	=35	=35	=35
!!pagebreak:original
8r	.	.	4A/	.	4ff\	.	16.F\	ho-	4r	.	4r	.	.	.	.	.
.	.	.	.	.	.	.	32FF/	-mi-	.	.	.	.	.	.	.	.
16.f\LL	.	.	.	.	.	.	8FF/	-nem,	.	.	.	.	.	.	.	.
32c\JJk	.	.	.	.	.	.	.	.	.	.	.	.	.	.	.	.
8A\L	.	.	8r	.	8r	.	4r	.	8r	.	8r	.	.	.	.	.
8F\J	.	.	16a\LL	.	16cc\LL	.	.	.	16a\	pul-	16cc\	pul-	.	.	.	.
.	.	.	16cc\JJ	.	16ee-\JJ	.	.	.	16cc\	-ve-	16ee-\	-ve-	.	.	.	.
=36	=36	=36	=36	=36	=36	=36	=36	=36	=36	=36	=36	=36	=36	=36	=36	=36
!LO:TX:t=P:problem:mixed beam	!	!	!	!	!	!	!	!	!	!	!	!	!	!	!	!
8B-\L	.	.	8b-\	.	8dd\	.	2r	.	8b-\	-rem	8dd\	-rem	.	.	.	.
8BB-/J	.	.	4dd\	.	4ff\	.	.	.	8dd\	mox	8ff\	mox	.	.	.	.
8r	.	.	.	.	.	.	.	.	8r	.	8r	.	.	.	.	.
8A\	.	.	8cc\	.	8ee-\	.	.	.	16a\LL	fu-	16cc\LL	fu-	.	.	.	.
.	.	.	.	.	.	.	.	.	16cc\JJ	.	16ee-\JJ	.	.	.	.	.
!LO:LB:g=original	!	!	!	!	!	!	!	!	!	!	!	!	!	!	!	!
=37	=37	=37	=37	=37	=37	=37	=37	=37	=37	=37	=37	=37	=37	=37	=37	=37
8B-\L	.	.	16b-\LL	.	16dd\LL	.	4r	.	16b-\LL	-tu-	16dd\LL	-tu-	.	.	.	.
.	.	.	16a\J	.	16cc\J	.	.	.	16a\JJ	.	16cc\JJ	.	.	.	.	.
8F\	.	.	8a\J	.	8cc\J	.	.	.	8a\	-rum	8cc\	-rum	.	.	.	.
8F\J	.	.	4r	.	4r	.	8r	.	4r	.	4r	.	.	.	.	.
8r	.	.	.	.	.	.	8F\	En	.	.	.	.	.	.	.	.
!	!	!	!	!	!	!	!LO:LB:g=original	!	!LO:LB:g=original	!	!LO:LB:g=original	!	!	!	!	!
=38	=38	=38	=38	=38	=38	=38	=38	=38	=38	=38	=38	=38	=38	=38	=38	=38
!	!	!	!	!	!	!	!	!	!	!	!	!	!LO:N:vis=00	!	!LO:N:vis=00	!
4BB-/	.	.	8r	.	8r	.	8.B-\	vi-	2r	.	2r	.	0r	.	0r	.
.	.	.	16.b-/LL	.	16.bb-\LL	.	.	.	.	.	.	.	.	.	.	.
.	.	.	.	.	.	.	16F\	-des	.	.	.	.	.	.	.	.
.	.	.	32f/JJk	.	32ff\JJk	.	.	.	.	.	.	.	.	.	.	.
*	*	*	*	*	*	*	*	*ij	*	*	*	*	*	*	*	*
4r	.	.	8d/L	.	8dd\L	.	8D/	vi-	.	.	.	.	.	.	.	.
.	.	.	8B-/J	.	8b-\J	.	8BB-/	-des	.	.	.	.	.	.	.	.
*	*	*	*	*	*	*	*	*Xij	*	*	*	*	*	*	*	*
=39	=39	=39	=39	=39	=39	=39	=39	=39	=39	=39	=39	=39	=39	=39	=39	=39
8r	.	.	4c/	.	4a\	.	16.F\	ho-	4r	.	4r	.	.	.	.	.
.	.	.	.	.	.	.	32FF/	-mi-	.	.	.	.	.	.	.	.
16.f\LL	.	.	.	.	.	.	8FF/	-nem	.	.	.	.	.	.	.	.
32c\JJk	.	.	.	.	.	.	.	.	.	.	.	.	.	.	.	.
8A\L	.	.	8r	.	8r	.	4r	.	8r	.	8r	.	.	.	.	.
8F\J	.	.	16a\LL	.	16cc\LL	.	.	.	16a\	pul-	16cc\	pul-	.	.	.	.
.	.	.	16cc\JJ	.	16ee-\JJ	.	.	.	16cc\	-ve-	16ee-\	-ve-	.	.	.	.
!	!	!	!	!	!LO:LB:g=original	!	!	!	!	!	!	!	!	!	!	!
=40	=40	=40	=40	=40	=40	=40	=40	=40	=40	=40	=40	=40	=40	=40	=40	=40
!LO:TX:t=P:problem:mixed beam	!	!	!	!	!	!	!	!	!	!	!	!	!	!	!	!
!	!	!	!	!	!	!	!LO:N:vis=00	!	!	!	!	!	!	!	!	!
8B-\L	.	.	8b-\L	.	8dd\L	.	0r	.	8b-\	-rem	8dd\	-rem	.	.	.	.
8BB-/	.	.	8dd\J	.	8ff\J	.	.	.	8dd\	mox	8ff\	mox	.	.	.	.
8E-/	.	.	8r	.	8r	.	.	.	8r	.	8r	.	.	.	.	.
!	!	!	!	!	!	!	!	!	!LO:TX:t=P:problem:mixed beam	!	!	!	!	!	!	!
8F/J	.	.	(16cc/LL	.	16ee-\LL	.	.	.	16cc\LL	fu-	16ee-\LL	fu-	.	.	.	.
.	.	.	16e-/JJ)	.	16cc\JJ	.	.	.	16e-/JJ	.	16cc\JJ	.	.	.	.	.
!	!	!	!LO:LB:g=original	!	!	!	!	!	!	!	!	!	!	!	!	!
=41	=41	=41	=41	=41	=41	=41	=41	=41	=41	=41	=41	=41	=41	=41	=41	=41
8BB-/L	.	.	(16e-/LL	.	16cc\LL	.	.	.	16e-/LL	-tu-	16cc\LL	-tu-	.	.	.	.
.	.	.	16d/J)	.	16b-\J	.	.	.	16d/JJ	.	16b-\JJ	.	.	.	.	.
8BB-/	.	.	8d'/J	.	8b-\J	.	.	.	8d/	-rum,	8b-\	-rum,	.	.	.	.
8BB-/J	.	.	8d/	.	8b-\	.	.	.	8r	.	8r	.	.	.	.	.
8r	.	.	8r	.	8r	.	.	.	8b-\	En	8dd\	En	.	.	.	.
=42	=42	=42	=42	=42	=42	=42	=42	=42	=42	=42	=42	=42	=42	=42	=42	=42
!!linebreak:original
!	!	!	!	!	!	!	!	!	!	!	!	!	!LO:N:vis=00	!	!LO:N:vis=00	!
8F\	.	.	8a/	.	8cc\	.	.	.	8a\	vi-	8cc\	vi-	0r	.	0r	.
8r	.	.	8r	.	8r	.	.	.	16b-\LL	-des	16dd\LL	-des	.	.	.	.
.	.	.	.	.	.	.	.	.	16a\JJ	.	16cc\JJ	.	.	.	.	.
8F\	.	.	8a/	.	8cc\	.	.	.	8a\	vi-	8cc\	vi-	.	.	.	.
8r	.	.	8r	.	8r	.	.	.	16b-\LL	-des	16dd\LL	-des	.	.	.	.
.	.	.	.	.	.	.	.	.	16a\JJ	.	16cc\JJ	.	.	.	.	.
!	!	!	!	!	!	!	!	!	!LO:LB:g=original	!	!LO:LB:g=original	!	!	!	!	!
=43	=43	=43	=43	=43	=43	=43	=43	=43	=43	=43	=43	=43	=43	=43	=43	=43
8r	.	.	8r	.	8r	.	.	.	16.a\	ho-	16.cc\	ho-	.	.	.	.
.	.	.	.	.	.	.	.	.	32cc\	-mi-	32ee-\	-mi-	.	.	.	.
!LO:TX:t=P:problem:mixed beam	!	!	!	!	!	!	!	!	!	!	!	!	!	!	!	!
8F\L	.	.	8a/L	.	8cc\L	.	.	.	8cc\	-nem,	8ee-\	-nem,	.	.	.	.
8FF/J	.	.	8a/J	.	8cc\J	.	.	.	8r	.	8r	.	.	.	.	.
8r	.	.	8r	.	8r	.	.	.	8cc\	En	8ee-\	En	.	.	.	.
=44	=44	=44	=44	=44	=44	=44	=44	=44	=44	=44	=44	=44	=44	=44	=44	=44
!	!	!	!	!	!	!	!LO:N:vis=0	!	!	!	!	!	!	!	!	!
8BB-/	.	.	8f/	.	8dd\	.	1r	.	8b-\	vi-	8dd\	vi-	.	.	.	.
8r	.	.	8r	.	8r	.	.	.	16cc\LL	-des	16ee-\LL	-des	.	.	.	.
.	.	.	.	.	.	.	.	.	16b-\JJ	.	16dd\JJ	.	.	.	.	.
8BB-/	.	.	8f/	.	8dd\	.	.	.	8b-\	vi-	8dd\	vi-	.	.	.	.
8r	.	.	8r	.	8r	.	.	.	16cc\LL	-des	16ee-\LL	-des	.	.	.	.
.	.	.	.	.	.	.	.	.	16b-\JJ	.	16dd\JJ	.	.	.	.	.
!LO:LB:g=original	!	!	!	!	!	!	!	!	!	!	!	!	!	!	!	!
=45	=45	=45	=45	=45	=45	=45	=45	=45	=45	=45	=45	=45	=45	=45	=45	=45
8r	.	.	8r	.	8r	.	.	.	16.b-\	ho-	16.dd\	ho-	.	.	.	.
.	.	.	.	.	.	.	.	.	32dd\	-mi-	32ff\	-mi-	.	.	.	.
8BB-/L	.	.	8f/L	.	8dd\L	.	.	.	8dd\	-nem	8ff\	-nem	.	.	.	.
8BB-/J	.	.	8f/J	.	8dd\J	.	.	.	8r	.	8r	.	.	.	.	.
8r	.	.	8r	.	8r	.	.	.	16ee-\	pul-	16gg\	pul-	.	.	.	.
.	.	.	.	.	.	.	.	.	16dd\	-ve-	16ff\	-ve-	.	.	.	.
!	!	!	!	!	!	!	!	!	!LO:LB:g=original	!	!	!	!	!	!	!
=46	=46	=46	=46	=46	=46	=46	=46	=46	=46	=46	=46	=46	=46	=46	=46	=46
8r	.	.	8r	.	8r	.	8r	.	8cc\	-rem	8ee-\	-rem,	8r	.	8r	.
!	!	!	!	!	!LO:TX:a:t=|:problem	!	!	!	!	!	!	!	!LO:TX:a:t=|:problem	!	!	!
!	!	!	!LO:TX:i:b:t=mezze voce	!	!	!LO:DY:b:t=mezzefor&colon;	!	!	!	!	!	!	!LO:TX:i:b:t=mezze Voce	!	!LO:TX:a:t=|:problem	!
8F\L	.	.	16e-`/LL	.	16ee-\LL	mf	16F\	pul-	8r	.	8r	.	16ee-\LL	.	16eee-\LL	p
!	!	!	!	!	!LO:TX:a:t=|:problem	!	!	!	!	!	!	!	!LO:TX:a:t=|:problem	!	!LO:TX:a:t=|:problem	!
.	.	.	16d`/JJ	.	16dd\JJ	.	16F\	-ve-	.	.	.	.	16dd\JJ	.	16ddd\JJ	.
!	!	!	!	!	!LO:TX:a:t=|:problem	!	!	!	!	!	!	!	!LO:TX:a:t=|:problem	!	!LO:TX:a:t=|:problem	!
!	!	!	!	!	!	!	!	!	!	!	!LO:LB:g=original	!	!	!	!	!
8F\J	.	.	8c`/	.	8cc\	.	8F\	-rem	8r	.	8r	.	8cc\	.	8ccc\	.
8r	.	.	8r	.	8r	.	8r	.	16dd\	pul-	16ff\	pul-	8r	.	8r	.
.	.	.	.	.	.	.	.	.	16cc\	-ve-	16ee-\	-ve-	.	.	.	.
!	!	!	!	!	!LO:LB:g=original	!	!	!	!	!	!	!	!	!	!	!
=47	=47	=47	=47	=47	=47	=47	=47	=47	=47	=47	=47	=47	=47	=47	=47	=47
8r	.	.	8r	.	8r	.	8r	.	8b-\	-rem	8dd\	-rem	8r	.	8r	.
!	!	!	!	!	!	!	!	!	!	!	!	!	!LO:TX:a:t=|:problem	!	!LO:TX:a:t=|:problem	!
8BB-/L	.	.	16d/LL	.	16dd\LL	.	16BB-/	pul-	8r	.	8r	.	16dd\LL	.	16ddd\LL	.
!	!	!	!	!	!	!	!	!	!	!	!	!	!LO:TX:a:t=|:problem	!	!LO:TX:a:t=|:problem	!
.	.	.	16c/JJ	.	16cc\JJ	.	16BB-/	-ve-	.	.	.	.	16cc\JJ	.	16ccc\JJ	.
!	!	!	!	!	!	!	!	!	!	!	!	!	!LO:TX:a:t=|:problem	!	!LO:TX:a:t=|:problem	!
8BB-/	.	.	8B-/	.	8b-\L	.	8BB-/	-rem	8r	.	8r	.	8b-\	.	8bb-\	.
8D/J	.	.	16d/LL	p	16dd\L	p	8r	.	16d/	pul-	16b-\	pul-	8r	.	8r	.
.	.	.	16f/JJ	.	16ff\JJ	.	.	.	16f/	-ve-	16dd\	-ve-	.	.	.	.
!	!	!	!LO:LB:g=original	!	!	!	!LO:LB:g=original	!	!	!	!	!	!	!	!	!
=48	=48	=48	=48	=48	=48	=48	=48	=48	=48	=48	=48	=48	=48	=48	=48	=48
!LO:TX:t=P:problem:mixed beam	!	!	!	!	!	!	!	!	!	!	!	!	!	!	!	!
!	!	!	!	!	!	!	!LO:N:vis=0	!	!	!	!	!	!LO:N:vis=0	!	!	!
8E-\L	.	.	8.e-/L	.	8.ee-\L	.	1r	.	8.e-/L	-rem	8.cc\L	-rem	1r	.	2r	.
8E-\	.	.	.	.	.	.	.	.	.	.	.	.	.	.	.	.
.	.	.	16g/Jk	.	16gg\Jk	.	.	.	16g/Jk	.	16ee-\Jk	.	.	.	.	.
8F\	.	.	8.c/L	.	8.cc\L	.	.	.	8.c/	mox	8.a\	mox	.	.	.	.
8FF/J	.	.	.	.	.	.	.	.	.	.	.	.	.	.	.	.
.	.	.	16e-/Jk	.	16ee-\Jk	.	.	.	16e-/	fu-	16cc\	fu-	.	.	.	.
=49	=49	=49	=49	=49	=49	=49	=49	=49	=49	=49	=49	=49	=49	=49	=49	=49
!!pagebreak:original
8BB-/L	.	.	(16e-/LL	.	(16cc\LL	.	.	.	16e-/LL	-tu-	16cc\LL	-tu-	.	.	2r	.
.	.	.	16d~/)	.	16b-\)	.	.	.	16d/JJ	.	16b-\JJ	.	.	.	.	.
!	!	!	!	!	!LO:TX:a:t=|:problem	!	!	!	!	!	!	!	!	!	!	!
8BB-/	.	.	16d'/	.	16b-\	.	.	.	8d/	-rum	8b-\	-rum	.	.	.	.
!	!	!	!	!	!LO:TX:a:t=|:problem	!	!	!	!	!	!	!	!	!	!	!
.	.	.	16d'/JJ	.	16b-\JJ	.	.	.	.	.	.	.	.	.	.	.
!	!	!	!	!	!	!	!	!	!	!	!LO:LB:g=original	!	!	!	!	!
8BB-/J	.	.	8d/	.	8b-\	.	.	.	8r	.	8r	.	.	.	.	.
8r	.	.	8r	.	8r	.	.	.	16ee-\	pul-	16gg\	pul-	.	.	.	.
.	.	.	.	.	.	.	.	.	16dd\	-ve-	16ff\	-ve-	.	.	.	.
!	!	!	!LO:TX:i:b:t=VS&colon;	!	!LO:TX:i:b:t=VS&colon;	!	!	!	!	!	!	!	!	!	!	!
!	!	!	!LO:PB:g=original	!	!LO:PB:g=original	!	!	!	!LO:LB:g=original	!	!	!	!LO:LB:g=original	!	!	!
=50	=50	=50	=50	=50	=50	=50	=50	=50	=50	=50	=50	=50	=50	=50	=50	=50
8r	.	.	8r	.	8r	.	8r	.	8cc\	-rem	8ee-\	-rem	8r	.	8r	.
!	!	!	!LO:TX:a:t=|:problem	!	!LO:TX:a:t=|:problem	!	!	!	!	!	!	!	!	!	!	!
!	!	!	!	!LO:DY:t=mezzefor	!	!LO:DY:b:t=mezzefor	!	!	!	!	!	!	!LO:TX:a:t=|:problem	!	!LO:TX:a:t=|:problem	!
8F\L	.	.	16e-/LL	mf	16ee-\LL	f	16F\	pul-	8r	.	8r	.	16ee-\LL	.	16eee-\LL	.
!	!	!	!LO:TX:a:t=|:problem	!	!LO:TX:a:t=|:problem	!	!	!	!	!	!	!	!LO:TX:a:t=|:problem	!	!LO:TX:a:t=|:problem	!
.	.	.	16d/JJ	.	16dd\JJ	.	16F\	-ve-	.	.	.	.	16dd\JJ	.	16ddd\JJ	.
!	!	!	!LO:TX:a:t=|:problem	!	!LO:TX:a:t=|:problem	!	!	!	!	!	!	!	!LO:TX:a:t=|:problem	!	!LO:TX:a:t=|:problem	!
8F\J	.	.	8c/	.	8cc\	.	8F\	-rem	8r	.	8r	.	8cc\	.	8ccc\	.
8r	.	.	8r	.	8r	.	8r	.	16dd\	pul-	16ff\	pul-	8r	.	8r	.
.	.	.	.	.	.	.	.	.	16cc\	-ve-	16ee-\	-ve-	.	.	.	.
=51	=51	=51	=51	=51	=51	=51	=51	=51	=51	=51	=51	=51	=51	=51	=51	=51
8r	.	.	8r	.	8r	.	8r	.	8b-\	-rem	8dd\	-rem	8r	.	8r	.
!	!	!	!	!	!	!	!	!	!	!	!	!	!LO:TX:a:t=|:problem	!	!LO:TX:a:t=|:problem	!
8BB-/L	.	.	16d/LL	.	16dd\LL	.	16BB-/	pul-	8r	.	8r	.	16dd\LL	.	16ddd\LL	.
!	!	!	!	!	!	!	!	!	!	!	!	!	!LO:TX:a:t=|:problem	!	!LO:TX:a:t=|:problem	!
.	.	.	16c/JJ	.	16cc\JJ	.	16BB-/	-ve-	.	.	.	.	16cc\JJ	.	16ccc\JJ	.
!	!	!	!	!	!	!	!	!	!	!	!	!	!LO:TX:a:t=|:problem	!	!LO:TX:a:t=|:problem	!
8BB-/	.	.	8B-/	.	8b-\L	.	8BB-/	-rem	8r	.	8r	.	8b-\	.	8bb-\	.
!	!	!	!	!	!	!LO:DY:b:t=pia&colon;	!	!	!	!	!	!	!	!	!	!
8D/J	.	.	16d/LL	p	16b-\L	p	8r	.	16d/	pul-	16b-\	pul-	8r	.	8r	.
.	.	.	16f/JJ	.	16dd\JJ	.	.	.	16f/	-ve-	16dd\	-ve-	.	.	.	.
=52	=52	=52	=52	=52	=52	=52	=52	=52	=52	=52	=52	=52	=52	=52	=52	=52
!	!	!	!	!	!	!	!LO:TX:i:a:t=32.	!	!	!	!	!	!	!	!	!
!	!	!	!	!	!	!	!LO:N:vis=00	!	!	!	!	!	!LO:N:vis=00	!	!LO:N:vis=00	!
4E-\	.	.	8e-/L	.	(8cc\L	.	0r	.	8.e-/L	-rem	8.cc\L	-rem	0r	.	0r	.
.	.	.	8g/	.	8ee-\	.	.	.	.	.	.	.	.	.	.	.
.	.	.	.	.	.	.	.	.	16g/Jk	.	16ee-\Jk	.	.	.	.	.
!LO:TX:t=P:problem:mixed beam	!	!	!	!	!	!	!	!	!	!	!	!	!	!	!	!
8F\L	.	.	8c/	.	8a\	.	.	.	8.c/	mox	8.a\	mox	.	.	.	.
8FF/J	.	.	8e-/J	.	8cc\J)	.	.	.	.	.	.	.	.	.	.	.
.	.	.	.	.	.	.	.	.	16e-/	fu-	16cc\	fu-	.	.	.	.
!	!	!	!	!	!	!	!	!	!	!	!LO:TX:b:t=VS&colon;	!	!	!	!	!
!	!	!	!	!	!	!	!	!	!	!	!LO:PB:g=original	!	!	!	!	!
=53	=53	=53	=53	=53	=53	=53	=53	=53	=53	=53	=53	=53	=53	=53	=53	=53
4BB-/	.	.	16e-/LL	.	16cc\LL	.	.	.	16e-/LL	-tu-	16cc\LL	-tu-	.	.	.	.
.	.	.	16d/J	.	16b-\J	.	.	.	16d/JJ	.	16b-\JJ	.	.	.	.	.
.	.	.	8d/J	.	8b-\J	.	.	.	8d/	-rum	8b-\	-rum	.	.	.	.
8BB-/	.	.	[4d/	.	[4b-\	.	.	.	8r	.	8r	.	.	.	.	.
8r	.	.	.	.	.	.	.	.	8d/	fu-	[8b-\	fu-	.	.	.	.
!	!	!	!	!	!	!	!	!	!LO:TX:b:t=V&colon;S&colon;	!	!	!	!	!	!	!
!LO:LB:g=original	!	!	!	!	!	!	!	!	!LO:LB:g=original	!	!	!	!	!	!	!
=54	=54	=54	=54	=54	=54	=54	=54	=54	=54	=54	=54	=54	=54	=54	=54	=54
!LO:TX:a:t=|:problem	!	!	!	!	!	!	!	!	!	!	!	!	!	!	!	!
4F\	.	.	8d/]	.	8b-\]	.	.	.	8d/	-tu-	8b-\]	.	.	.	.	.
.	.	.	4c/	.	4a\	.	.	.	4c/	.	4a\	-tu-	.	.	.	.
!LO:TX:a:t=|:problem	!	!	!	!	!	!	!	!	!	!	!	!	!	!	!	!
4F\	.	.	.	.	.	.	.	.	.	.	.	.	.	.	.	.
.	.	.	[8e-/	.	[8cc\	.	.	.	[8e-/	.	[8cc\	.	.	.	.	.
=55	=55	=55	=55	=55	=55	=55	=55	=55	=55	=55	=55	=55	=55	=55	=55	=55
!LO:TX:a:t=|:problem	!	!	!	!	!	!	!	!	!	!	!	!	!	!	!	!
4F\	.	.	8e-/]	.	8cc\]	.	.	.	8e-/]	.	8cc\]	.	.	.	.	.
.	.	.	4d/	.	4b-\	.	.	.	4d/	.	4b-\	.	.	.	.	.
!LO:TX:a:t=|:problem	!	!	!	!	!	!	!	!	!	!	!	!	!	!	!	!
4F\	.	.	.	.	.	.	.	.	.	.	.	.	.	.	.	.
.	.	.	[8b-\	.	[8dd\	.	.	.	[8b-\	.	[8dd\	.	.	.	.	.
!	!	!	!	!	!LO:LB:g=original	!	!	!	!	!	!	!	!	!	!	!
=56	=56	=56	=56	=56	=56	=56	=56	=56	=56	=56	=56	=56	=56	=56	=56	=56
!LO:TX:a:t=|:problem	!	!	!	!	!	!	!	!	!	!	!	!	!	!	!	!
!	!	!	!	!	!	!	!LO:N:vis=00	!	!	!	!	!	!LO:N:vis=00	!	!LO:N:vis=00	!
4F\	.	.	8b-\]	.	8dd\]	.	0r	.	8b-\]	.	8dd\]	.	0r	.	0r	.
.	.	.	4a\	.	4cc\	.	.	.	4a\	.	4cc\	.	.	.	.	.
!LO:TX:a:t=|:problem	!	!	!	!	!	!	!	!	!	!	!	!	!	!	!	!
4F\	.	.	.	.	.	.	.	.	.	.	.	.	.	.	.	.
.	.	.	[8cc\	.	[8ee-\	.	.	.	[8cc\	.	[8ee-\	.	.	.	.	.
!	!	!	!LO:LB:g=original	!	!	!	!	!	!	!	!	!	!	!	!	!
=57	=57	=57	=57	=57	=57	=57	=57	=57	=57	=57	=57	=57	=57	=57	=57	=57
!!pagebreak:original
!LO:TX:a:t=|:problem	!	!	!	!	!	!	!	!	!	!	!	!	!	!	!	!
4F\	.	.	8cc\]	.	8ee-\]	.	.	.	8cc\]	.	8ee-\]	.	.	.	.	.
.	.	.	4b-\	.	4dd\	.	.	.	4b-\	-rum	4dd\	.	.	.	.	.
!LO:TX:a:t=|:problem	!	!	!	!	!	!	!	!	!	!	!	!	!	!	!	!
4F\	.	.	.	.	.	.	.	.	.	.	.	.	.	.	.	.
.	.	.	[8dd\	.	[8ff\	.	.	.	8dd\	fu-	8ff\	.	.	.	.	.
=58	=58	=58	=58	=58	=58	=58	=58	=58	=58	=58	=58	=58	=58	=58	=58	=58
!LO:TX:a:t=|:problem	!	!	!	!	!	!	!	!	!	!	!	!	!	!	!	!
4F\	.	.	8dd\L]	.	8ff\L]	.	.	.	8dd\L	-tu-	8ff\L	.	.	.	.	.
.	.	.	8cc\	.	8ee-\	.	.	.	8cc\	.	8ee-\	.	.	.	.	.
!LO:TX:t=P:problem:mixed beam	!	!	!	!	!	!	!	!	!	!	!	!	!	!	!	!
!LO:TX:a:t=|:problem	!	!	!	!	!	!	!	!	!	!	!	!	!	!	!	!
8F\L	.	.	8b-\	.	8dd\	.	.	.	8b-\	.	8dd\	.	.	.	.	.
!LO:TX:a:t=|:problem	!	!	!	!	!	!	!	!	!	!	!	!	!	!	!	!
8FF/J	.	.	8a\J	.	8cc\J	.	.	.	8a\J	.	8cc\J	.	.	.	.	.
!	!	!	!	!	!	!	!	!	!LO:LB:g=original	!	!LO:LB:g=original	!	!	!	!	!
=59	=59	=59	=59	=59	=59	=59	=59	=59	=59	=59	=59	=59	=59	=59	=59	=59
*tremolo	*	*	*	*	*	*	*	*	*	*	*	*	*	*	*	*
8BB-/L	.	.	4b-\	.	4dd\	.	.	.	4b-\	.	4dd\	.	.	.	.	.
8BB-/	.	.	.	.	.	.	.	.	.	.	.	.	.	.	.	.
!	!	!	!	!	!	!	!	!	!LO:TX:t=P:problem:klamra łukowa, kropka zamiast numeru:global	!	!LO:TX:t=P:problem:klamra łukowa, kropka zamiast numeru:global	!	!	!	!	!
8BB-/	.	.	8b-\L	.	8dd\L	.	.	.	24b-\LL	.	24dd\LL	.	.	.	.	.
.	.	.	.	.	.	.	.	.	24a\	.	24cc\	.	.	.	.	.
.	.	.	.	.	.	.	.	.	24b-\JJ	.	24dd\JJ	.	.	.	.	.
8BB-/J	.	.	8cc\J	.	8ee-\J	.	.	.	24cc\LL	.	24ee-\LL	.	.	.	.	.
.	.	.	.	.	.	.	.	.	24b-\	.	24dd\	.	.	.	.	.
.	.	.	.	.	.	.	.	.	24cc\JJ	.	24ee-\JJ	.	.	.	.	.
=60	=60	=60	=60	=60	=60	=60	=60	=60	=60	=60	=60	=60	=60	=60	=60	=60
!	!	!	!	!	!	!	!LO:N:vis=00	!	!	!	!	!	!LO:N:vis=00	!	!LO:N:vis=00	!
8BB-/L	.	.	4dd\	.	4ff\	.	0r	.	4dd\	.	4ff\	.	0r	.	0r	.
8BB-/	.	.	.	.	.	.	.	.	.	.	.	.	.	.	.	.
8BB-/	.	.	8dd\L	.	8ff\L	.	.	.	24dd\LL	.	24ff\LL	.	.	.	.	.
.	.	.	.	.	.	.	.	.	24ee-\	.	24gg\	.	.	.	.	.
.	.	.	.	.	.	.	.	.	24dd\JJ	.	24ff\JJ	.	.	.	.	.
8BB-/J	.	.	8cc\J	.	8ee-\J	.	.	.	24cc\LL	.	24ee-\LL	.	.	.	.	.
.	.	.	.	.	.	.	.	.	24b-\	.	24dd\	.	.	.	.	.
.	.	.	.	.	.	.	.	.	24a\JJ	.	24cc\JJ	.	.	.	.	.
=61	=61	=61	=61	=61	=61	=61	=61	=61	=61	=61	=61	=61	=61	=61	=61	=61
8BB-/L	.	.	4b-\	.	4dd\	.	.	.	4b-\	.	4dd\	.	.	.	.	.
8BB-/	.	.	.	.	.	.	.	.	.	.	.	.	.	.	.	.
8BB-/	.	.	8b-\L	.	8dd\L	.	.	.	24b-\LL	.	24dd\LL	.	.	.	.	.
.	.	.	.	.	.	.	.	.	24a\	.	24cc\	.	.	.	.	.
.	.	.	.	.	.	.	.	.	24b-\JJ	.	24dd\JJ	.	.	.	.	.
8BB-/J	.	.	8cc\J	.	8ee-\J	.	.	.	24cc\LL	.	24ee-\LL	.	.	.	.	.
.	.	.	.	.	.	.	.	.	24b-\	.	24dd\	.	.	.	.	.
.	.	.	.	.	.	.	.	.	24cc\JJ	.	24ee-\JJ	.	.	.	.	.
=62	=62	=62	=62	=62	=62	=62	=62	=62	=62	=62	=62	=62	=62	=62	=62	=62
8BB-/L	.	.	4dd\	.	4ff\	.	.	.	4dd\	.	4ff\	.	.	.	.	.
8BB-/	.	.	.	.	.	.	.	.	.	.	.	.	.	.	.	.
8BB-/	.	.	8dd\L	.	8ff\L	.	.	.	24dd\LL	.	24ff\LL	.	.	.	.	.
.	.	.	.	.	.	.	.	.	24ee-\	.	24gg\	.	.	.	.	.
.	.	.	.	.	.	.	.	.	24dd\JJ	.	24ff\JJ	.	.	.	.	.
8BB-/J	.	.	8cc\J	.	8ee-\J	.	.	.	24cc\LL	.	24ee-\LL	.	.	.	.	.
.	.	.	.	.	.	.	.	.	24b-\	.	24dd\	.	.	.	.	.
.	.	.	.	.	.	.	.	.	24a\JJ	.	24cc\JJ	.	.	.	.	.
*Xtremolo	*	*	*	*	*	*	*	*	*	*	*	*	*	*	*	*
!	!	!	!	!	!LO:LB:g=original	!	!	!	!LO:LB:g=original	!	!	!	!	!	!	!
=63	=63	=63	=63	=63	=63	=63	=63	=63	=63	=63	=63	=63	=63	=63	=63	=63
8BB-/	.	.	16b-\LL	.	16dd\LL	.	.	.	16b-\LL	.	16dd\LL	.	.	.	.	.
.	.	.	16cc\	.	16ee-\	.	.	.	16cc\	.	16ee-\	.	.	.	.	.
8r	.	.	16dd\	.	16ff\	.	.	.	16dd\	.	16ff\	.	.	.	.	.
.	.	.	16cc\JJ	.	16ee-\JJ	.	.	.	16cc\JJ	.	16ee-\JJ	.	.	.	.	.
!	!	!	!	!	!	!	!	!	!	!	!LO:LB:g=original	!	!	!	!	!
8r	.	.	16b-/LL	.	16dd\LL	.	.	.	16b-\LL	.	16dd\LL	.	.	.	.	.
.	.	.	16a-X/	.	16cc\	.	.	.	16a-X\	.	16cc\	.	.	.	.	.
8D\	.	.	16g/	.	16b-\	.	.	.	16g\	.	16b-\	.	.	.	.	.
.	.	.	16f/JJ	.	16a-X\JJ	.	.	.	16f\JJ	.	16a-X\JJ	.	.	.	.	.
=64	=64	=64	=64	=64	=64	=64	=64	=64	=64	=64	=64	=64	=64	=64	=64	=64
!	!	!	!	!	!	!	!LO:N:vis=00	!	!	!	!	!	!LO:N:vis=00	!	!LO:N:vis=00	!
8E-\	.	.	8e-/L	.	8g\L	.	0r	.	8e-/L	.	8g\L	.	0r	.	0r	.
8r	.	.	8d/	.	8bn\	.	.	.	8d/J	.	8bn\	.	.	.	.	.
!	!	!	!	!	!	!	!	!	!LO:TX:t=P:problem:mixed beam	!	!	!	!	!	!	!
4r	.	.	8e-/	.	8cc\	.	.	.	8e-/L	.	8cc\	.	.	.	.	.
.	.	.	8Bn/J	.	8dd\J	.	.	.	8bn\J	.	8dd\J	.	.	.	.	.
!	!	!	!LO:LB:g=original	!	!	!	!	!	!	!	!	!	!	!	!	!
=65	=65	=65	=65	=65	=65	=65	=65	=65	=65	=65	=65	=65	=65	=65	=65	=65
!LO:N:vis=0	!	!	!	!	!	!	!	!	!	!	!	!	!	!	!	!
1r	.	.	16c/LL	.	16ee-\LL	.	.	.	16cc\LL	.	16ee-\LL	.	.	.	.	.
.	.	.	16Bn/	.	16dd\	.	.	.	16bn\	.	16dd\	.	.	.	.	.
.	.	.	16c/	.	16ee-\	.	.	.	16cc\	.	16ee-\	.	.	.	.	.
.	.	.	16d/JJ	.	16ff\JJ	.	.	.	16dd\JJ	.	16ff\JJ	.	.	.	.	.
!	!	!	!LO:TX:t=P:problem:mixed beam	!	!	!	!	!	!	!	!	!	!	!	!	!
.	.	.	8e-/L	.	8gg\L	.	.	.	8ee-\	-rum	8gg\	-rum	.	.	.	.
.	.	.	8ee-\J	.	8gg\J	.	.	.	8r	.	8r	.	.	.	.	.
=66	=66	=66	=66	=66	=66	=66	=66	=66	=66	=66	=66	=66	=66	=66	=66	=66
!	!	!	!	!	!	!LO:DY:b:t=mezze forte	!	!	!	!	!	!	!	!	!	!
.	.	.	16ee-\LL	.	16gg\LL	mf	.	.	2r	.	2r	.	.	.	.	.
.	.	.	16dd\	.	16ff#X\	.	.	.	.	.	.	.	.	.	.	.
.	.	.	16ee-\	.	16gg\	.	.	.	.	.	.	.	.	.	.	.
!	!	!	!	!LO:DY:t=mezzefor	!	!	!	!	!	!	!	!	!	!	!	!
.	.	.	16dd\JJ	mf	16ff#\JJ	.	.	.	.	.	.	.	.	.	.	.
.	.	.	16ee-\LL	.	16gg\LL	.	.	.	.	.	.	.	.	.	.	.
.	.	.	16ee-\	.	16gg\	.	.	.	.	.	.	.	.	.	.	.
.	.	.	16cc\	.	16aa\	.	.	.	.	.	.	.	.	.	.	.
.	.	.	16dd\JJ	.	16bb-\JJ	.	.	.	.	.	.	.	.	.	.	.
=67	=67	=67	=67	=67	=67	=67	=67	=67	=67	=67	=67	=67	=67	=67	=67	=67
!	!	!	!	!	!	!LO:DY:t=piano	!	!	!	!	!	!	!	!	!	!
2r	.	.	8.dd\L	.	8.ffn\L	p	.	.	8.dd\	mox	8.ff\	mox	.	.	.	.
.	.	.	16cc#X\Jk	p	16een\Jk	.	.	.	16cc#X\	fu-	16een\	fu-	.	.	.	.
!	!	!	!	!	!LO:LB:g=original	!	!	!	!	!	!	!	!	!	!	!
.	.	.	16dd\LL	.	16ff\LL	.	.	.	16dd\LL	-tu-	16ff\LL	-tu-	.	.	.	.
.	.	.	16ccn\	.	16ee-X\	.	.	.	16ccn\	.	16ee-X\	.	.	.	.	.
.	.	.	16a\	.	16cc\	.	.	.	16a\	.	16cc\	.	.	.	.	.
.	.	.	16b-\JJ	.	16dd\JJ	.	.	.	16b-\JJ	.	16dd\JJ	.	.	.	.	.
!LO:TX:i:b:t=V&colon;S&colon;	!	!	!	!	!	!	!	!	!	!	!	!	!	!	!	!
!LO:PB:g=original	!	!	!	!	!	!	!	!	!LO:LB:g=original	!	!	!	!	!	!	!
=68	=68	=68	=68	=68	=68	=68	=68	=68	=68	=68	=68	=68	=68	=68	=68	=68
*	*	*	*	*	*	*	*	*	*2\right	*	*2\right	*	*	*	*	*
!LO:TX:t=P:problem:mixed beam	!	!	!	!	!	!	!	!	!	!	!	!	!	!	!	!
!	!	!	!	!	!	!	!LO:N:vis=00	!	!	!	!	!	!	!	!	!
8F\L	.	p	16r	.	16r	.	0r	.	2at\	.	2ccT\	.	8r	.	8r	.
.	.	.	16a/LL	.	16cc\LL	.	.	.	.	.	.	.	.	.	.	.
8F\	.	.	16a/	.	16cc\	.	.	.	.	.	.	.	8ff\L	.	8aa\L	.
.	.	.	16a/JJ	.	16cc\JJ	.	.	.	.	.	.	.	.	.	.	.
8FF/	.	.	16r	.	16r	.	.	.	.	.	.	.	8aa\	p	8ccc\	p
.	.	.	16a/LL	.	16cc\LL	.	.	.	.	.	.	.	.	.	.	.
8FF/J	.	.	16a/	.	16cc\	.	.	.	.	.	.	.	8ccc\J	.	8eee-\J	.
.	.	.	16a/JJ	.	16cc\JJ	.	.	.	.	.	.	.	.	.	.	.
!	!	!	!	!	!	!	!	!	!	!	!LO:LB:g=original	!	!	!	!	!
=69	=69	=69	=69	=69	=69	=69	=69	=69	=69	=69	=69	=69	=69	=69	=69	=69
!LO:TX:i:a:t=Tutti	!	!	!LO:TX:i:a:t=Tutti	!	!LO:TX:i:a:t=Tutti	!	!	!	!	!	!	!	!	!	!	!
8BB-/L	.	f	16B-'/LL	.	4b-\	.	.	.	4b-\	-rum.	4dd\	-rum.	8bb-\L	.	8ddd\L	.
.	.	.	16f'/	.	.	.	.	.	.	.	.	.	.	.	.	.
8BB-/	.	.	16d'/	.	.	.	.	.	.	.	.	.	8bb-\	.	8ddd\	f
.	.	.	16f'/JJ	.	.	.	.	.	.	.	.	.	.	.	.	.
8BB-/	.	.	16B-'/LL	.	32b-\LLL	.	.	.	4r	.	4r	.	8bb-\	f	8ddd\	.
.	.	.	.	.	32cc\	.	.	.	.	.	.	.	.	.	.	.
.	.	.	16f'/	.	32dd\	f	.	.	.	.	.	.	.	.	.	.
.	.	.	.	.	32ee-\JJJ	.	.	.	.	.	.	.	.	.	.	.
8BB-/J	.	.	16d'/	.	32ff\LLL	.	.	.	.	.	.	.	8bb-\J	.	8ddd\J	.
.	.	.	.	.	32gg\	.	.	.	.	.	.	.	.	.	.	.
.	.	.	16f'/JJ	.	32aa\	.	.	.	.	.	.	.	.	.	.	.
.	.	.	.	.	32bb-\JJJ	.	.	.	.	.	.	.	.	.	.	.
!	!	!	!LO:LB:g=original	!	!	!	!	!	!	!	!	!	!	!	!	!
=70	=70	=70	=70	=70	=70	=70	=70	=70	=70	=70	=70	=70	=70	=70	=70	=70
*tremolo	*	*	*	*	*	*	*	*	*	*	*	*	*2\right	*	*2\right	*
!	!	!	!	!	!	!	!	!	!LO:N:vis=00	!	!LO:N:vis=00	!	!	!	!	!
8BB-/L	3	.	16B-'/LL	.	8.ff\L	.	.	.	0r	.	0r	.	2bb-\	.	2ddd\	.
.	.	.	16f'\	.	.	.	.	.	.	.	.	.	.	.	.	.
8BB-/	.	.	16d'\	.	.	.	.	.	.	.	.	.	.	.	.	.
.	.	.	.	.	32qqgg/	.	.	.	.	.	.	.	.	.	.	.
.	.	.	16f'\JJ	.	16bb-\Jk	.	.	.	.	.	.	.	.	.	.	.
8BB-/	.	.	16B-'/LL	.	16ff\LL	.	.	.	.	.	.	.	.	.	.	.
.	.	.	.	.	32qqccc#X/	.	.	.	.	.	.	.	.	.	.	.
.	.	.	16f'/	.	16ddd\	.	.	.	.	.	.	.	.	.	.	.
.	.	.	.	.	32qqaa/	.	.	.	.	.	.	.	.	.	.	.
8BB-/J	.	.	16d'/	.	16bb-\	.	.	.	.	.	.	.	.	.	.	.
.	.	.	16f'/JJ	.	16ff\JJ	.	.	.	.	.	.	.	.	.	.	.
!	!	!	!	!	!LO:LB:g=original	!	!	!	!	!	!	!	!	!	!	!
=71	=71	=71	=71	=71	=71	=71	=71	=71	=71	=71	=71	=71	=71	=71	=71	=71
8F\L	7_	.	16c'/LL	.	32ee-\LLL	.	.	.	.	.	.	.	2ccc\	.	2eee-\	.
.	.	.	.	.	32ccc\	.	.	.	.	.	.	.	.	.	.	.
.	.	.	16f'/	.	32bb-\	.	.	.	.	.	.	.	.	.	.	.
.	.	.	.	.	32aa\JJJ	.	.	.	.	.	.	.	.	.	.	.
8F\	.	.	16e-'/	.	32gg\LLL	.	.	.	.	.	.	.	.	.	.	.
.	.	.	.	.	32ff\	.	.	.	.	.	.	.	.	.	.	.
.	.	.	16f'/JJ	.	32ee-\	.	.	.	.	.	.	.	.	.	.	.
.	.	.	.	.	32dd\JJJ	.	.	.	.	.	.	.	.	.	.	.
8A\	.	.	16c'/LL	.	32cc\LLL	.	.	.	.	.	.	.	.	.	.	.
.	.	.	.	.	32b-\	.	.	.	.	.	.	.	.	.	.	.
.	.	.	16f'/	.	32a\	.	.	.	.	.	.	.	.	.	.	.
.	.	.	.	.	32b-\JJJ	.	.	.	.	.	.	.	.	.	.	.
8F\J	x	.	16e-'/	.	32cc\LLL	.	.	.	.	.	.	.	.	.	.	.
.	.	.	.	.	32dd\	.	.	.	.	.	.	.	.	.	.	.
.	.	.	16f'/JJ	.	32ee-\	.	.	.	.	.	.	.	.	.	.	.
.	.	.	.	.	32cc\JJJ	.	.	.	.	.	.	.	.	.	.	.
=72	=72	=72	=72	=72	=72	=72	=72	=72	=72	=72	=72	=72	=72	=72	=72	=72
!LO:TX:t=P:problem:mixed beam	!	!	!	!	!	!	!	!	!	!	!	!	!	!	!	!
!	!	!	!	!	!	!	!LO:N:vis=00	!	!	!	!	!	!	!	!	!
8B-\L	3_	.	16B-'/LL	.	4b-\	.	0r	.	.	.	.	.	2bb-\	.	2ddd\	.
.	.	.	16f'/	.	.	.	.	.	.	.	.	.	.	.	.	.
8BB-/	.	.	16d'/	.	.	.	.	.	.	.	.	.	.	.	.	.
.	.	.	16f'/JJ	.	.	.	.	.	.	.	.	.	.	.	.	.
8BB-/	.	.	16B-'/LL	.	32b-\LLL	.	.	.	.	.	.	.	.	.	.	.
.	.	.	.	.	32cc\	.	.	.	.	.	.	.	.	.	.	.
.	.	.	16f'/	.	32dd\	.	.	.	.	.	.	.	.	.	.	.
.	.	.	.	.	32ee-\JJJ	.	.	.	.	.	.	.	.	.	.	.
8BB-/J	x	.	16d'/	.	32ff\LLL	.	.	.	.	.	.	.	.	.	.	.
.	.	.	.	.	32gg\	.	.	.	.	.	.	.	.	.	.	.
.	.	.	16f'/JJ	.	32aa\	.	.	.	.	.	.	.	.	.	.	.
.	.	.	.	.	32bb-\JJJ	.	.	.	.	.	.	.	.	.	.	.
!	!	!	!	!	!	!	!	!	!	!	!	!	!LO:LB:g=original	!	!LO:LB:g=original	!
=73	=73	=73	=73	=73	=73	=73	=73	=73	=73	=73	=73	=73	=73	=73	=73	=73
8BB-/L	.	.	16B-'/LL	.	8.ff\L	.	.	.	.	.	.	.	2bb-\	.	2ddd\	.
.	.	.	16f'/	.	.	.	.	.	.	.	.	.	.	.	.	.
8BB-/	.	.	16d'/	.	.	.	.	.	.	.	.	.	.	.	.	.
.	.	.	.	.	32qqgg/	.	.	.	.	.	.	.	.	.	.	.
.	.	.	16f'/JJ	.	16bb-\Jk	.	.	.	.	.	.	.	.	.	.	.
8BB-/	.	.	16B-'/LL	.	16ff\LL	.	.	.	.	.	.	.	.	.	.	.
.	.	.	.	.	32qqccc#X/	.	.	.	.	.	.	.	.	.	.	.
.	.	.	16f'/	.	16ddd\	.	.	.	.	.	.	.	.	.	.	.
.	.	.	.	.	32qqaa/	.	.	.	.	.	.	.	.	.	.	.
8BB-/J	.	.	16d'/	.	16bb-\	.	.	.	.	.	.	.	.	.	.	.
.	.	.	16f'/JJ	.	16ff\JJ	.	.	.	.	.	.	.	.	.	.	.
*Xtremolo	*	*	*	*	*	*	*	*	*	*	*	*	*	*	*	*
!	!	!	!	!	!LO:LB:g=original	!	!	!	!	!	!	!	!	!	!	!
=74	=74	=74	=74	=74	=74	=74	=74	=74	=74	=74	=74	=74	=74	=74	=74	=74
!	!	!	!	!	!	!	!	!	!LO:N:vis=00	!	!LO:N:vis=00	!	!	!	!	!
8F\L	7_	.	16c'/LL	.	32ee-\LLL	.	.	.	0r	.	0r	.	2ccc\	.	2eee-\	.
.	.	.	.	.	32ccc\	.	.	.	.	.	.	.	.	.	.	.
.	.	.	16f'/	.	32bb-\	.	.	.	.	.	.	.	.	.	.	.
.	.	.	.	.	32aa\JJJ	.	.	.	.	.	.	.	.	.	.	.
8F\	.	.	16e-'/	.	32gg\LLL	.	.	.	.	.	.	.	.	.	.	.
.	.	.	.	.	32ff\	.	.	.	.	.	.	.	.	.	.	.
.	.	.	16f'/JJ	.	32ee-\	.	.	.	.	.	.	.	.	.	.	.
.	.	.	.	.	32dd\JJJ	.	.	.	.	.	.	.	.	.	.	.
8A\	.	.	16c'/LL	.	32cc\LLL	.	.	.	.	.	.	.	.	.	.	.
.	.	.	.	.	32b-\	.	.	.	.	.	.	.	.	.	.	.
.	.	.	16f'/	.	32a\	.	.	.	.	.	.	.	.	.	.	.
.	.	.	.	.	32b-\JJJ	.	.	.	.	.	.	.	.	.	.	.
8A\J	x	.	16e-'/	.	32cc\LLL	.	.	.	.	.	.	.	.	.	.	.
.	.	.	.	.	32dd\	.	.	.	.	.	.	.	.	.	.	.
.	.	.	16f'/JJ	.	32ee-\	.	.	.	.	.	.	.	.	.	.	.
.	.	.	.	.	32cc\JJJ	.	.	.	.	.	.	.	.	.	.	.
!LO:LB:g=original	!	!	!	!	!	!	!	!	!	!	!	!	!	!	!	!
=75	=75	=75	=75	=75	=75	=75	=75	=75	=75	=75	=75	=75	=75	=75	=75	=75
!	!	!	!LO:TX:t=P:problem:mixed beam	!	!	!	!	!	!	!	!	!	!	!	!	!
!	!	!	!LO:TX:a:t=|:problem	!	!LO:TX:a:t=|:problem	!	!	!	!	!	!	!	!LO:TX:a:t=|:problem	!	!	!
8B-\L	3	.	16d/LL	.	16b-\LL	.	.	.	.	.	.	.	8bb-\	.	8ddd\	.
!	!	!	!LO:TX:a:t=|:problem	!	!LO:TX:a:t=|:problem	!	!	!	!	!	!	!	!	!	!	!
.	.	.	16b-\	.	16bb-\	.	.	.	.	.	.	.	.	.	.	.
8d\	3	.	(16b-\	.	(16bb-\	.	.	.	.	.	.	.	8r	.	8r	.
.	.	.	16a\JJ)	.	16aa\JJ)	.	.	.	.	.	.	.	.	.	.	.
!	!	!	!LO:LB:g=original	!	!	!	!	!	!	!	!	!	!	!	!	!
!	!	!	!	!	!LO:TX:t=P:problem:mixed beam	!	!	!	!	!	!	!	!	!	!	!
!	!	!	!LO:TX:b:t=|:problem	!	!LO:TX:a:t=|:problem	!	!	!	!	!	!	!	!LO:TX:a:t=|:problem	!	!	!
8e-\	.	.	16G/LL	.	16g/LL	.	.	.	.	.	.	.	8gg\	.	8ggg\	.
!	!	!	!LO:TX:b:t=|:problem	!	!LO:TX:a:t=|:problem	!	!	!	!	!	!	!	!	!	!	!
.	.	.	16g/	.	16gg\	.	.	.	.	.	.	.	.	.	.	.
8d\J	3	.	(16g/	.	(16gg\	.	.	.	.	.	.	.	8r	.	8r	.
.	.	.	16f/JJ)	.	16ff\JJ)	.	.	.	.	.	.	.	.	.	.	.
=76	=76	=76	=76	=76	=76	=76	=76	=76	=76	=76	=76	=76	=76	=76	=76	=76
!	!	!	!	!	!LO:TX:t=P:problem:mixed beam	!	!	!	!	!	!	!	!	!	!	!
!	!	!	!LO:TX:b:t=|:problem	!	!LO:TX:a:t=|:problem	!	!	!	!	!	!	!	!LO:TX:a:t=|:problem	!	!	!
!	!	!	!	!	!	!	!LO:N:vis=00	!	!	!	!	!	!	!	!	!
8c\L	3	.	16e-/LL	.	16e-/LL	.	0r	.	.	.	.	.	8ee-\	.	8eee-\	.
!	!	!	!LO:TX:b:t=|:problem	!	!LO:TX:a:t=|:problem	!	!	!	!	!	!	!	!	!	!	!
.	.	.	16e-/	.	16ee-\	.	.	.	.	.	.	.	.	.	.	.
8B-\J	3	.	(16e-/	.	(16ee-\	.	.	.	.	.	.	.	8r	.	8r	.
.	.	.	16d/JJ)	.	16dd\JJ)	.	.	.	.	.	.	.	.	.	.	.
!	!	!	!	!	!LO:TX:t=P:problem:mixed beam	!	!	!	!	!	!	!	!	!	!	!
!	!	!	!LO:TX:b:t=|:problem	!	!LO:TX:a:t=|:problem	!	!	!	!	!	!	!	!LO:TX:a:t=|:problem	!	!	!
8A\L	3	.	16c/LL	.	16c/LL	.	.	.	.	.	.	.	8cc\	.	8ccc\	.
!	!	!	!LO:TX:b:t=|:problem	!	!LO:TX:a:t=|:problem	!	!	!	!	!	!	!	!	!	!	!
.	.	.	16c/	.	16cc\	.	.	.	.	.	.	.	.	.	.	.
8G\J	3	.	(16c/	.	(16cc\	.	.	.	.	.	.	.	8r	.	8r	.
.	.	.	16B-/JJ)	.	16b-\JJ)	.	.	.	.	.	.	.	.	.	.	.
=77	=77	=77	=77	=77	=77	=77	=77	=77	=77	=77	=77	=77	=77	=77	=77	=77
[4F\	7_	.	32f/LLL	.	(32a\LLL	.	.	.	.	.	.	.	2a\	.	2aa\	.
.	.	.	32g/	.	32b-\	.	.	.	.	.	.	.	.	.	.	.
.	.	.	32f/	.	32a\	.	.	.	.	.	.	.	.	.	.	.
.	.	.	32g/JJJ	.	32b-\JJJ	.	.	.	.	.	.	.	.	.	.	.
.	.	.	32a/LLL	.	32cc\LLL	.	.	.	.	.	.	.	.	.	.	.
.	.	.	32b-/	.	32dd\	.	.	.	.	.	.	.	.	.	.	.
.	.	.	32a/	.	32cc\	.	.	.	.	.	.	.	.	.	.	.
.	.	.	32b-/JJJ	.	32dd\JJJ)	.	.	.	.	.	.	.	.	.	.	.
16F\LL]	.	.	4cc\	.	4ee-\	.	.	.	.	.	.	.	.	.	.	.
16G-X\	.	.	.	.	.	.	.	.	.	.	.	.	.	.	.	.
16F\	.	.	.	.	.	.	.	.	.	.	.	.	.	.	.	.
16G-\JJ	.	.	.	.	.	.	.	.	.	.	.	.	.	.	.	.
=78	=78	=78	=78	=78	=78	=78	=78	=78	=78	=78	=78	=78	=78	=78	=78	=78
!	!	!	!	!	!	!	!	!	!LO:N:vis=00	!	!LO:N:vis=00	!	!	!	!	!
32F\LLL	_	.	4.cc\	.	4.ee-\	.	.	.	0r	.	0r	.	2aa\	.	2ccc\	.
32G-X\	.	.	.	.	.	.	.	.	.	.	.	.	.	.	.	.
32F\	.	.	.	.	.	.	.	.	.	.	.	.	.	.	.	.
32G-\JJJ	.	.	.	.	.	.	.	.	.	.	.	.	.	.	.	.
32F\LLL	.	.	.	.	.	.	.	.	.	.	.	.	.	.	.	.
32G-\	.	.	.	.	.	.	.	.	.	.	.	.	.	.	.	.
32F\	.	.	.	.	.	.	.	.	.	.	.	.	.	.	.	.
32G-\JJJ	.	.	.	.	.	.	.	.	.	.	.	.	.	.	.	.
16F\LL	.	.	.	.	.	.	.	.	.	.	.	.	.	.	.	.
16c\	.	.	.	.	.	.	.	.	.	.	.	.	.	.	.	.
16A\	x	.	8cc\	.	8ee-\	.	.	.	.	.	.	.	.	.	.	.
16F\JJ	.	.	.	.	.	.	.	.	.	.	.	.	.	.	.	.
=79	=79	=79	=79	=79	=79	=79	=79	=79	=79	=79	=79	=79	=79	=79	=79	=79
8B-\L	.	.	8b-\	.	(32dd\LLL	.	.	.	.	.	.	.	8bb-\	.	8ddd\	.
.	.	.	.	.	32bb-\	.	.	.	.	.	.	.	.	.	.	.
.	.	.	.	.	32aa\	.	.	.	.	.	.	.	.	.	.	.
.	.	.	.	.	32bb-\JJJ	.	.	.	.	.	.	.	.	.	.	.
8E-\J	.	.	4b-\	.	32aa\LLL	.	.	.	.	.	.	.	8r	.	8r	.
.	.	.	.	.	32gg\	.	.	.	.	.	.	.	.	.	.	.
.	.	.	.	.	32ff\	.	.	.	.	.	.	.	.	.	.	.
.	.	.	.	.	32ee-\JJJ)	.	.	.	.	.	.	.	.	.	.	.
!LO:TX:t=P:problem:mixed beam	!	!	!	!	!	!	!	!	!	!	!	!	!	!	!	!
8F\L	6 4	.	.	.	8dd\L	.	.	.	.	.	.	.	8dd\L	.	8bb-\L	.
8FF/J	5 3	.	8a\	.	8cc\J	.	.	.	.	.	.	.	8cc\J	.	8aa\J	.
!LO:LB:g=original	!	!	!	!	!	!	!	!	!	!	!	!	!	!	!	!
=80	=80	=80	=80	=80	=80	=80	=80	=80	=80	=80	=80	=80	=80	=80	=80	=80
!	!	!	!	!	!	!	!LO:N:vis=00	!	!	!	!	!	!	!	!	!
8BB-/	.	.	8b-\	.	8b-\	.	0r	.	.	.	.	.	8dd\L	.	8bb-\L	.
!	!	!	!	!	!	!	!	!	!	!	!	!	!LO:TX:i:a:t=Solo	!	!	!
8r	.	.	8r	.	8r	.	.	.	.	.	.	.	32bb-\LL	.	32ddd\LL	.
!	!	!	!	!	!	!	!	!	!	!	!	!	!	!	!LO:TX:i:a:t=Solo	!
.	.	.	.	.	.	.	.	.	.	.	.	.	32aa\	.	32ccc\	.
.	.	.	.	.	.	.	.	.	.	.	.	.	32bb-\	.	32ddd\	.
.	.	.	.	.	.	.	.	.	.	.	.	.	32ccc\JJJ	.	32eee-\JJJ	.
8r	.	.	8r	.	8r	.	.	.	.	.	.	.	8ddd\L	.	8fff\L	.
!	!	!	!	!	!LO:TX:a:t=|:problem	!	!	!	!	!	!	!	!	!	!	!
8F\	.	.	8cc\	.	8aa\	.	.	.	.	.	.	.	8ccc\J	.	8eee-\J	.
!	!	!	!	!	!	!	!	!	!	!	!	!	!	!	!LO:LB:g=original	!
=81	=81	=81	=81	=81	=81	=81	=81	=81	=81	=81	=81	=81	=81	=81	=81	=81
!	!	!	!	!	!LO:TX:a:t=|:problem	!	!	!	!	!	!	!	!	!	!	!
8BB-/	.	.	8dd\	.	8bb-\	.	.	.	.	.	.	.	8bb-\L	.	8ddd\L	.
8r	.	.	8r	.	8r	.	.	.	.	.	.	.	32bb-\LL	.	32ddd\LL	.
.	.	.	.	.	.	.	.	.	.	.	.	.	32aa\	.	32ccc\	.
.	.	.	.	.	.	.	.	.	.	.	.	.	32bb-\	.	32ddd\	.
.	.	.	.	.	.	.	.	.	.	.	.	.	32ccc\JJJ	.	32eee-\JJJ	.
!	!	!	!LO:LB:g=original	!	!	!	!	!	!	!	!	!	!	!	!	!
8r	.	.	8r	.	8r	.	.	.	.	.	.	.	8ddd\L	.	8fff\L	.
!	!	!	!	!	!LO:TX:a:t=|:problem	!	!	!	!	!	!	!	!	!	!	!
8F\	.	.	8cc\	.	8aa\	.	.	.	.	.	.	.	8ccc\J	.	8eee-\J	.
!	!	!	!	!	!LO:LB:g=original	!	!	!	!	!	!	!	!LO:LB:g=original	!	!	!
=82	=82	=82	=82	=82	=82	=82	=82	=82	=82	=82	=82	=82	=82	=82	=82	=82
!	!	!	!	!	!LO:TX:a:t=|:problem	!	!	!	!	!	!	!	!	!	!	!
!	!	!	!	!	!	!	!	!	!LO:N:vis=00	!	!LO:N:vis=00	!	!	!	!	!
8B-\L	.	.	8dd\L	.	16.bb-\LL	.	.	.	0r	.	0r	.	8bb-\	.	8ddd\	.
!	!	!	!	!	!LO:TX:a:t=|:problem	!	!	!	!	!	!	!	!	!	!	!
.	.	.	.	.	32ff\K	.	.	.	.	.	.	.	.	.	.	.
!	!	!	!	!	!LO:TX:a:t=|:problem	!	!	!	!	!	!	!	!	!	!	!
8E-\J	.	.	16.ee-\L	.	16.gg\	.	.	.	.	.	.	.	8r	.	8r	.
!	!	!	!	!	!LO:TX:a:t=|:problem	!	!	!	!	!	!	!	!	!	!	!
.	.	.	32cc\JJk	.	32ee-\JJk	.	.	.	.	.	.	.	.	.	.	.
!	!	!	!	!	!LO:TX:a:t=|:problem	!	!	!	!	!	!	!	!	!	!	!
4F\	.	.	8b-\L	.	8dd\L	.	.	.	.	.	.	.	8dd\L	.	8bb-\L	.
!	!	!	!	!	!LO:TX:a:t=|:problem	!	!	!	!	!	!	!	!	!	!	!
.	.	.	8a\J	.	8cc\J	.	.	.	.	.	.	.	8cc\J	.	8aa\J	.
=83	=83	=83	=83	=83	=83	=83	=83	=83	=83	=83	=83	=83	=83	=83	=83	=83
!LO:TX:a:t=|:problem	!	!	!	!	!LO:TX:b:t=|:problem	!	!	!	!	!	!	!	!	!	!	!
16.B-\LL	.	.	16.b-/LL	.	16.b-/LL	.	.	.	.	.	.	.	16.dd\LL	.	16.bb-\LL	.
!LO:TX:a:t=|:problem	!	!	!	!	!LO:TX:b:t=|:problem	!	!	!	!	!	!	!	!	!	!	!
32F\K	.	.	32f/K	.	32f/K	.	.	.	.	.	.	.	32ff\K	.	32ff\K	.
!LO:TX:a:t=|:problem	!	!	!	!	!LO:TX:b:t=|:problem	!	!	!	!	!	!	!	!	!	!LO:TX:i:a:t=Tutti	!
16.G\	.	.	16.g/	.	16.g/	.	.	.	.	.	.	.	16.gg\	.	16.gg\	.
!LO:TX:a:t=|:problem	!	!	!	!	!LO:TX:b:t=|:problem	!	!	!	!	!	!	!	!	!	!	!
32E-\JJk	.	.	32e-/JJk	.	32e-/JJk	.	.	.	.	.	.	.	32ee-\JJk	.	32ee-\JJk	.
!LO:TX:t=P:problem:mixed beam	!	!	!	!	!	!	!	!	!	!	!	!	!	!	!	!
!LO:TX:a:t=|:problem	!	!	!	!	!LO:TX:b:t=|:problem	!	!	!	!	!	!	!	!	!	!	!
8F\L	.	.	8f/L	.	8f/L	.	.	.	.	.	.	.	8ff\L	.	8ff\L	.
!LO:TX:a:t=|:problem	!	!	!	!	!LO:TX:b:t=|:problem	!	!	!	!	!	!	!	!	!	!	!
8FF/J	.	.	8f/J	.	8f/J	.	.	.	.	.	.	.	8ff\J	.	8ff\J	.
=84	=84	=84	=84	=84	=84	=84	=84	=84	=84	=84	=84	=84	=84	=84	=84	=84
!	!	!	!	!	!LO:TX:b:t=|:problem	!	!	!	!	!	!	!	!	!	!	!
4BB-/	.	.	4B-/	.	4B-/	.	4r	.	.	.	.	.	4b-\	.	4b-\	.
4r	.	.	4r	.	4r	.	8r	.	.	.	.	.	4r	.	4r	.
.	.	.	.	.	.	.	8F\	En	.	.	.	.	.	.	.	.
!	!	!	!	!	!	!	!LO:LB:g=original	!	!	!	!	!	!	!	!	!
=85	=85	=85	=85	=85	=85	=85	=85	=85	=85	=85	=85	=85	=85	=85	=85	=85
!LO:TX:i:a:t=Solo	!	!	!LO:TX:i:a:t=Solo	!	!	!	!	!	!	!	!	!	!LO:N:vis=00	!	!LO:N:vis=00	!
4BB-/	.	p	8r	p	8r	.	8.B-\	vi-	.	.	.	.	0r	.	0r	.
.	.	.	16.b-/LL	.	16.bb-\LL	.	.	.	.	.	.	.	.	.	.	.
.	.	.	.	.	.	.	16F\	-des	.	.	.	.	.	.	.	.
.	.	.	32f/JJk	.	32ff\JJk	p	.	.	.	.	.	.	.	.	.	.
*	*	*	*	*	*	*	*	*ij	*	*	*	*	*	*	*	*
4r	.	.	8d/L	.	8dd\L	.	8D/	vi-	.	.	.	.	.	.	.	.
.	.	.	8B-/J	.	8b-\J	.	8BB-/	-des	.	.	.	.	.	.	.	.
*	*	*	*	*	*	*	*	*Xij	*	*	*	*	*	*	*	*
=86	=86	=86	=86	=86	=86	=86	=86	=86	=86	=86	=86	=86	=86	=86	=86	=86
8r	.	.	4A/	.	4ff\	.	16.F\	ho-	2r	.	2r	.	.	.	.	.
.	.	.	.	.	.	.	32FF/	-mi-	.	.	.	.	.	.	.	.
16.f\LL	.	.	.	.	.	.	8FF/	-nem.	.	.	.	.	.	.	.	.
32c\JJk	.	.	.	.	.	.	.	.	.	.	.	.	.	.	.	.
8A\L	.	.	4r	.	4r	.	4r	.	.	.	.	.	.	.	.	.
8F\J	.	.	.	.	.	.	.	.	.	.	.	.	.	.	.	.
!LO:LB:g=original	!	!	!	!	!	!	!	!	!	!	!	!	!	!	!	!
=87	=87	=87	=87	=87	=87	=87	=87	=87	=87	=87	=87	=87	=87	=87	=87	=87
!	!	!	!	!	!	!	!LO:N:vis=0	!	!	!	!	!	!	!	!	!
4F\	5 3	.	4a\	.	4cc\	.	1r	.	16a\	Pul-	16cc\	pul-	.	.	.	.
.	.	.	.	.	.	.	.	.	16a\	-ve-	16cc\	-ve-	.	.	.	.
.	.	.	.	.	.	.	.	.	8a\	-rem	8cc\	-rem	.	.	.	.
!	!	!	!	!	!	!	!	!	!	!	!LO:TX:a:t=	!	!	!	!	!
4En\	7- 5	.	4b-\	.	4dd-X\	.	.	.	8b-\	mox	8dd-X\	mox	.	.	.	.
.	.	.	.	.	.	.	.	.	16r	.	16r	.	.	.	.	.
.	.	.	.	.	.	.	.	.	16b-\	fu-	16dd-\	fu-	.	.	.	.
=88	=88	=88	=88	=88	=88	=88	=88	=88	=88	=88	=88	=88	=88	=88	=88	=88
4F\	5 3	.	4a\	.	4cc\	.	.	.	8a\	-tu-	8cc\	-tu-	.	.	.	.
.	.	.	.	.	.	.	.	.	8a\	-rum	8cc\	-rum	.	.	.	.
!	!	!	!	!	!	!	!	!	!LO:LB:g=original	!	!	!	!	!	!	!
!	!	!	!	!	!	!	!	!	!	!	!LO:TX:a:t=	!	!	!	!	!
4En\	7- 5	.	4b-\	.	4dd-X\	.	.	.	8b-\	mox	8dd-X\	mox	.	.	.	.
.	.	.	.	.	.	.	.	.	16r	.	16r	.	.	.	.	.
.	.	.	.	.	.	.	.	.	16b-\	fu-	16dd-\	fu-	.	.	.	.
!	!	!	!	!	!LO:PB:g=original	!	!	!	!	!	!LO:LB:g=original	!	!	!	!	!
=89	=89	=89	=89	=89	=89	=89	=89	=89	=89	=89	=89	=89	=89	=89	=89	=89
4F\	.	.	4a\	.	16cc\LL	.	4r	.	8a\	-tu-	8cc\	-tu-	8r	.	8r	.
.	.	.	.	.	16a\J	.	.	.	.	.	.	.	.	.	.	.
.	.	.	.	.	8f\J	.	.	.	8a\	-rum	8cc\	-rum	8aa\L	p	8ccc\L	p
4r	.	.	4r	.	4r	.	8r	.	4r	.	4r	.	8ff\J	.	8aa\J	.
.	.	.	.	.	.	.	8F\	En	.	.	.	.	8r	.	8r	.
!	!	!	!LO:LB:g=original	!	!	!	!	!	!	!	!	!	!	!	!	!
=90	=90	=90	=90	=90	=90	=90	=90	=90	=90	=90	=90	=90	=90	=90	=90	=90
!	!	!	!	!	!	!	!	!	!	!	!	!	!LO:N:vis=00	!	!LO:N:vis=00	!
4BB-/	.	.	8r	.	8r	.	8.B-\	vi-	2r	.	2r	.	0r	.	0r	.
.	.	.	16.b-/LL	.	16.bb-\LL	.	.	.	.	.	.	.	.	.	.	.
.	.	.	.	.	.	.	16F\	-des	.	.	.	.	.	.	.	.
.	.	.	32f/JJk	.	32ff\JJk	.	.	.	.	.	.	.	.	.	.	.
4r	.	.	8d/L	.	8dd\L	.	8D/	vi-	.	.	.	.	.	.	.	.
.	.	.	8B-/J	.	8b-\J	.	8BB-/	-des	.	.	.	.	.	.	.	.
!	!	!	!	!	!	!	!LO:LB:g=original	!	!	!	!	!	!	!	!	!
=91	=91	=91	=91	=91	=91	=91	=91	=91	=91	=91	=91	=91	=91	=91	=91	=91
8r	.	.	4A/	.	4ff\	.	16.F\	ho-	4r	.	4r	.	.	.	.	.
.	.	.	.	.	.	.	32FF/	-mi-	.	.	.	.	.	.	.	.
16.f\LL	.	.	.	.	.	.	8FF/	-nem.	.	.	.	.	.	.	.	.
32c\JJk	.	.	.	.	.	.	.	.	.	.	.	.	.	.	.	.
8A\L	.	.	8r	.	8r	.	4r	.	16a\	pul-	16cc\	pul-	.	.	.	.
.	.	.	.	.	.	.	.	.	16a\	-ve-	16cc\	-ve-	.	.	.	.
8F\J	.	.	8a\	.	8ee-\	.	.	.	8cc\	-rem	8ee-\	-rem	.	.	.	.
=92	=92	=92	=92	=92	=92	=92	=92	=92	=92	=92	=92	=92	=92	=92	=92	=92
!LO:TX:t=P:problem:mixed beam	!	!	!	!	!	!	!LO:TX:i:a:t=37.	!	!	!	!LO:TX:a:t=	!	!	!	!	!
!	!	!	!	!	!	!	!LO:N:vis=00	!	!	!	!	!	!	!	!	!
8B-\L	.	.	8b-\	.	8dd\	.	0r	.	8b-\	mox	8ddn\	mox	.	.	.	.
8BB-/J	.	.	8r	.	8r	.	.	.	8r	.	8r	.	.	.	.	.
8F\L	.	.	8r	.	8r	.	.	.	16a\	pul-	16cc\	pul-	.	.	.	.
.	.	.	.	.	.	.	.	.	16a\	-ve-	16cc\	-ve-	.	.	.	.
8A\J	.	.	8cc\	.	8ee-\	.	.	.	8cc\	-rem	8ee-\	-rem	.	.	.	.
!	!	!	!	!	!	!	!	!	!LO:LB:g=original	!	!	!	!	!	!	!
=93	=93	=93	=93	=93	=93	=93	=93	=93	=93	=93	=93	=93	=93	=93	=93	=93
!LO:TX:t=P:problem:mixed beam	!	!	!	!	!	!	!	!	!	!	!LO:TX:a:t=	!	!	!	!	!
8B-\L	.	.	(8b-/L	.	8dd\L	.	.	.	8b-\	mox	8ddn\	mox	.	.	.	.
8E-\	.	.	16g/L	.	16ee-\L	.	.	.	16g/LL	fu-	(16ee-\LL	fu-	.	.	.	.
.	.	.	16e-/JJ	.	16cc\JJ	.	.	.	16e-/JJ	.	16cc\JJ)	.	.	.	.	.
!	!	!	!	!	!	!	!	!	!	!	!LO:LB:g=original	!	!	!	!	!
8F\	.	.	16e-/LL	.	(16cc\LL	.	.	.	16e-/LL	-tu-	16cc\LL	-tu-	.	.	.	.
.	.	.	16d/)	.	16b-\	.	.	.	16d/JJ	.	16b-\JJ	.	.	.	.	.
8FF/J	.	.	16d/	.	16b-\	.	.	.	16d/LL	.	16b-\LL	.	.	.	.	.
.	.	.	16c/JJ	.	16a\JJ)	.	.	.	16c/JJ	.	16a\JJ	.	.	.	.	.
!	!	!	!	!	!	!	!	!	!	!	!	!	!	!	!LO:TX:i:a:t=VS&colon;	!
!	!	!	!	!	!	!	!	!	!	!	!	!	!	!	!LO:PB:g=original	!
=94	=94	=94	=94	=94	=94	=94	=94	=94	=94	=94	=94	=94	=94	=94	=94	=94
!	!	!	!	!	!LO:TX:i:b:t=mezze Voce	!	!	!	!	!	!	!	!	!	!	!
8BB-/L	.	.	(16d/LL	.	(16b-\LL	.	.	.	4d/	-rum.	4b-\	-rum.	(16dd\LL	.	(16bb-\LL	.
.	.	.	16f/	.	16dd\)	.	.	.	.	.	.	.	16ff\	.	16ddd\)	.
!	!	!	!LO:TX:i:b:t=m&colon;voce	!	!	!	!	!	!	!	!	!	!	!	!	!
8BB-/	.	.	16d/	.	(16b-\	.	.	.	.	.	.	.	16dd\	f	(16bb-\	f
.	.	.	16f/JJ)	.	16dd\JJ)	.	.	.	.	.	.	.	16ff\JJ)	.	16ddd\JJ)	.
!	!	!	!	!	!LO:TX:a:t=|:problem	!	!	!	!	!	!	!	!LO:TX:a:t=|:problem	!	!	!
8BB-/J	.	.	8d/	.	8b-\	.	.	.	4r	.	4r	.	8dd\	.	8bb-`\	.
8r	.	.	8r	.	8r	.	.	.	.	.	.	.	8r	.	8r	.
!LO:LB:g=original	!	!	!	!	!LO:LB:g=original	!	!	!	!	!	!	!	!	!	!	!
=95	=95	=95	=95	=95	=95	=95	=95	=95	=95	=95	=95	=95	=95	=95	=95	=95
!	!	!	!	!	!	!	!	!	!LO:N:vis=00	!	!	!	!LO:N:vis=0	!	!LO:N:vis=0	!
2r	.	.	2r	.	2r	.	.	.	0r	.	16b-\	pul-	1r	.	1r	.
.	.	.	.	.	.	.	.	.	.	.	16b-\	-ve-	.	.	.	.
.	.	.	.	.	.	.	.	.	.	.	8b-\	-rem	.	.	.	.
.	.	.	.	.	.	.	.	.	.	.	8b-\	mox	.	.	.	.
.	.	.	.	.	.	.	.	.	.	.	8b-\	fu-	.	.	.	.
=96	=96	=96	=96	=96	=96	=96	=96	=96	=96	=96	=96	=96	=96	=96	=96	=96
!	!	!	!	!	!	!	!LO:N:vis=00	!	!	!	!	!	!	!	!	!
8BB-\L	.	.	16d/LL	p	(16f/LL	.	0r	.	.	.	2b-T\	-tu-	.	.	.	.
.	.	.	16f/J	.	16a-X/J)	.	.	.	.	.	.	.	.	.	.	.
!	!	!	!	!	!	!LO:DY:t=pia&colon;	!	!	!	!	!	!	!	!	!	!
8E-\	.	.	8e-/J	.	8g/J	p	.	.	.	.	.	.	.	.	.	.
8BB-\	.	.	16d/LL	.	(16f/LL	.	.	.	.	.	.	.	.	.	.	.
.	.	.	16f/J	.	16a-/J)	.	.	.	.	.	.	.	.	.	.	.
8E-\J	.	.	8e-/J	.	8g/J	.	.	.	.	.	.	.	.	.	.	.
!	!	!	!LO:LB:g=original	!	!	!	!	!	!	!	!	!	!	!	!	!
=97	=97	=97	=97	=97	=97	=97	=97	=97	=97	=97	=97	=97	=97	=97	=97	=97
8BB-/	.	.	8d/	.	8f/	.	.	.	.	.	16b-\LL	.	2r	.	2r	.
.	.	.	.	.	.	.	.	.	.	.	16dd\	.	.	.	.	.
8r	.	.	8r	.	8r	.	.	.	.	.	16ff\	.	.	.	.	.
.	.	.	.	.	.	.	.	.	.	.	16ee-\JJ	.	.	.	.	.
8r	.	.	8r	.	8r	.	.	.	.	.	16dd\LL	.	.	.	.	.
.	.	.	.	.	.	.	.	.	.	.	16cc\	.	.	.	.	.
8BB-/	.	.	8d/	.	8f/	.	.	.	.	.	16b-\	.	.	.	.	.
.	.	.	.	.	.	.	.	.	.	.	16a-X\JJ	.	.	.	.	.
!	!	!	!	!	!	!	!	!	!	!	!	!	!LO:TX:i:b:t=VS&colon;	!	!	!
!	!	!	!	!	!	!	!	!	!	!	!LO:LB:g=original	!	!LO:PB:g=original	!	!	!
=98	=98	=98	=98	=98	=98	=98	=98	=98	=98	=98	=98	=98	=98	=98	=98	=98
4E-\	.	.	4e-/	.	4g/	.	.	.	.	.	8g/	.	4r	.	4r	.
.	.	.	.	.	.	.	.	.	.	.	8e-/	-rum	.	.	.	.
!LO:TX:a:t=|:problem	!	!	!LO:TX:a:t=|:problem	!	!LO:TX:a:t=|:problem	!	!	!	!	!	!	!	!	!	!	!
8BB-/L	.	f	8f/L	f	8dd\L	f	.	.	.	.	4r	.	8dd\L	.	8ff\L	.
!LO:TX:a:t=|:problem	!	!	!LO:TX:a:t=|:problem	!	!LO:TX:a:t=|:problem	!	!	!	!	!	!	!	!	!	!	!
8E-/J	.	.	8g/J	.	8ee-\J	.	.	.	.	.	.	.	8ee-\J	f	8gg\J	.
=99	=99	=99	=99	=99	=99	=99	=99	=99	=99	=99	=99	=99	=99	=99	=99	=99
!LO:TX:a:t=|:problem	!	!	!	!	!	!	!	!	!	!	!	!	!	!	!	!
!	!	!	!	!	!	!	!	!	!	!	!LO:N:vis=00	!	!	!	!	!
8A\L	.	.	(16a/LL	.	(16ff\LL	.	.	.	2r	.	0r	.	8ff\L	.	8aa\L	.
.	.	.	16cc/	.	16aa\	.	.	.	.	.	.	.	.	.	.	.
!LO:TX:a:t=|:problem	!	!	!	!	!	!	!	!	!	!	!	!	!	!	!	!
8B-\	.	.	16f/	.	16dd\	.	.	.	.	.	.	.	8dd\	.	8ff\	.
.	.	.	16a/JJ)	.	16ff\JJ)	.	.	.	.	.	.	.	.	.	.	.
!LO:TX:a:t=|:problem	!	!	!LO:TX:b:t=|:problem	!	!LO:TX:a:t=|:problem	!	!	!	!	!	!	!	!	!	!	!
8E-\J	.	.	8g/	.	8ee-\	.	.	.	.	.	.	.	8ee-\J	.	8gg\J	.
8r	.	.	8r	.	8r	.	.	.	.	.	.	.	8r	.	8r	.
=100	=100	=100	=100	=100	=100	=100	=100	=100	=100	=100	=100	=100	=100	=100	=100	=100
!	!	!	!	!	!	!	!LO:N:vis=00	!	!	!	!	!	!LO:N:vis=0	!	!LO:N:vis=0	!
2r	.	.	2r	.	2r	.	0r	.	16cc\	Pul-	.	.	1r	.	1r	.
.	.	.	.	.	.	.	.	.	16cc\	-ve-	.	.	.	.	.	.
.	.	.	.	.	.	.	.	.	8cc\	-rem	.	.	.	.	.	.
.	.	.	.	.	.	.	.	.	8cc\	mox	.	.	.	.	.	.
.	.	.	.	.	.	.	.	.	8cc\	fu-	.	.	.	.	.	.
!	!	!	!	!	!	!	!	!	!LO:LB:g=original	!	!	!	!	!	!	!
=101	=101	=101	=101	=101	=101	=101	=101	=101	=101	=101	=101	=101	=101	=101	=101	=101
!	!	!	!	!	!	!	!	!	!LO:TX:i:a:t=t	!	!	!	!	!	!	!
8C\L	n	.	16en/LL	p	(16g/LL	p	.	.	2cc\	-tu-	.	.	.	.	.	.
.	.	.	16g/J	.	16b-/J)	.	.	.	.	.	.	.	.	.	.	.
8F\	3	.	8f/J	.	8an/J	.	.	.	.	.	.	.	.	.	.	.
8C\	n	p	(16e/LL	.	(16g/LL	.	.	.	.	.	.	.	.	.	.	.
.	.	.	16g/J	.	16b-/J	.	.	.	.	.	.	.	.	.	.	.
8F\J	3	.	8f/J)	.	8a/J)	.	.	.	.	.	.	.	.	.	.	.
=102	=102	=102	=102	=102	=102	=102	=102	=102	=102	=102	=102	=102	=102	=102	=102	=102
!	!	!	!LO:SIC:s=8en	!	!	!	!	!	!	!	!	!	!	!	!	!
8C\	.	.	8e-/	.	8g/	.	.	.	16cc\LL	.	.	.	2r	.	2r	.
.	.	.	.	.	.	.	.	.	16een\	.	.	.	.	.	.	.
8r	.	.	8r	.	8r	.	.	.	16gg\	.	.	.	.	.	.	.
.	.	.	.	.	.	.	.	.	16ff\JJ	.	.	.	.	.	.	.
8r	.	.	8r	.	8r	.	.	.	16ee\LL	.	.	.	.	.	.	.
.	.	.	.	.	.	.	.	.	16dd\	.	.	.	.	.	.	.
!	!	!	!LO:SIC:s=8en	!	!	!	!	!	!	!	!	!	!	!	!	!
8C\	.	.	8e-/	.	8g/	.	.	.	16cc\	.	.	.	.	.	.	.
.	.	.	.	.	.	.	.	.	16b-\JJ	.	.	.	.	.	.	.
!LO:LB:g=original	!	!	!	!	!LO:LB:g=original	!	!	!	!	!	!	!	!	!	!	!
=103	=103	=103	=103	=103	=103	=103	=103	=103	=103	=103	=103	=103	=103	=103	=103	=103
4F\	.	.	4f/	.	4a\	.	.	.	8a\	.	2r	.	4r	.	4r	.
.	.	.	.	.	.	.	.	.	8f/	-rum	.	.	.	.	.	.
!LO:TX:a:t=|:problem	!	!	!LO:TX:b:t=|:problem	!	!LO:TX:a:t=|:problem	!	!	!	!	!	!	!	!	!	!	!
8C\L	.	f	8g/L	f	8een\L	f	.	.	4r	.	.	.	8een\L	.	8gg\L	.
!LO:TX:a:t=|:problem	!	!	!LO:TX:b:t=|:problem	!	!LO:TX:a:t=|:problem	!	!	!	!	!	!	!	!	!	!	!
8F\J	.	.	8a/J	.	8ff\J	.	.	.	.	.	.	.	8ff\J	.	8aa\J	.
!	!	!	!LO:LB:g=original	!	!	!	!	!	!	!	!	!	!	!	!	!
=104	=104	=104	=104	=104	=104	=104	=104	=104	=104	=104	=104	=104	=104	=104	=104	=104
!LO:TX:a:t=|:problem	!	!	!	!	!	!	!	!	!	!	!	!	!	!	!	!
!	!	!	!	!	!	!	!LO:N:vis=00	!	!LO:N:vis=00	!	!	!	!	!	!	!
8B-\L	.	.	(16b-\LL	.	(16gg\LL	.	0r	.	0r	.	16dd\	pul-	8gg\L	.	8bb-\L	.
.	.	.	16dd\	.	16bb-\	.	.	.	.	.	16dd\	-ve-	.	.	.	.
!LO:TX:a:t=|:problem	!	!	!	!	!	!	!	!	!	!	!	!	!LO:SIC:s=8een	!	!	!
8c\	.	.	16g\	.	16een\	.	.	.	.	.	8dd\	-rem	8ee-\J	.	8gg\	.
.	.	.	16b-\JJ)	.	16gg\JJ)	.	.	.	.	.	.	.	.	.	.	.
!LO:TX:a:t=|:problem	!	!	!LO:TX:a:t=|:problem	!	!LO:TX:a:t=|:problem	!	!	!	!	!	!	!	!	!	!	!
8F\J	.	.	8a\	.	8ff\	.	.	.	.	.	8dd\	mox	8ff\	.	8aa\J	.
8r	.	.	8r	.	8r	.	.	.	.	.	8dd\	fu-	8r	.	8r	.
!	!	!	!	!	!	!	!	!	!	!	!	!	!	!	!LO:LB:g=original	!
=105	=105	=105	=105	=105	=105	=105	=105	=105	=105	=105	=105	=105	=105	=105	=105	=105
!	!	!	!LO:SIC:o:s=:v:nadprogramowy takt w violino primo	!	!LO:SIC:o:s=:v:nadprogramowy takt w violino primo	!	!LO:SIC:o:s=:v:nadprogramowy takt w violino primo	!	!LO:SIC:o:s=:v:nadprogramowy takt w violino primo	!	!LO:SIC:o:s=:v:nadprogramowy takt w violino primo	!	!LO:SIC:o:s=:v:nadprogramowy takt w violino primo	!	!LO:SIC:o:s=:v:nadprogramowy takt w violino primo	!
2r	.	.	2r	.	2r	.	.	.	.	.	2ryy	.	2ryy	.	2ryy	.
=106	=106	=106	=106	=106	=106	=106	=106	=106	=106	=106	=106	=106	=106	=106	=106	=106
!	!	!	!	!	!	!	!	!	!	!	!	!	!LO:N:vis=00	!	!LO:N:vis=0	!
8D\L	#	.	(16f#X/LL	.	(16a\LL	.	.	.	.	.	2ddt\	-tu-	0r	.	1r	.
.	.	.	16a/J)	p	16cc\J	.	.	.	.	.	.	.	.	.	.	.
8G\	-	.	8g/J	.	8b-\J)	p	.	.	.	.	.	.	.	.	.	.
8D\	#	p	(16f#/LL	.	(16a\LL	.	.	.	.	.	.	.	.	.	.	.
.	.	.	16a/J)	.	16cc\J	.	.	.	.	.	.	.	.	.	.	.
8G\J	-	.	8g/J	.	8b-\J)	.	.	.	.	.	.	.	.	.	.	.
=107	=107	=107	=107	=107	=107	=107	=107	=107	=107	=107	=107	=107	=107	=107	=107	=107
8D\	#	.	8f#X/	.	8a\	.	.	.	.	.	16dd\LL	.	.	.	.	.
.	.	.	.	.	.	.	.	.	.	.	16ff#X\	.	.	.	.	.
8r	.	.	8r	.	8r	.	.	.	.	.	16aa\	.	.	.	.	.
.	.	.	.	.	.	.	.	.	.	.	16gg\JJ	.	.	.	.	.
8D\	#	.	8r	.	8r	.	.	.	.	.	16ff#\LL	.	.	.	.	.
.	.	.	.	.	.	.	.	.	.	.	16ee-X\	.	.	.	.	.
8r	.	.	8f#/	.	8a\	.	.	.	.	.	16dd\	.	.	.	.	.
.	.	.	.	.	.	.	.	.	.	.	16cc\JJ	.	.	.	.	.
!	!	!	!	!	!	!	!	!	!	!	!LO:LB:g=original	!	!	!	!	!
=108	=108	=108	=108	=108	=108	=108	=108	=108	=108	=108	=108	=108	=108	=108	=108	=108
!LO:SIC:o:s=:v:nadprogramowy takt w Canto Secondo	!	!	!LO:SIC:o:s=:v:nadprogramowy takt w Canto Secondo	!	!LO:SIC:o:s=:v:nadprogramowy takt w Canto Secondo	!	!LO:SIC:o:s=:v:nadprogramowy takt w Canto Secondo	!	!	!	!LO:SIC:o:s=:v:nadprogramowy takt w Canto Secondo	!	!LO:SIC:o:s=:v:nadprogramowy takt w Canto Secondo	!	!LO:SIC:o:s=:v:nadprogramowy takt w Canto Secondo	!
2ryy	.	.	2ryy	.	2ryy	.	2ryy	.	2ryy	.	2ryy	.	.	.	2ryy	.
=109	=109	=109	=109	=109	=109	=109	=109	=109	=109	=109	=109	=109	=109	=109	=109	=109
4G\	.	.	8r	.	8r	.	2ryy	.	4r	.	8b-X\	.	.	.	2r	.
.	.	.	16.gg\LL	.	16.gg\LL	.	.	.	.	.	8g\	-rum	.	.	.	.
.	.	.	32dd\JJk	.	32dd\JJk	.	.	.	.	.	.	.	.	.	.	.
4r	.	.	8b-/L	.	8b-/L	.	.	.	8r	.	8r	.	.	.	.	.
.	.	.	8g/J	.	8g/J	.	.	.	8g\	fu-	8b-\	fu-	.	.	.	.
!	!	!	!	!	!	!	!	!	!LO:LB:g=original	!	!	!	!	!	!	!
=110	=110	=110	=110	=110	=110	=110	=110	=110	=110	=110	=110	=110	=110	=110	=110	=110
!	!	!	!	!	!	!	!	!	!	!	!	!	!LO:SIC:o=:v:problem:nadliczbowe takty	!	!LO:TX:t=P:problem:nadliczbowe takty	!
2ryy	.	.	2ryy	.	2ryy	.	2ryy	.	2ryy	.	2ryy	.	2ryy	.	2r	.
=111	=111	=111	=111	=111	=111	=111	=111	=111	=111	=111	=111	=111	=111	=111	=111	=111
2ryy	.	.	2ryy	.	2ryy	.	2ryy	.	2ryy	.	2ryy	.	2r	.	2r	.
=112	=112	=112	=112	=112	=112	=112	=112	=112	=112	=112	=112	=112	=112	=112	=112	=112
*2\right	*	*	*	*	*	*	*	*	*	*	*	*	*	*	*	*
!LO:TX:i:a:t=Senza	!	!	!	!	!	!	!	!	!	!	!	!	!	!	!	!
!	!	!	!	!	!	!	!LO:N:vis=00	!	!	!	!	!	!	!	!	!
2D\	.	p	8f#X/	.	8a/	.	0r	.	8f#X/L	-tu-	8a\L	-tu-	8r	.	8r	.
.	.	.	8r	.	8r	.	.	.	16g/L	.	16b-\L	.	8ff#X\L	p	8aa\L	p
.	.	.	.	.	.	.	.	.	16f#/JJ	.	16a\JJ	.	.	.	.	.
.	.	.	8f#/	.	8a/	.	.	.	8f#/L	.	8a\L	.	8ff#\J	.	8aa\J	.
.	.	.	8r	.	8r	.	.	.	16g/L	.	16b-\L	.	8r	.	8r	.
.	.	.	.	.	.	.	.	.	16f#/JJ	.	16a\JJ	.	.	.	.	.
!	!	!	!LO:PB:g=original	!	!LO:LB:g=original	!	!	!	!	!	!	!	!	!	!	!
=113	=113	=113	=113	=113	=113	=113	=113	=113	=113	=113	=113	=113	=113	=113	=113	=113
.	.	.	.	.	.	.	.	.	.	.	8qqa/	.	.	.	.	.
8r	.	.	8f#X/	.	8a/	.	.	.	4.f#X/	.	4.dd\	.	2r	.	2r	.
!LO:TX:a:t=|:problem	!	!	!	!	!	!	!	!	!	!	!	!	!	!	!	!
16.d\LL	.	.	8r	.	8r	.	.	.	.	.	.	.	.	.	.	.
!LO:TX:a:t=|:problem	!	!	!	!	!	!	!	!	!	!	!	!	!	!	!	!
32A\JJk	.	.	.	.	.	.	.	.	.	.	.	.	.	.	.	.
!LO:TX:a:t=|:problem	!	!	!	!	!	!	!	!	!	!	!	!	!	!	!	!
8F#X\L	.	.	8f#/	.	8a/	.	.	.	.	.	.	.	.	.	.	.
!LO:TX:a:t=|:problem	!	!	!	!	!	!	!	!	!	!	!	!	!	!	!	!
8D\J	.	.	8r	.	8r	.	.	.	8a\	.	8cc\	.	.	.	.	.
!LO:LB:g=original	!	!	!	!	!	!	!	!	!	!	!	!	!	!	!	!
=114	=114	=114	=114	=114	=114	=114	=114	=114	=114	=114	=114	=114	=114	=114	=114	=114
2D\	.	.	8g/	.	8b-/	.	.	.	8g\L	.	8b-\L	.	8r	.	8r	.
.	.	.	8r	.	8r	.	.	.	16a\L	.	16cc\L	.	8gg\L	.	8bb-\L	.
.	.	.	.	.	.	.	.	.	16g\JJ	.	16b-\JJ	.	.	.	.	.
.	.	.	8g/	.	8b-/	.	.	.	8g\L	.	8b-\L	.	8gg\J	.	8bb-\J	.
.	.	.	8r	.	8r	.	.	.	16a\L	.	16cc\L	.	8r	.	8r	.
.	.	.	.	.	.	.	.	.	16g\JJ	.	16b-\JJ	.	.	.	.	.
!	!	!	!	!	!	!	!	!	!	!	!	!	!LO:LB:g=original	!	!	!
=115	=115	=115	=115	=115	=115	=115	=115	=115	=115	=115	=115	=115	=115	=115	=115	=115
.	.	.	.	.	.	.	.	.	8qqg/	.	8qqb-/	.	.	.	.	.
8r	.	.	8g/	.	8b-/	.	.	.	4.b-\	.	4.dd\	.	2r	.	2r	.
!LO:TX:a:t=|:problem	!	!	!	!	!	!	!	!	!	!	!	!	!	!	!	!
16.d\LL	.	.	8r	.	8r	.	.	.	.	.	.	.	.	.	.	.
!LO:TX:a:t=|:problem	!	!	!	!	!	!	!	!	!	!	!	!	!	!	!	!
32B-\JJk	.	.	.	.	.	.	.	.	.	.	.	.	.	.	.	.
!LO:TX:a:t=|:problem	!	!	!	!	!	!	!	!	!	!	!	!	!	!	!	!
8G\L	.	.	8g/	.	8b-/	.	.	.	.	.	.	.	.	.	.	.
!LO:TX:a:t=|:problem	!	!	!	!	!	!	!	!	!	!	!	!	!	!	!	!
8D\J	.	.	8r	.	8r	.	.	.	8g\	.	8b-\	.	.	.	.	.
!LO:LB:g=original	!	!	!	!	!	!	!	!	!	!	!LO:LB:g=original	!	!	!	!	!
=116	=116	=116	=116	=116	=116	=116	=116	=116	=116	=116	=116	=116	=116	=116	=116	=116
!	!	!	!	!	!	!	!	!	!	!	!	!	!	!	!LO:TX:t=P:problem:brak taktu	!
!	!	!	!	!	!	!	!LO:N:vis=00	!	!	!	!	!	!	!	!	!
2D\	.	.	8f#X/	.	8a/	.	0r	.	8f#X/L	.	8a\L	.	2ryy	.	2ryy	.
.	.	.	8r	.	8r	.	.	.	16g/L	.	16b-\L	.	.	.	.	.
.	.	.	.	.	.	.	.	.	16f#/JJ	.	16a\JJ	.	.	.	.	.
.	.	.	8f#/	.	8a/	.	.	.	8f#/L	.	8a\L	.	.	.	.	.
.	.	.	8r	.	8r	.	.	.	16g/L	.	16b-\L	.	.	.	.	.
.	.	.	.	.	.	.	.	.	16f#/JJ	.	16a\JJ	.	.	.	.	.
!	!	!	!	!	!	!	!	!	!LO:PB:g=original	!	!	!	!	!	!	!
=117	=117	=117	=117	=117	=117	=117	=117	=117	=117	=117	=117	=117	=117	=117	=117	=117
!	!	!	!LO:SIC:s=8f#	!	!	!	!	!	!	!	!	!	!	!	!	!
.	.	.	.	.	.	.	.	.	.	.	8qqa/	.	.	.	.	.
8r	.	.	8f/	.	8a/	.	.	.	4.f#X\	.	4.dd\	.	8r	.	8r	.
!LO:TX:a:t=|:problem	!	!	!	!	!	!	!	!	!	!	!	!	!	!	!	!
16.d\LL	.	.	8r	.	8r	.	.	.	.	.	.	.	8ff#X\L	.	8aa\L	.
!LO:TX:a:t=|:problem	!	!	!	!	!	!	!	!	!	!	!	!	!	!	!	!
32A\JJk	.	.	.	.	.	.	.	.	.	.	.	.	.	.	.	.
!LO:TX:a:t=|:problem	!	!	!LO:SIC:s=8f#	!	!	!	!	!	!	!	!	!	!	!	!	!
8F#X\L	.	.	8f/	.	8a/	.	.	.	.	.	.	.	8ff#\J	.	8aa\J	.
!LO:TX:a:t=|:problem	!	!	!	!	!	!	!	!	!	!	!	!	!	!	!	!
8D\J	.	.	8r	.	8r	.	.	.	8a\	.	8cc\	.	8r	.	8r	.
=118	=118	=118	=118	=118	=118	=118	=118	=118	=118	=118	=118	=118	=118	=118	=118	=118
!LO:TX:i:b:t=Organo	!	!	!	!	!	!	!	!	!	!	!	!	!	!	!	!
8G\L	3	.	8g/L	.	(8b-\L	.	.	.	8g\L	.	8b-\L	.	8gg\	.	8bb-\	.
8F#X\J	5	.	(16a/L	.	16cc\L	.	.	.	16a\L	.	16cc\L	.	8r	.	8r	.
.	.	.	16g/JJ)	.	16b-\JJ)	.	.	.	16g\JJ	.	16b-\JJ	.	.	.	.	.
8G\L	3	.	8g/L	.	(8b-\L	.	.	.	8g\L	.	8b-\L	.	8gg\	.	8bb-\	.
8F#\J	5	.	(16a/L	.	16cc\L	.	.	.	16a\L	.	16cc\L	.	8r	.	8r	.
.	.	.	16g/JJ)	.	16b-\JJ)	.	.	.	16g\JJ	.	16b-\JJ	.	.	.	.	.
=119	=119	=119	=119	=119	=119	=119	=119	=119	=119	=119	=119	=119	=119	=119	=119	=119
8G\L	3	.	(8g/L	.	(8b-\L	.	.	.	8g\L	.	8b-\L	.	8gg\	.	8bb-\	.
8F#X\J	5	.	16a/L	.	16cc\L	.	.	.	16a\L	.	16cc\L	.	8r	.	8r	.
.	.	.	16g/JJ)	.	16b-\JJ)	.	.	.	16g\JJ	.	16b-\JJ	.	.	.	.	.
!	!	!	!LO:LB:g=original	!	!	!	!	!	!	!	!	!	!	!	!	!
8G\L	3	.	(8g/L	.	(8b-\L	.	.	.	8g\L	.	8b-\L	.	8gg\	.	8bb-\	.
8F#\J	5	.	16a/L	.	16cc\L	.	.	.	16a\L	.	16cc\L	.	8r	.	8r	.
.	.	.	16g/JJ)	.	16b-\JJ)	.	.	.	16g\JJ	.	16b-\JJ	.	.	.	.	.
!LO:LB:g=original	!	!	!	!	!	!	!	!	!	!	!	!	!	!	!LO:LB:g=original	!
=120	=120	=120	=120	=120	=120	=120	=120	=120	=120	=120	=120	=120	=120	=120	=120	=120
!LO:TX:t=P:problem:mixed beam	!	!	!	!	!	!	!	!	!	!	!	!	!	!	!	!
!	!	!	!	!	!	!	!LO:N:vis=00	!	!	!	!	!	!	!	!	!
8G\L	.	.	8g/	.	8b-\	.	0r	.	24g\LL	.	24b-\LL	.	2r	.	2r	.
.	.	.	.	.	.	.	.	.	24a\	.	24cc\	.	.	.	.	.
.	.	.	.	.	.	.	.	.	24b-\JJ	.	24dd\JJ	.	.	.	.	.
8c\	.	.	8r	.	8r	.	.	.	24cc\LL	.	24ee-\LL	.	.	.	.	.
.	.	.	.	.	.	.	.	.	24b-\	.	24dd\	.	.	.	.	.
.	.	.	.	.	.	.	.	.	24a\JJ	.	24cc\JJ	.	.	.	.	.
8d\	6 4	.	8g/L	.	8b-\L	.	.	.	8g\L	.	8b-\L	.	.	.	.	.
8D/J	5 #	.	8f#X/J	.	8a\J	.	.	.	8f#X\J	.	8a\J	.	.	.	.	.
!	!	!	!	!	!LO:LB:g=original	!	!	!	!	!	!LO:PB:g=original	!	!	!	!	!
=121	=121	=121	=121	=121	=121	=121	=121	=121	=121	=121	=121	=121	=121	=121	=121	=121
8GG/	.	.	16r	.	16r	.	.	.	8g\	-rum.	8g\	-rum	[2gg\	f	16r	.
!	!	!	!LO:TX:a:t=|:problem	!	!LO:TX:a:t=|:problem	!	!	!	!	!	!	!	!	!	!LO:TX:i:a:t=	!
.	.	.	16gg\LL	f	16gg\LL	f	.	.	.	.	.	.	.	.	16ggg`\LL	.
8r	.	.	(16cc#X\	.	(16cc#X\	.	.	.	8r	.	8r	.	.	.	(16ccc#X\	f
.	.	.	16dd\JJ)	.	16dd\JJ)	.	.	.	.	.	.	.	.	.	16ddd\JJ)	.
4r	.	.	(16a/LL	.	(16a/LL	.	.	.	4r	.	4r	.	.	.	(16aa\LL	.
.	.	.	16b-/)	.	16b-/)	.	.	.	.	.	.	.	.	.	16bb-\)	.
.	.	.	(16f#X/	.	(16f#X/	.	.	.	.	.	.	.	.	.	(16ff#X\	.
.	.	.	16g/JJ)	.	16g/JJ)	.	.	.	.	.	.	.	.	.	16gg\JJ)	.
!	!	!	!	!	!	!	!	!	!LO:LB:g=original	!	!	!	!	!	!	!
=122	=122	=122	=122	=122	=122	=122	=122	=122	=122	=122	=122	=122	=122	=122	=122	=122
8D/L	.	f	(16c#X/LL	.	(16c#X/LL	.	.	.	4r	.	4r	.	4gg\_	.	(16cc#X\LL	.
.	.	.	16d/)	.	16d/)	.	.	.	.	.	.	.	.	.	16dd\	.
8BB-/	.	.	(16A/	.	(16A/	.	.	.	.	.	.	.	.	.	16a\	.
.	.	.	16B-/JJ)	.	16B-/JJ)	.	.	.	.	.	.	.	.	.	16b-\JJ)	.
8GG/J	.	.	8G'/	.	8G/	.	.	.	8r	.	8r	.	8gg\]	.	8g/	.
8r	.	.	8r	.	8r	.	.	.	8g/	fu-	8b-\	fu-	8r	.	8r	.
=123	=123	=123	=123	=123	=123	=123	=123	=123	=123	=123	=123	=123	=123	=123	=123	=123
!LO:TX:i:b:t=Senza Org&colon;	!	!	!	!	!	!	!	!	!	!	!	!	!	!	!	!
2D\	.	.	8f#X/	p	8a/	p	.	.	8f#X/L	-tu-	8a\L	-tu-	2r	.	2r	.
.	.	.	8r	.	8r	.	.	.	16g/L	.	16b-\L	.	.	.	.	.
.	.	.	.	.	.	.	.	.	16f#/JJ	.	16a\JJ	.	.	.	.	.
.	.	.	8f#/	.	8a/	.	.	.	8f#/L	.	8a\L	.	.	.	.	.
.	.	.	8r	.	8r	.	.	.	16g/L	.	16b-\L	.	.	.	.	.
.	.	.	.	.	.	.	.	.	16f#/JJ	.	16a\JJ	.	.	.	.	.
=124	=124	=124	=124	=124	=124	=124	=124	=124	=124	=124	=124	=124	=124	=124	=124	=124
!	!	!	!LO:SIC:s=8f#	!	!	!	!	!	!	!	!	!	!	!	!	!
.	.	.	.	.	.	.	.	.	.	.	8qqa/	.	.	.	.	.
!	!	!	!	!	!	!	!LO:N:vis=00	!	!	!	!	!	!	!	!	!
8r	.	.	8f/	.	8a/	.	0r	.	4.f#X/	.	4.dd\	.	8r	.	8r	.
!LO:TX:a:t=|:problem	!	!	!	!	!	!	!	!	!	!	!	!	!	!	!	!
16.d\LL	.	.	8r	.	8r	.	.	.	.	.	.	.	8ff#X\L	p	8aa\L	p
!LO:TX:a:t=|:problem	!	!	!	!	!	!	!	!	!	!	!	!	!	!	!	!
32A\JJk	.	p	.	.	.	.	.	.	.	.	.	.	.	.	.	.
!LO:TX:a:t=|:problem	!	!	!LO:SIC:s=8f#	!	!	!	!	!	!	!	!	!	!	!	!	!
8F#X\L	.	.	8f/	.	8a/	.	.	.	.	.	.	.	8ff#\J	.	8aa\J	.
!LO:TX:a:t=|:problem	!	!	!	!	!	!	!	!	!	!	!	!	!	!	!	!
8D\J	.	.	8r	.	8r	.	.	.	8a\	.	8cc\	.	8r	.	8r	.
!	!	!	!	!	!	!	!	!	!	!	!	!	!LO:LB:g=original	!	!	!
=125	=125	=125	=125	=125	=125	=125	=125	=125	=125	=125	=125	=125	=125	=125	=125	=125
2D\	.	.	8g/	.	8b-/	.	.	.	8g\L	.	8b-\L	.	2r	.	2r	.
.	.	.	8r	.	8r	.	.	.	16a\L	.	16cc\L	.	.	.	.	.
.	.	.	.	.	.	.	.	.	16g\JJ	.	16b-\JJ	.	.	.	.	.
.	.	.	8g/	.	8b-/	.	.	.	8g\L	.	8b-\L	.	.	.	.	.
.	.	.	8r	.	8r	.	.	.	16a\L	.	16cc\L	.	.	.	.	.
.	.	.	.	.	.	.	.	.	16g\JJ	.	16b-\JJ	.	.	.	.	.
!	!	!	!LO:LB:g=original	!	!	!	!	!	!	!	!	!	!	!	!	!
=126	=126	=126	=126	=126	=126	=126	=126	=126	=126	=126	=126	=126	=126	=126	=126	=126
!!pagebreak:original
.	.	.	.	.	.	.	.	.	8qqg/	.	8qqb-/	.	.	.	.	.
8r	.	.	8g/	.	8b-/	.	.	.	4.b-\	.	4.dd\	.	8r	.	8r	.
!LO:TX:a:t=|:problem	!	!	!	!	!	!	!	!	!	!	!	!	!	!	!	!
16.d\LL	.	.	8r	.	8r	.	.	.	.	.	.	.	8gg\L	.	8bb-\L	.
!LO:TX:a:t=|:problem	!	!	!	!	!	!	!	!	!	!	!	!	!	!	!	!
32B-\JJk	.	.	.	.	.	.	.	.	.	.	.	.	.	.	.	.
!LO:TX:a:t=|:problem	!	!	!	!	!	!	!	!	!	!	!	!	!	!	!	!
8G\L	.	.	8g/	.	8b-/	.	.	.	.	.	.	.	8gg\J	.	8bb-\J	.
!LO:TX:a:t=|:problem	!	!	!	!	!	!	!	!	!	!	!	!	!	!	!	!
8D\J	.	.	8r	.	8r	.	.	.	8g\	.	8b-\	.	8r	.	8r	.
!LO:LB:g=original	!	!	!	!	!	!	!	!	!	!	!LO:LB:g=original	!	!	!	!LO:LB:g=original	!
=127	=127	=127	=127	=127	=127	=127	=127	=127	=127	=127	=127	=127	=127	=127	=127	=127
2D\	.	.	8f#X/	.	8a/	.	.	.	8f#X\L	.	8a\L	.	2r	.	2r	.
.	.	.	8r	.	8r	.	.	.	16g\L	.	16b-\L	.	.	.	.	.
.	.	.	.	.	.	.	.	.	16f#\JJ	.	16a\JJ	.	.	.	.	.
.	.	.	8f#/	.	8a/	.	.	.	8f#\L	.	8a\L	.	.	.	.	.
.	.	.	8r	.	8r	.	.	.	16g\L	.	16b-\L	.	.	.	.	.
.	.	.	.	.	.	.	.	.	16f#\JJ	.	16a\JJ	.	.	.	.	.
!	!	!	!	!	!LO:LB:g=original	!	!	!	!LO:LB:g=original	!	!	!	!	!	!	!
=128	=128	=128	=128	=128	=128	=128	=128	=128	=128	=128	=128	=128	=128	=128	=128	=128
!	!	!	!LO:SIC:s=8f#	!	!	!	!	!	!	!	!	!	!	!	!	!
.	.	.	.	.	.	.	.	.	.	.	8qqa/	.	.	.	.	.
!	!	!	!	!	!	!	!LO:N:vis=00	!	!	!	!	!	!	!	!	!
8r	.	.	8f/	.	8a/	.	0r	.	4.f#X/	-rum	4.dd\	.	8r	.	8r	.
!LO:TX:a:t=|:problem	!	!	!	!	!	!	!	!	!	!	!	!	!	!	!	!
16.d\LL	.	.	8r	.	8r	.	.	.	.	.	.	.	8ff#X\L	.	8aa\L	.
!LO:TX:a:t=|:problem	!	!	!	!	!	!	!	!	!	!	!	!	!	!	!	!
32A\JJk	.	.	.	.	.	.	.	.	.	.	.	.	.	.	.	.
!LO:TX:a:t=|:problem	!	!	!LO:SIC:s=8f#	!	!	!	!	!	!	!	!	!	!	!	!	!
8F#X\L	.	.	8f/	.	8a/	.	.	.	.	.	.	.	8ff#\J	.	8aa\J	.
!LO:TX:a:t=|:problem	!	!	!	!	!	!	!	!	!	!	!	!	!	!	!	!
8D\J	.	.	8r	.	8r	.	.	.	8a\	fu-	8cc\	.	8r	.	8r	.
=129	=129	=129	=129	=129	=129	=129	=129	=129	=129	=129	=129	=129	=129	=129	=129	=129
!LO:TX:i:b:t=Organo	!	!	!	!	!	!	!	!	!	!	!	!	!	!	!	!
8G\L	3	.	(8g/L	.	(8b-\L	.	.	.	8g\L	-tu-	8b-\L	.	8gg\	.	8bb-\	.
8F#X\J	5	.	16a/L	.	16cc\L	.	.	.	16a\L	.	16cc\L	.	8r	.	8r	.
.	.	.	16g/JJ)	.	16b-\JJ)	.	.	.	16g\JJ	.	16b-\JJ	.	.	.	.	.
8G\L	3	.	(8g/L	.	(8b-\L	.	.	.	8g\L	.	8b-\L	.	8gg\	.	8bb-\	.
8F#\J	5	.	16a/L	.	16cc\L	.	.	.	16a\L	.	16cc\L	.	8r	.	8r	.
.	.	.	16g/JJ)	.	16b-\JJ)	.	.	.	16g\JJ	.	16b-\JJ	.	.	.	.	.
=130	=130	=130	=130	=130	=130	=130	=130	=130	=130	=130	=130	=130	=130	=130	=130	=130
8G\L	3	.	(8g/L	.	(8b-\L	.	.	.	8g\L	.	8b-\L	.	8gg\	.	8bb-\	.
8F#X\J	5	p	16a/L	.	16cc\L	.	.	.	16a\L	.	16cc\L	.	8r	.	8r	.
.	.	.	16g/JJ)	.	16b-\JJ)	.	.	.	16g\JJ	.	16b-\JJ	.	.	.	.	.
8G\L	3	.	(8g/L	.	(8b-\L	.	.	.	8g\L	.	8b-\L	.	8gg\	.	8bb-\	.
8F#\J	5	.	16a/L	.	16cc\L	.	.	.	16a\L	.	16cc\L	.	8r	.	8r	.
.	.	.	16g/JJ)	.	16b-\JJ)	.	.	.	16g\JJ	.	16b-\JJ	.	.	.	.	.
=131	=131	=131	=131	=131	=131	=131	=131	=131	=131	=131	=131	=131	=131	=131	=131	=131
!LO:TX:t=P:problem:mixed beam	!	!	!	!	!	!	!	!	!	!	!	!	!	!	!	!
8G\L	.	.	8g/	.	8b-\	.	.	.	8g\L	.	16b-\LL	.	8gg\	.	8bb-\	.
.	.	.	.	.	.	.	.	.	.	.	16gg\	.	.	.	.	.
8c\	.	.	8r	.	8r	.	.	.	16cc\L	.	16ee-\	.	8r	.	8r	.
.	.	.	.	.	.	.	.	.	16a\JJ	.	16cc\JJ	.	.	.	.	.
8d\	6 4	.	8g/L	.	8b-/L	.	.	.	8g/L	.	8b-\L	.	4r	.	4r	.
8D\J	5 #	.	8f#X/J	.	8a/J	.	.	.	8f#X/J	.	8a\J	.	.	.	.	.
!	!	!	!	!	!	!	!	!	!	!	!LO:LB:g=original	!	!	!	!	!
=132	=132	=132	=132	=132	=132	=132	=132	=132	=132	=132	=132	=132	=132	=132	=132	=132
!	!	!	!	!	!	!	!LO:TX:t=P:problem:nadliczbowy takt pusty	!	!	!	!	!	!	!	!	!
2ryy	.	.	2ryy	.	2ryy	.	2r	.	2ryy	.	2ryy	.	2ryy	.	2ryy	.
=133	=133	=133	=133	=133	=133	=133	=133	=133	=133	=133	=133	=133	=133	=133	=133	=133
!LO:TX:a:t=|:problem	!	!	!	!	!	!	!	!	!	!	!	!LO:N:vis=0	!	!	!LO:N:vis=0	!
16.G\LL	.	.	16.g/LL	.	16.g/LL	.	8G\	mox	8g\	-rum.	8g\	-rum	1r	.	1r	.
!LO:TX:a:t=|:problem	!	!	!	!	!	!	!	!	!	!	!	!	!	!	!	!
32D\K	.	.	32d/K	.	32d/K	.	.	.	.	.	.	.	.	.	.	.
!LO:TX:a:t=|:problem	!	!	!	!	!	!	!	!	!	!	!	!	!	!	!	!
*	*	*	*	*	*	*	*	*ij	*	*	*	*	*	*	*	*
16.E-X\	.	.	16.e-/	.	16.e-X/	.	16.E-\	mox	8r	.	8r	.	.	.	.	.
*	*	*	*	*	*	*	*	*Xij	*	*	*	*	*	*	*	*
!LO:TX:a:t=|:problem	!	!	!	!	!	!	!	!	!	!	!	!	!	!	!	!
32C\JJk	.	.	32c/JJk	.	32c/JJk	.	32C/	fu-	.	.	.	.	.	.	.	.
!LO:TX:a:t=|:problem	!	!	!	!	!	!	!	!	!	!	!	!	!	!	!	!
8D\L	.	.	8d/L	.	8d/L	.	4D/	-tu-	4r	.	4r	.	.	.	.	.
!LO:TX:a:t=|:problem	!	!	!	!	!	!	!	!	!	!	!	!	!	!	!	!
8D\J	.	.	8d/J	.	8d/J	.	.	.	.	.	.	.	.	.	.	.
!LO:PB:g=original	!	!	!LO:LB:g=original	!	!	!	!	!	!LO:LB:g=original	!	!	!	!	!	!	!
=134	=134	=134	=134	=134	=134	=134	=134	=134	=134	=134	=134	=134	=134	=134	=134	=134
!	!	!	!LO:TX:t=P:problem:mixed beam	!	!LO:TX:t=P:problem:mixed beam	!	!	!	!	!	!	!	!	!	!	!
!	!	!	!LO:TX:i:a:t=Tutti	!	!LO:TX:i:a:t=Tutti	!	!	!	!	!	!	!	!	!	!	!
!	!	!	!	!	!	!	!	!	!LO:N:vis=0	!	!LO:N:vis=0	!	!	!	!	!
8GG/	.	.	16G/LL	f	16G/LL	.	4GG/	-rum.	1r	.	1r	.	.	.	.	.
.	.	.	16gg\	.	16gg\	f	.	.	.	.	.	.	.	.	.	.
8r	.	.	16ee-\	.	(16ee-\	.	.	.	.	.	.	.	.	.	.	.
.	.	.	16cc#X\JJ	.	16cc#X\JJ)	.	.	.	.	.	.	.	.	.	.	.
4r	.	.	16dd\LL	.	(16dd\LL	.	4r	.	.	.	.	.	.	.	.	.
.	.	.	16ccn\	.	16ccn\)	.	.	.	.	.	.	.	.	.	.	.
.	.	.	16a\	.	(16a\	.	.	.	.	.	.	.	.	.	.	.
.	.	.	16cc\JJ	.	16cc\JJ)	.	.	.	.	.	.	.	.	.	.	.
!	!	!	!	!	!LO:LB:g=original	!	!	!	!	!	!	!	!	!	!	!
=135	=135	=135	=135	=135	=135	=135	=135	=135	=135	=135	=135	=135	=135	=135	=135	=135
!	!	!	!	!	!	!	!LO:N:vis=00	!	!	!	!	!	!	!	!	!
2r	.	.	16b-/LL	.	(16b-/LL	.	0r	.	.	.	.	.	2r	.	2r	.
.	.	.	16g/	.	16g/	.	.	.	.	.	.	.	.	.	.	.
.	.	.	16f#X/	.	16f#X/	.	.	.	.	.	.	.	.	.	.	.
.	.	.	16a/JJ	.	16a/JJ)	.	.	.	.	.	.	.	.	.	.	.
.	.	.	16g/LL	.	16g/LL	.	.	.	.	.	.	.	.	.	.	.
.	.	.	16e-/	.	16e-/	.	.	.	.	.	.	.	.	.	.	.
.	.	.	16c#X/	.	16c#X/	.	.	.	.	.	.	.	.	.	.	.
.	.	.	16d/JJ	.	16d/JJ	.	.	.	.	.	.	.	.	.	.	.
=136	=136	=136	=136	=136	=136	=136	=136	=136	=136	=136	=136	=136	=136	=136	=136	=136
!LO:TX:t=P:problem:mixed beam	!	!	!	!	!	!	!	!	!	!	!	!	!	!	!	!
!LO:TX:i:a:t=Tutti	!	!	!LO:TX:t=P:problem:mixed beam	!	!LO:TX:t=P:problem:mixed beam	!	!	!	!	!	!	!	!	!	!	!
32GG/LLL	.	f	16d/KL	.	16d/KL	.	.	.	4g\	mox	4b-\	mox	8gg\	f	8bb-\	.
32G\	.	.	.	.	.	.	.	.	.	.	.	.	.	.	.	.
32F#X\	.	.	8b-\	.	8gg\	.	.	.	.	.	.	.	.	.	.	.
32G\JJJ	.	.	.	.	.	.	.	.	.	.	.	.	.	.	.	.
16E-\LL	.	.	.	.	.	.	.	.	.	.	.	.	4gg\	.	4bb-\	.
16G\JJ	.	.	8b-\	.	8gg\	.	.	.	.	.	.	.	.	.	.	.
32D\LLL	.	.	.	.	.	.	.	.	4g\	fu-	4b-\	fu-	.	.	.	.
32G\	.	.	.	.	.	.	.	.	.	.	.	.	.	.	.	.
32F#\	.	.	8b-\	.	8gg\	.	.	.	.	.	.	.	.	.	.	.
32G\JJJ	.	.	.	.	.	.	.	.	.	.	.	.	.	.	.	.
16C#X\LL	.	.	.	.	.	.	.	.	.	.	.	.	[8gg\	.	[8bb-\	.
16G\JJ	.	.	[>16b-\Jk	.	[>16gg\Jk	.	.	.	.	.	.	.	.	.	.	.
!	!	!	!	!	!	!	!	!	!	!	!	!	!LO:LB:g=original	!	!	!
=137	=137	=137	=137	=137	=137	=137	=137	=137	=137	=137	=137	=137	=137	=137	=137	=137
32D\LLL	.	.	16b-\KL]	.	16gg\KL]	.	.	.	2g\	-tu-	2b-\	-tu-	8gg\]	.	8bb-\]	.
32G\	.	.	.	.	.	.	.	.	.	.	.	.	.	.	.	.
32F#X\	.	.	8b-\	.	8gg\	.	.	.	.	.	.	.	.	.	.	.
32G\JJJ	.	.	.	.	.	.	.	.	.	.	.	.	.	.	.	.
16E-\LL	.	.	.	.	.	.	.	.	.	.	.	.	4gg\	.	4bb-\	.
16G\JJ	.	.	8b-\	.	8gg\	.	.	.	.	.	.	.	.	.	.	.
32D\LLL	.	.	.	.	.	.	.	.	.	.	.	.	.	.	.	.
32G\	.	.	.	.	.	.	.	.	.	.	.	.	.	.	.	.
32F#\	.	.	8b-\	.	8gg\	.	.	.	.	.	.	.	.	.	.	.
32G\JJJ	.	.	.	.	.	.	.	.	.	.	.	.	.	.	.	.
16C#X\LL	.	.	.	.	.	.	.	.	.	.	.	.	8gg\	.	8bb-\	.
16G\JJ	.	.	16b-\Jk	.	16gg\Jk	.	.	.	.	.	.	.	.	.	.	.
!	!	!	!	!	!	!	!	!	!	!	!	!	!	!	!LO:LB:g=original	!
=138	=138	=138	=138	=138	=138	=138	=138	=138	=138	=138	=138	=138	=138	=138	=138	=138
!	!	!	!	!	!	!	!LO:TX:t=P:problem:nadliczbowy takt	!	!	!	!	!	!	!	!	!
2ryy	.	.	2ryy	.	2ryy	.	.	.	2ryy	.	2ryy	.	2ryy	.	2ryy	.
=139	=139	=139	=139	=139	=139	=139	=139	=139	=139	=139	=139	=139	=139	=139	=139	=139
4D;\	.	.	4a;\	.	4ff#X;\	.	2r;	.	4f#X;\	-rum.	4a;\	-rum	4ff#X;\	.	4aa;\	.
!	!	!	!	!	!LO:TX:i:b:t=Formada	!	!	!	!	!	!	!	!	!	!	!
4r	.	.	4r	.	4r	.	.	.	4r	.	4r	.	4r	.	4r	.
!LO:LB:g=original	!	!	!	!	!	!	!	!	!	!	!	!	!	!	!	!
=140	=140	=140	=140	=140	=140	=140	=140	=140	=140	=140	=140	=140	=140	=140	=140	=140
!LO:TX:i:b:t=Formada	!	!	!LO:TX:i:b:t=Formada	!	!	!	!LO:TX:i:a:t=33.	!	!	!	!	!	!	!	!LO:TX:rj:i:b:t=Formada	!
!LO:N:vis=00	!	!	!LO:N:vis=00	!	!LO:N:vis=00	!	!LO:N:vis=00	!	!LO:N:vis=0	!	!	!	!LO:N:vis=00	!	!LO:N:vis=00	!
0r	.	.	0r	.	0r	.	0r	.	1r	.	8g/	En	0r	.	0r	.
.	.	.	.	.	.	.	.	.	.	.	16g/	vi-	.	.	.	.
.	.	.	.	.	.	.	.	.	.	.	16g/	-des	.	.	.	.
.	.	.	.	.	.	.	.	.	.	.	8g/	vi-	.	.	.	.
.	.	.	.	.	.	.	.	.	.	.	8a/	-des	.	.	.	.
!	!	!	!	!	!	!	!	!	!	!	!LO:LB:g=original	!	!	!	!	!
=141	=141	=141	=141	=141	=141	=141	=141	=141	=141	=141	=141	=141	=141	=141	=141	=141
.	.	.	.	.	.	.	.	.	.	.	8.b-\	ho-	.	.	.	.
.	.	.	.	.	.	.	.	.	.	.	16a\	-mi-	.	.	.	.
.	.	.	.	.	.	.	.	.	.	.	8g\	-nem.	.	.	.	.
.	.	.	.	.	.	.	.	.	.	.	8r	.	.	.	.	.
=142	=142	=142	=142	=142	=142	=142	=142	=142	=142	=142	=142	=142	=142	=142	=142	=142
.	.	.	.	.	.	.	.	.	8g/	En	8b-\	En	.	.	.	.
.	.	.	.	.	.	.	.	.	16g/	vi-	16b-\	vi-	.	.	.	.
.	.	.	.	.	.	.	.	.	16g/	-des	16b-\	-des	.	.	.	.
.	.	.	.	.	.	.	.	.	8g/	vi-	8b-\	vi-	.	.	.	.
.	.	.	.	.	.	.	.	.	8a/	-des	8cc\	-des	.	.	.	.
!	!	!	!	!	!	!	!	!	!LO:LB:g=original	!	!	!	!	!	!	!
=143	=143	=143	=143	=143	=143	=143	=143	=143	=143	=143	=143	=143	=143	=143	=143	=143
.	.	.	.	.	.	.	.	.	8.b-\	ho-	8.dd\	ho-	.	.	.	.
.	.	.	.	.	.	.	.	.	16a\	-mi-	16cc\	-mi-	.	.	.	.
.	.	.	.	.	.	.	.	.	8g\	-nem,	8b-\	-nem	.	.	.	.
.	.	.	.	.	.	.	.	.	8r	.	8r	.	.	.	.	.
!	!	!	!	!	!	!	!	!	!	!	!LO:LB:g=original	!	!	!	!	!
=144	=144	=144	=144	=144	=144	=144	=144	=144	=144	=144	=144	=144	=144	=144	=144	=144
!LO:N:vis=00	!	!	!LO:N:vis=00	!	!LO:N:vis=00	!	!LO:N:vis=00	!	!	!	!	!	!LO:N:vis=00	!	!LO:N:vis=00	!
0r	.	.	0r	.	0r	.	0r	.	16b-\	pul-	16dd\	pul-	0r	.	0r	.
.	.	.	.	.	.	.	.	.	16b-\	-ve-	16dd\	-ve-	.	.	.	.
.	.	.	.	.	.	.	.	.	8b-\	-rem	8dd\	-rem	.	.	.	.
.	.	.	.	.	.	.	.	.	8b-\	mox	8dd\	mox	.	.	.	.
.	.	.	.	.	.	.	.	.	16g\LL	fu-	16b-\LL	fu-	.	.	.	.
.	.	.	.	.	.	.	.	.	16a\JJ	.	16cc\JJ	.	.	.	.	.
=145	=145	=145	=145	=145	=145	=145	=145	=145	=145	=145	=145	=145	=145	=145	=145	=145
.	.	.	.	.	.	.	.	.	8b-\L	-tu-	8dd\L	-tu-	.	.	.	.
.	.	.	.	.	.	.	.	.	16cc\L	.	16ee-\L	.	.	.	.	.
.	.	.	.	.	.	.	.	.	16b-\JJ	.	16dd\JJ	.	.	.	.	.
.	.	.	.	.	.	.	.	.	4b-\	-rum,	4dd\	-rum,	.	.	.	.
!	!	!	!	!	!	!	!	!	!LO:LB:g=original	!	!	!	!	!	!	!
=146	=146	=146	=146	=146	=146	=146	=146	=146	=146	=146	=146	=146	=146	=146	=146	=146
.	.	.	.	.	.	.	.	.	16a\	Pul-	16cc\	pul-	.	.	.	.
.	.	.	.	.	.	.	.	.	16a\	-ve-	16cc\	-ve-	.	.	.	.
.	.	.	.	.	.	.	.	.	8a\	-rem	8cc\	-rem	.	.	.	.
.	.	.	.	.	.	.	.	.	8a\	mox	8cc\	mox	.	.	.	.
.	.	.	.	.	.	.	.	.	16f#X/LL	fu-	16a\LL	fu-	.	.	.	.
.	.	.	.	.	.	.	.	.	16g/JJ	.	16b-\JJ	.	.	.	.	.
!	!	!	!	!	!	!	!	!	!	!	!LO:LB:g=original	!	!	!	!	!
=147	=147	=147	=147	=147	=147	=147	=147	=147	=147	=147	=147	=147	=147	=147	=147	=147
.	.	.	.	.	.	.	.	.	8a\L	-tu-	8cc\L	-tu-	.	.	.	.
.	.	.	.	.	.	.	.	.	16b-\L	.	16dd\L	.	.	.	.	.
.	.	.	.	.	.	.	.	.	16a\JJ	.	16cc\JJ	.	.	.	.	.
.	.	.	.	.	.	.	.	.	8a\	-rum	8cc\	-rum	.	.	.	.
.	.	.	.	.	.	.	.	.	8f#X/	fu-	8a\	fu-	.	.	.	.
=148	=148	=148	=148	=148	=148	=148	=148	=148	=148	=148	=148	=148	=148	=148	=148	=148
!LO:N:vis=00	!	!	!LO:N:vis=00	!	!LO:N:vis=00	!	!LO:N:vis=00	!	!	!	!	!	!LO:N:vis=00	!	!LO:N:vis=00	!
0r	.	.	0r	.	0r	.	0r	.	8g\L	-tu-	8b-\L	-tu-	0r	.	0r	.
.	.	.	.	.	.	.	.	.	8a\J	.	8cc\J	.	.	.	.	.
.	.	.	.	.	.	.	.	.	8b-\L	.	8dd\L	.	.	.	.	.
.	.	.	.	.	.	.	.	.	16a\L	.	16dd\L	.	.	.	.	.
.	.	.	.	.	.	.	.	.	16g\JJ	.	16cc\JJ	.	.	.	.	.
!	!	!	!	!	!	!	!	!	!LO:LB:g=original	!	!	!	!	!	!	!
=149	=149	=149	=149	=149	=149	=149	=149	=149	=149	=149	=149	=149	=149	=149	=149	=149
.	.	.	.	.	.	.	.	.	8f#X\L	.	8a\L	.	.	.	.	.
.	.	.	.	.	.	.	.	.	8g\J	.	8b-\J	.	.	.	.	.
.	.	.	.	.	.	.	.	.	8a\L	.	8cc\L	.	.	.	.	.
.	.	.	.	.	.	.	.	.	16g\L	.	16b-\L	.	.	.	.	.
.	.	.	.	.	.	.	.	.	16f#\JJ	.	16a\JJ	.	.	.	.	.
=150	=150	=150	=150	=150	=150	=150	=150	=150	=150	=150	=150	=150	=150	=150	=150	=150
.	.	.	.	.	.	.	.	.	16g\LL	.	16b-\LL	.	.	.	.	.
.	.	.	.	.	.	.	.	.	16f#X\	.	16a\	.	.	.	.	.
.	.	.	.	.	.	.	.	.	16g\	.	16b-\	.	.	.	.	.
.	.	.	.	.	.	.	.	.	16a\JJ	.	16cc\JJ	.	.	.	.	.
.	.	.	.	.	.	.	.	.	16b-\LL	.	16dd\LL	.	.	.	.	.
.	.	.	.	.	.	.	.	.	32cc\L	.	32ee-\L	.	.	.	.	.
.	.	.	.	.	.	.	.	.	32b-\JJJ	.	32dd\JJJ	.	.	.	.	.
.	.	.	.	.	.	.	.	.	16a\LL	.	16cc\LL	.	.	.	.	.
.	.	.	.	.	.	.	.	.	16g\JJ	.	16b-\JJ	.	.	.	.	.
!	!	!	!	!	!	!	!	!	!	!	!LO:LB:g=original	!	!	!	!	!
=151	=151	=151	=151	=151	=151	=151	=151	=151	=151	=151	=151	=151	=151	=151	=151	=151
.	.	.	.	.	.	.	.	.	16f#X/LL	.	16a\LL	.	.	.	.	.
.	.	.	.	.	.	.	.	.	16en/	.	16g\	.	.	.	.	.
.	.	.	.	.	.	.	.	.	16f#/	.	16a\	.	.	.	.	.
.	.	.	.	.	.	.	.	.	16g/JJ	.	16b-\JJ	.	.	.	.	.
.	.	.	.	.	.	.	.	.	16a\LL	.	16cc\LL	.	.	.	.	.
.	.	.	.	.	.	.	.	.	32b-\L	.	32dd\L	.	.	.	.	.
.	.	.	.	.	.	.	.	.	32a\JJJ	.	32cc\JJJ	.	.	.	.	.
.	.	.	.	.	.	.	.	.	16g\LL	.	16b-\LL	.	.	.	.	.
.	.	.	.	.	.	.	.	.	16f#\JJ	.	16a\JJ	.	.	.	.	.
=152	=152	=152	=152	=152	=152	=152	=152	=152	=152	=152	=152	=152	=152	=152	=152	=152
!	!	!	!	!	!	!	!LO:N:vis=00	!	!	!	!	!	!	!	!	!
2r	.	.	2r	.	2r	.	0r	.	8g\L	.	8b-\L	.	2r	.	2r	.
.	.	.	.	.	.	.	.	.	16a\L	.	16cc\L	.	.	.	.	.
.	.	.	.	.	.	.	.	.	16b-\JJ	.	16dd\JJ	.	.	.	.	.
.	.	.	.	.	.	.	.	.	8cc\L	.	8ee-\L	.	.	.	.	.
.	.	.	.	.	.	.	.	.	16b-\L	.	16dd\L	.	.	.	.	.
.	.	.	.	.	.	.	.	.	16a\JJ	.	16cc\JJ	.	.	.	.	.
!	!	!	!	!	!LO:TX:i:b:t=VS&colon;	!	!	!	!	!	!	!	!	!	!	!
!	!	!	!LO:LB:g=original	!	!LO:PB:g=original	!	!	!	!LO:LB:g=original	!	!	!	!	!	!	!
=153	=153	=153	=153	=153	=153	=153	=153	=153	=153	=153	=153	=153	=153	=153	=153	=153
*tremolo	*	*	*tremolo	*	*	*	*	*	*	*	*	*	*	*	*	*
*	*	*	*2\right	*	*	*	*	*	*	*	*	*	*tremolo	*	*	*
!	!	!	!	!LO:DY:t=pianiſs.	!	!	!	!	!	!	!	!	!	!	!	!
8d\L	6 4	p	8b-\L	pp	8gg\L	p	.	.	2g\	.	2b-\	.	8gg\L	p	8bb-\L	.
8d\	.	.	8b-\	.	8gg\	.	.	.	.	.	.	.	8gg\	.	8bb-\	.
!	!	!	!	!	!	!	!	!	!	!	!	!	!	!	!	!LO:DY:t=pianiſ
8d\	.	.	8b-\	.	8gg\	.	.	.	.	.	.	.	8gg\	.	8bb-\	pp
8d\J	.	.	8b-\J	.	8gg\J	.	.	.	.	.	.	.	8gg\J	.	8bb-\J	.
=154	=154	=154	=154	=154	=154	=154	=154	=154	=154	=154	=154	=154	=154	=154	=154	=154
*	*	*	*	*	*	*	*	*	*	*	*	*	*	*	*tremolo	*
!	!	!	!	!	!	!	!	!	!	!	!LO:TX:i:a:t=t	!	!	!	!	!
8D\L	5 #	.	8a\L	.	8ff#X\L	.	.	.	2f#Xt\	.	2a\	.	8ff#X\L	.	8aa\L	.
8D\	.	.	8a\	.	8ff#\	.	.	.	.	.	.	.	8ff#X\	.	8aa\	.
8D\	.	.	8a\	.	8ff#\	.	.	.	.	.	.	.	8ff#X\	.	8aa\	.
8D\J	.	.	8a\J	.	8ff#\J	.	.	.	.	.	.	.	8ff#X\J	.	8aa\J	.
*Xtremolo	*	*	*Xtremolo	*	*	*	*	*	*	*	*	*	*Xtremolo	*	*Xtremolo	*
=155	=155	=155	=155	=155	=155	=155	=155	=155	=155	=155	=155	=155	=155	=155	=155	=155
!	!	!	!LO:TX:t=P:problem:mixed beam	!	!LO:TX:i:a:t=Tutti	!	!	!	!	!	!	!	!	!	!LO:TX:i:a:t=Tutti	!
4GG/	.	f	8g/L	.	8gg\L	f	.	.	8g\	-rum.	8g\	-rum.	4gg\	.	4gg\	f
.	.	.	16.gg\L	.	16.gg\L	.	.	.	8r	.	8r	.	.	.	.	.
.	.	.	32dd\JJk	f	32dd\JJk	.	.	.	.	.	.	.	.	.	.	.
!LO:TX:i:a:t=Tutti	!	!	!LO:TX:i:a:t=Tutti	!	!	!	!	!	!	!	!	!	!LO:TX:i:a:t=Tutti	!	!	!
4r	.	.	8b-/L	.	8b-/L	.	.	.	4r	.	4r	.	4r	.	4r	.
.	.	.	8g/J	.	8g/J	.	.	.	.	.	.	.	.	.	.	.
=156	=156	=156	=156	=156	=156	=156	=156	=156	=156	=156	=156	=156	=156	=156	=156	=156
!	!	!	!	!	!	!	!LO:N:vis=00	!	!LO:N:vis=00	!	!LO:N:vis=00	!	!	!	!	!
8r	.	.	4f#X/	.	4dd\	.	0r	.	0r	.	0r	.	8r	.	8r	.
!LO:TX:a:t=|:problem	!	!	!	!	!	!	!	!	!	!	!	!	!	!	!	!
16.d\LL	.	.	.	.	.	.	.	.	.	.	.	.	16.ddd\LL	.	16.ddd\LL	.
!LO:TX:a:t=|:problem	!	!	!	!	!	!	!	!	!	!	!	!	!	!	!	!
32A\JJk	.	.	.	.	.	.	.	.	.	.	.	.	32aa\JJk	.	32aa\JJk	.
!LO:TX:a:t=|:problem	!	!	!	!	!	!	!	!	!	!	!	!	!	!	!	!
8F#X\L	.	.	4r	.	8r	.	.	.	.	.	.	.	8ff#X\L	.	8ff#X\L	.
!LO:TX:a:t=|:problem	!	!	!	!	!	!	!	!	!	!	!	!	!	!	!	!
8D\J	.	.	.	.	8dd\	.	.	.	.	.	.	.	8dd\J	.	8dd\J	.
!	!	!	!	!	!	!	!	!	!	!	!	!	!LO:N:vis=00	!	!	!
=157	=157	=157	=157	=157	=157	=157	=157	=157	=157	=157	=157	=157	=157	=157	=157	=157
!!pagebreak:original
4G\	.	.	8gg\L	.	8gg\L	.	.	.	.	.	.	.	4b-\	.	4gg\	.
.	.	.	16.gg\L	.	16.gg\L	.	.	.	.	.	.	.	.	.	.	.
.	.	.	32dd\JJk	.	32dd\JJk	.	.	.	.	.	.	.	.	.	.	.
4r	.	.	8b-/L	.	8b-/L	.	.	.	.	.	.	.	4r	.	4r	.
.	.	.	8g/J	.	8g/J	.	.	.	.	.	.	.	.	.	.	.
!	!	!	!	!	!	!	!	!	!	!	!	!	!	!	!LO:LB:g=original	!
=158	=158	=158	=158	=158	=158	=158	=158	=158	=158	=158	=158	=158	=158	=158	=158	=158
8r	.	.	4f#X/	.	4a/	.	.	.	.	.	.	.	8r	.	8r	.
!LO:TX:a:t=|:problem	!	!	!	!	!	!	!	!	!	!	!	!	!	!	!	!
16.d\LL	.	.	.	.	.	.	.	.	.	.	.	.	16.ddd\LL	.	16.ddd\LL	.
!LO:TX:a:t=|:problem	!	!	!	!	!	!	!	!	!	!	!	!	!	!	!	!
32A\JJk	.	.	.	.	.	.	.	.	.	.	.	.	32aa\JJk	.	32aa\JJk	.
!LO:TX:a:t=|:problem	!	!	!	!	!	!	!	!	!	!	!	!	!	!	!	!
8F#X\L	.	.	4r	.	8r	.	.	.	.	.	.	.	8ff#X\L	.	8ff#X\L	.
!LO:TX:a:t=|:problem	!	!	!	!	!	!	!	!	!	!	!	!	!	!	!	!
8D\J	.	.	.	.	8dd\	.	.	.	.	.	.	.	8dd\J	.	8dd\J	.
!LO:LB:g=original	!	!	!	!	!LO:LB:g=original	!	!	!	!	!	!	!	!	!	!	!
=159	=159	=159	=159	=159	=159	=159	=159	=159	=159	=159	=159	=159	=159	=159	=159	=159
8G\	3	.	8b-\L	.	8dd\L	.	.	.	.	.	.	.	8b-\	.	8gg\	.
8r	.	.	16cc\L	.	16ee-X\L	.	.	.	.	.	.	.	8r	.	8r	.
.	_	.	16b-\JJ	.	16dd\JJ	.	.	.	.	.	.	.	.	.	.	.
8G\	.	.	8b-\L	.	8dd\L	.	.	.	.	.	.	.	8b-\	.	8gg\	.
8r	x	.	16cc\L	.	16ee-\L	.	.	.	.	.	.	.	8r	.	8r	.
.	.	.	16b-\JJ	.	16dd\JJ	.	.	.	.	.	.	.	.	.	.	.
!	!	!	!LO:LB:g=original	!	!	!	!	!	!	!	!	!	!	!	!	!
=160	=160	=160	=160	=160	=160	=160	=160	=160	=160	=160	=160	=160	=160	=160	=160	=160
!	!	!	!	!	!	!	!LO:N:vis=00	!	!LO:N:vis=00	!	!LO:N:vis=00	!	!	!	!	!
8r	.	.	4b-\	.	4dd\	.	0r	.	0r	.	0r	.	8r	.	8r	.
16.G\LL	.	.	.	.	.	.	.	.	.	.	.	.	16.gg\LL	.	16.ggg\LL	.
!LO:TX:a:t=|:problem	!	!	!	!	!	!	!	!	!	!	!	!	!	!	!	!
32D\JJk	.	.	.	.	.	.	.	.	.	.	.	.	32dd\JJk	.	32ddd\JJk	.
!LO:TX:a:t=|:problem	!	!	!	!	!	!	!	!	!	!	!	!	!	!	!	!
8BB-/L	.	.	8r	.	8r	.	.	.	.	.	.	.	8b-/L	.	8bb-\L	.
!LO:TX:a:t=|:problem	!	!	!	!	!	!	!	!	!	!	!	!	!	!	!	!
8GG/J	.	.	8b-\	.	8dd\	.	.	.	.	.	.	.	8g/J	.	8gg\J	.
=161	=161	=161	=161	=161	=161	=161	=161	=161	=161	=161	=161	=161	=161	=161	=161	=161
8D\	#	.	8a/L	.	8cc\L	.	.	.	.	.	.	.	8ff#X\	.	8aa\	.
8r	.	.	16b-/L	.	16dd\L	.	.	.	.	.	.	.	8r	.	8r	.
.	.	.	16a/JJ	.	16cc\JJ	.	.	.	.	.	.	.	.	.	.	.
8D\	_	.	8a/L	.	8cc\L	.	.	.	.	.	.	.	8ff#\	.	8aa\	.
8r	.	.	16b-/L	.	16dd\L	.	.	.	.	.	.	.	8r	.	8r	.
.	x	.	16a/JJ	.	16cc\JJ	.	.	.	.	.	.	.	.	.	.	.
=162	=162	=162	=162	=162	=162	=162	=162	=162	=162	=162	=162	=162	=162	=162	=162	=162
8r	.	.	4a/	.	4cc\	.	.	.	.	.	.	.	8r	.	8r	.
!LO:TX:a:t=|:problem	!	!	!	!	!	!	!	!	!	!	!	!	!	!	!	!
16.d\LL	.	.	.	.	.	.	.	.	.	.	.	.	16.ddd\LL	.	16.ddd\LL	.
!LO:TX:t=P:problem:nadliczbowa kreska	!	!	!	!	!	!	!	!	!	!	!	!	!	!	!	!
!LO:TX:a:t=|:problem	!	!	!	!	!	!	!	!	!	!	!	!	!	!	!	!
32A\JJk	.	.	.	.	.	.	.	.	.	.	.	.	32aa\JJk	.	32aa\JJk	.
!LO:TX:a:t=|:problem	!	!	!	!	!	!	!	!	!	!	!	!	!	!	!	!
8F#X\L	.	.	8r	.	8r	.	.	.	.	.	.	.	8ff#X\L	.	8ff#X\L	.
!LO:TX:a:t=|:problem	!	!	!	!	!	!	!	!	!	!	!	!	!	!	!	!
8D\J	.	.	8dd\	.	8aa\	.	.	.	.	.	.	.	8dd\J	.	8dd\J	.
!	!	!	!	!	!	!	!	!	!	!	!	!	!LO:N:vis=00	!	!LO:LB:g=original	!
=163	=163	=163	=163	=163	=163	=163	=163	=163	=163	=163	=163	=163	=163	=163	=163	=163
8G\	.	.	8dd\L	.	8bb-\L	.	.	.	.	.	.	.	8dd\	.	8bb-\	.
8r	.	.	16ee-\L	.	16ccc\L	.	.	.	.	.	.	.	8r	.	8r	.
.	.	.	16dd\JJ	.	16bb-\JJ	.	.	.	.	.	.	.	.	.	.	.
8GG/	.	.	8dd\L	.	8bb-\L	.	.	.	.	.	.	.	8dd\	.	8bb-\	.
8r	.	.	16ee-\L	.	16ccc\L	.	.	.	.	.	.	.	8r	.	8r	.
.	.	.	16dd\JJ	.	16bb-\JJ	.	.	.	.	.	.	.	.	.	.	.
!LO:LB:g=original	!	!	!	!	!	!	!	!	!	!	!	!	!	!	!	!
=164	=164	=164	=164	=164	=164	=164	=164	=164	=164	=164	=164	=164	=164	=164	=164	=164
!	!	!	!	!	!	!	!LO:N:vis=00	!	!LO:N:vis=00	!	!LO:N:vis=00	!	!	!	!	!
8r	.	.	4dd\	.	4bb-\	.	0r	.	0r	.	0r	.	8r	.	8r	.
16.G\LL	.	.	.	.	.	.	.	.	.	.	.	.	16.gg\LL	.	16.ggg\LL	.
32D\JJk	.	.	.	.	.	.	.	.	.	.	.	.	32dd\JJk	.	32ddd\JJk	.
8BB-/L	.	.	8r	.	8r	.	.	.	.	.	.	.	8b-/L	.	8bb-\L	.
8GG/J	.	.	8dd\	.	8bb-\	.	.	.	.	.	.	.	8g/J	.	8gg\J	.
!	!	!	!	!	!LO:LB:g=original	!	!	!	!	!	!	!	!	!	!	!
=165	=165	=165	=165	=165	=165	=165	=165	=165	=165	=165	=165	=165	=165	=165	=165	=165
8D\	#	.	8cc\L	.	8aa\L	.	.	.	.	.	.	.	8ff#X\	.	8aa\	.
8r	.	.	16dd\L	.	16bb-\L	.	.	.	.	.	.	.	8r	.	8r	.
.	.	.	16cc\JJ	.	16aa\JJ	.	.	.	.	.	.	.	.	.	.	.
8DD/	.	.	8cc\L	.	8aa\L	.	.	.	.	.	.	.	8ff#\	.	8aa\	.
8r	.	.	16dd\L	.	16bb-\L	.	.	.	.	.	.	.	8r	.	8r	.
.	.	.	16cc\JJ	.	16aa\JJ	.	.	.	.	.	.	.	.	.	.	.
!	!	!	!LO:LB:g=original	!	!	!	!	!	!	!	!	!	!	!	!	!
=166	=166	=166	=166	=166	=166	=166	=166	=166	=166	=166	=166	=166	=166	=166	=166	=166
8r	.	.	4cc\	.	4aa\	.	.	.	.	.	.	.	8r	.	8r	.
!LO:TX:a:t=|:problem	!	!	!	!	!	!	!	!	!	!	!	!	!	!	!	!
16.d\LL	.	.	.	.	.	.	.	.	.	.	.	.	16.ddd\LL	.	16.ddd\LL	.
!LO:TX:a:t=|:problem	!	!	!	!	!	!	!	!	!	!	!	!	!	!	!	!
32A\JJk	.	.	.	.	.	.	.	.	.	.	.	.	32aa\JJk	.	32aa\JJk	.
!LO:TX:a:t=|:problem	!	!	!	!	!	!	!	!	!	!	!	!	!	!	!	!
8F#X\L	.	.	8r	.	8r	.	.	.	.	.	.	.	8ff#X\L	.	8ff#X\L	.
!LO:TX:a:t=|:problem	!	!	!	!	!	!	!	!	!	!	!	!	!	!	!	!
8D\J	.	.	8cc\	.	8aa\	.	.	.	.	.	.	.	8dd\J	.	8dd\J	.
=167	=167	=167	=167	=167	=167	=167	=167	=167	=167	=167	=167	=167	=167	=167	=167	=167
8G\L	3	.	8b-\L	.	8gg\L	.	.	.	.	.	.	.	(8b-\L	.	8gg\L	.
8F#X\	5	.	16cc\L	.	16aa\L	.	.	.	.	.	.	.	16cc\L	.	16aa\L	.
.	.	.	16b-\JJ	.	16gg\JJ	.	.	.	.	.	.	.	16b-\JJ)	.	16gg\JJ	.
8G\	3	.	8b-\L	.	8gg\L	.	.	.	.	.	.	.	(8b-\L	.	8gg\L	.
8F#\J	5	.	16cc\L	.	16aa\L	.	.	.	.	.	.	.	16cc\L	.	16aa\L	.
.	.	.	16b-\JJ	.	16gg\JJ	.	.	.	.	.	.	.	16b-\JJ)	.	16gg\JJ	.
=168	=168	=168	=168	=168	=168	=168	=168	=168	=168	=168	=168	=168	=168	=168	=168	=168
!	!	!	!	!	!	!	!LO:N:vis=00	!	!LO:N:vis=00	!	!LO:N:vis=00	!	!	!	!	!
8G\L	3	.	8b-\L	.	8gg\L	.	0r	.	0r	.	0r	.	(8b-\L	.	8gg\L	.
8F#X\	5	.	16cc\L	.	16aa\L	.	.	.	.	.	.	.	16cc\L	.	16aa\L	.
.	.	.	16b-\JJ	.	16gg\JJ	.	.	.	.	.	.	.	16b-\JJ)	.	16gg\JJ	.
8G\	3	.	8b-\L	.	8gg\L	.	.	.	.	.	.	.	(8b-\L	.	8gg\L	.
8F#\J	5	.	16cc\L	.	16aa\L	.	.	.	.	.	.	.	16cc\L	.	16aa\L	.
.	.	.	16b-\JJ	.	16gg\JJ	.	.	.	.	.	.	.	16b-\JJ)	.	16gg\JJ	.
!LO:LB:g=original	!	!	!	!	!	!	!	!	!	!	!	!	!LO:N:vis=00	!	!LO:LB:g=original	!
=169	=169	=169	=169	=169	=169	=169	=169	=169	=169	=169	=169	=169	=169	=169	=169	=169
!LO:TX:t=P:problem:mixed beam	!	!	!	!	!	!	!	!	!	!	!	!	!	!	!	!
8G\L	.	.	16.b-\LL	.	16.gg\LL	.	.	.	.	.	.	.	8b-\	.	8gg\	.
.	.	.	32b-\K	.	32dd\K	.	.	.	.	.	.	.	.	.	.	.
8c\	.	.	16.cc\	.	16.ee-\	.	.	.	.	.	.	.	8r	.	8r	.
.	.	.	32a\JJk	.	32cc\JJk	.	.	.	.	.	.	.	.	.	.	.
8d\	4	.	8g/L	.	8b-/L	.	.	.	.	.	.	.	8b-\L	.	8gg\L	.
8D/J	#	.	8f#X/J	.	8a/J	.	.	.	.	.	.	.	8a\J	.	8ff#X\J	.
!	!	!	!	!	!LO:LB:g=original	!	!	!	!	!	!	!	!	!	!	!
=170	=170	=170	=170	=170	=170	=170	=170	=170	=170	=170	=170	=170	=170	=170	=170	=170
!LO:TX:a:t=|:problem	!	!	!	!	!	!	!	!	!	!	!	!	!	!	!	!
16.G\LL	.	.	16.g/LL	.	16.g/LL	.	.	.	.	.	.	.	16.b-\LL	.	16.gg\LL	.
!LO:TX:a:t=|:problem	!	!	!	!	!	!	!	!	!	!	!	!	!	!	!	!
32D\K	.	.	32d/K	.	32d/K	.	.	.	.	.	.	.	32dd\K	.	32ddd\K	.
!LO:TX:a:t=|:problem	!	!	!	!	!	!	!	!	!	!	!	!	!	!	!	!
16.E-X\	.	.	16.e-/	.	16.e-/	.	.	.	.	.	.	.	16.ee-\	.	16.eee-\	.
!LO:TX:a:t=|:problem	!	!	!	!	!	!	!	!	!	!	!	!	!	!	!	!
32C\JJk	.	.	32c/JJk	.	32c/JJk	.	.	.	.	.	.	.	32cc\JJk	.	32ccc\JJk	.
!LO:TX:t=P:problem:mixed beam	!	!	!	!	!	!	!	!	!	!	!	!	!	!	!	!
!LO:TX:a:t=|:problem	!	!	!	!	!	!	!	!	!	!	!	!	!	!	!	!
8D\L	.	.	8d/L	.	8d/L	.	.	.	.	.	.	.	8dd\L	.	8ddd\L	.
!LO:TX:a:t=|:problem	!	!	!	!	!	!	!	!	!	!	!	!	!	!	!	!
8DD/J	.	.	8d/J	.	8d/J	.	.	.	.	.	.	.	8dd\J	.	8ddd\J	.
!	!	!	!LO:LB:g=original	!	!	!	!	!	!	!	!	!	!	!	!	!
=171	=171	=171	=171	=171	=171	=171	=171	=171	=171	=171	=171	=171	=171	=171	=171	=171
!	!	!	!	!	!LO:TX:t=P:problem:mixed beam	!	!	!	!	!	!	!	!LO:TX:t=P:mixed beam:problem	!	!	!
8GG/L	.	.	8G/L	.	8G/L	.	.	.	.	.	.	.	8g/L	.	8gg\L	.
8GG/	.	.	8G/ 8g/	.	8gg\	.	.	.	.	.	.	.	8gg\	.	8ggg\	.
8GG/	.	.	8G/ 8g/	.	8gg\	.	.	.	.	.	.	.	8gg\	.	8ggg\	.
8GG/J	.	.	8G/J 8g/	.	8gg\J	.	.	.	.	.	.	.	8gg\J	.	8ggg\J	.
=172	=172	=172	=172	=172	=172	=172	=172	=172	=172	=172	=172	=172	=172	=172	=172	=172
!	!	!	!	!	!	!	!	!	!LO:TX:t=P:problem:brak taktu	!	!LO:TX:t=P:problem:brak taktu	!	!	!	!	!
4GG/	.	.	4G/ 4g/	.	4G/ 4d/ 4b-/ 4gg/	.	2r	.	2ryy	.	2ryy	.	4gg\	.	4ggg\	.
4r	.	.	4r	.	4r	.	.	.	.	.	.	.	4r	.	4r	.
!LO:TX:b:t=Fine&colon;/&colon;	!	!	!LO:TX:b:t=Fine&colon;/&colon;	!	!LO:TX:b:t=Fine&colon;/&colon;	!	!LO:TX:b:t=Fine&colon;/&colon;	!	!LO:TX:b:t=Fine&colon;/&colon;	!	!LO:TX:b:t=Fine&colon;	!	!LO:TX:b:t=Fine&colon;/&colon;	!	!LO:TX:b:t=Fine&colon;/&colon;	!
==	==	==	==	==	==	==	==	==	==	==	==	==	==	==	==	==
*-	*-	*-	*-	*-	*-	*-	*-	*-	*-	*-	*-	*-	*-	*-	*-	*-
!!!system-decoration: [(s1,s2)][(s3,s4,s5)][(s6,s7)]s8
!!!RDF**kern: > = above
!!!RDF**kern: < = below
!!!RDF**dynam: f = for
!!!RDF**dynam: p = po&colon;
!!!ENC:Kamil Watkowski
!!!END:2020-08-12
!!!EED: Leszek Kubiak
!!!EST: 2020-09-29
